( Made using CamBam - http://www.cambam.co.uk )
( parametric_eq_panel 11/21/2015 10:45:27 AM )
( T3 : 3.175 )
G21 G90 G64 G40
G0 Z3.0
( T3 : 3.175 )
T3 M6
( holes )
G17
M3 S1000
G0 X6.6103 Y3.2478
G0 Z3.0
G0 X6.6228 Y3.2478
G0 Z0.5
G1 F1000.0 Z0.0
G2 F2000.0 X6.6041 Y3.237 Z-0.0333 I-0.0125 J0.0
G2 Y3.2587 Z-0.0667 I0.0062 J0.0108
G2 X6.6228 Y3.2478 Z-0.1 I0.0063 J-0.0108
G2 X6.6041 Y3.237 Z-0.1333 I-0.0125 J0.0
G2 Y3.2587 Z-0.1667 I0.0062 J0.0108
G2 X6.6228 Y3.2478 Z-0.2 I0.0063 J-0.0108
G2 X6.6041 Y3.237 Z-0.2333 I-0.0125 J0.0
G2 Y3.2587 Z-0.2667 I0.0062 J0.0108
G2 X6.6228 Y3.2478 Z-0.3 I0.0063 J-0.0108
G2 X6.6041 Y3.237 Z-0.3333 I-0.0125 J0.0
G2 Y3.2587 Z-0.3667 I0.0063 J0.0108
G2 X6.6228 Y3.2478 Z-0.4 I0.0062 J-0.0108
G2 X6.6041 Y3.237 Z-0.4333 I-0.0125 J0.0
G2 Y3.2587 Z-0.4667 I0.0063 J0.0108
G2 X6.6228 Y3.2478 Z-0.5 I0.0062 J-0.0108
G2 X6.6041 Y3.237 Z-0.5333 I-0.0125 J0.0
G2 Y3.2587 Z-0.5667 I0.0063 J0.0108
G2 X6.6228 Y3.2478 Z-0.6 I0.0062 J-0.0108
G2 X6.6041 Y3.237 Z-0.6333 I-0.0125 J0.0
G2 Y3.2587 Z-0.6667 I0.0062 J0.0108
G2 X6.6228 Y3.2478 Z-0.7 I0.0063 J-0.0108
G2 X6.6041 Y3.237 Z-0.7333 I-0.0125 J0.0
G2 Y3.2587 Z-0.7667 I0.0062 J0.0108
G2 X6.6228 Y3.2478 Z-0.8 I0.0063 J-0.0108
G2 X6.6041 Y3.237 Z-0.8333 I-0.0125 J0.0
G2 Y3.2587 Z-0.8667 I0.0062 J0.0108
G2 X6.6228 Y3.2478 Z-0.9 I0.0063 J-0.0108
G2 X6.6041 Y3.237 Z-0.9333 I-0.0125 J0.0
G2 Y3.2587 Z-0.9667 I0.0062 J0.0108
G2 X6.6228 Y3.2478 Z-1.0 I0.0063 J-0.0108
G2 X6.6041 Y3.237 Z-1.0333 I-0.0125 J0.0
G2 Y3.2587 Z-1.0667 I0.0062 J0.0108
G2 X6.6228 Y3.2478 Z-1.1 I0.0063 J-0.0108
G2 X6.6041 Y3.237 Z-1.1333 I-0.0125 J0.0
G2 Y3.2587 Z-1.1667 I0.0062 J0.0108
G2 X6.6228 Y3.2478 Z-1.2 I0.0063 J-0.0108
G2 X6.6041 Y3.237 Z-1.2333 I-0.0125 J0.0
G2 Y3.2587 Z-1.2667 I0.0062 J0.0108
G2 X6.6228 Y3.2478 Z-1.3 I0.0063 J-0.0108
G2 X6.6041 Y3.237 Z-1.3333 I-0.0125 J0.0
G2 Y3.2587 Z-1.3667 I0.0062 J0.0108
G2 X6.6228 Y3.2478 Z-1.4 I0.0063 J-0.0108
G2 X6.6041 Y3.237 Z-1.4333 I-0.0125 J0.0
G2 Y3.2587 Z-1.4667 I0.0062 J0.0108
G2 X6.6228 Y3.2478 Z-1.5 I0.0063 J-0.0108
G2 X6.6041 Y3.237 Z-1.5333 I-0.0125 J0.0
G2 Y3.2587 Z-1.5667 I0.0062 J0.0108
G2 X6.6228 Y3.2478 Z-1.6 I0.0063 J-0.0108
G2 X6.6041 Y3.237 Z-1.6333 I-0.0125 J0.0
G2 Y3.2587 Z-1.6667 I0.0062 J0.0108
G2 X6.6228 Y3.2478 Z-1.7 I0.0063 J-0.0108
G2 X6.6041 Y3.237 Z-1.7333 I-0.0125 J0.0
G2 Y3.2587 Z-1.7667 I0.0062 J0.0108
G2 X6.6228 Y3.2478 Z-1.8 I0.0063 J-0.0108
G2 X6.6041 Y3.237 Z-1.8333 I-0.0125 J0.0
G2 Y3.2587 Z-1.8667 I0.0062 J0.0108
G2 X6.6228 Y3.2478 Z-1.9 I0.0063 J-0.0108
G2 X6.6041 Y3.237 Z-1.9333 I-0.0125 J0.0
G2 Y3.2587 Z-1.9667 I0.0062 J0.0108
G2 X6.6228 Y3.2478 Z-2.0 I0.0063 J-0.0108
G2 X6.6041 Y3.237 Z-2.0333 I-0.0125 J0.0
G2 Y3.2587 Z-2.0667 I0.0062 J0.0108
G2 X6.6228 Y3.2478 Z-2.1 I0.0063 J-0.0108
G2 X6.6041 Y3.237 Z-2.1333 I-0.0125 J0.0
G2 Y3.2587 Z-2.1667 I0.0062 J0.0108
G2 X6.6228 Y3.2478 Z-2.2 I0.0063 J-0.0108
G2 X6.6041 Y3.237 Z-2.2333 I-0.0125 J0.0
G2 Y3.2587 Z-2.2667 I0.0062 J0.0108
G2 X6.6228 Y3.2478 Z-2.3 I0.0063 J-0.0108
G2 X6.6041 Y3.237 Z-2.3333 I-0.0125 J0.0
G2 Y3.2587 Z-2.3667 I0.0063 J0.0108
G2 X6.6228 Y3.2478 Z-2.4 I0.0062 J-0.0108
G2 X6.6041 Y3.237 Z-2.4333 I-0.0125 J0.0
G2 Y3.2587 Z-2.4667 I0.0063 J0.0108
G2 X6.6228 Y3.2478 Z-2.5 I0.0062 J-0.0108
G2 X6.6041 Y3.237 Z-2.5333 I-0.0125 J0.0
G2 Y3.2587 Z-2.5667 I0.0063 J0.0108
G2 X6.6228 Y3.2478 Z-2.6 I0.0062 J-0.0108
G2 X6.6041 Y3.237 Z-2.6333 I-0.0125 J0.0
G2 Y3.2587 Z-2.6667 I0.0063 J0.0108
G2 X6.6228 Y3.2478 Z-2.7 I0.0062 J-0.0108
G2 X6.6041 Y3.237 Z-2.7333 I-0.0125 J0.0
G2 Y3.2587 Z-2.7667 I0.0063 J0.0108
G2 X6.6228 Y3.2478 Z-2.8 I0.0062 J-0.0108
G2 X6.6041 Y3.237 Z-2.8333 I-0.0125 J0.0
G2 Y3.2587 Z-2.8667 I0.0063 J0.0108
G2 X6.6228 Y3.2478 Z-2.9 I0.0062 J-0.0108
G2 X6.6041 Y3.237 Z-2.9333 I-0.0125 J0.0
G2 Y3.2587 Z-2.9667 I0.0063 J0.0108
G2 X6.6228 Y3.2478 Z-3.0 I0.0062 J-0.0108
G2 X6.6041 Y3.237 Z-3.0333 I-0.0125 J0.0
G2 Y3.2587 Z-3.0667 I0.0063 J0.0108
G2 X6.6228 Y3.2478 Z-3.1 I0.0062 J-0.0108
G2 X6.6041 Y3.237 Z-3.1333 I-0.0125 J0.0
G2 Y3.2587 Z-3.1667 I0.0063 J0.0108
G2 X6.6228 Y3.2478 Z-3.2 I0.0062 J-0.0108
G2 X6.6041 Y3.237 I-0.0125 J0.0
G2 Y3.2587 I0.0063 J0.0108
G2 X6.6228 Y3.2478 I0.0062 J-0.0108
G0 Z3.0
G0 X8.0919 Y21.8533
G0 Z0.5
G1 F1000.0 Z0.0
G2 F2000.0 X8.0731 Y21.8425 Z-0.0333 I-0.0125 J0.0
G2 Y21.8642 Z-0.0667 I0.0062 J0.0108
G2 X8.0919 Y21.8533 Z-0.1 I0.0063 J-0.0108
G2 X8.0731 Y21.8425 Z-0.1333 I-0.0125 J0.0
G2 Y21.8642 Z-0.1667 I0.0062 J0.0108
G2 X8.0919 Y21.8533 Z-0.2 I0.0063 J-0.0108
G2 X8.0731 Y21.8425 Z-0.2333 I-0.0125 J0.0
G2 Y21.8642 Z-0.2667 I0.0062 J0.0108
G2 X8.0919 Y21.8533 Z-0.3 I0.0063 J-0.0108
G2 X8.0731 Y21.8425 Z-0.3333 I-0.0125 J0.0
G2 Y21.8642 Z-0.3667 I0.0062 J0.0108
G2 X8.0919 Y21.8533 Z-0.4 I0.0063 J-0.0108
G2 X8.0731 Y21.8425 Z-0.4333 I-0.0125 J0.0
G2 Y21.8642 Z-0.4667 I0.0062 J0.0108
G2 X8.0919 Y21.8533 Z-0.5 I0.0063 J-0.0108
G2 X8.0731 Y21.8425 Z-0.5333 I-0.0125 J0.0
G2 Y21.8642 Z-0.5667 I0.0062 J0.0108
G2 X8.0919 Y21.8533 Z-0.6 I0.0063 J-0.0108
G2 X8.0731 Y21.8425 Z-0.6333 I-0.0125 J0.0
G2 Y21.8642 Z-0.6667 I0.0062 J0.0108
G2 X8.0919 Y21.8533 Z-0.7 I0.0063 J-0.0108
G2 X8.0731 Y21.8425 Z-0.7333 I-0.0125 J0.0
G2 Y21.8642 Z-0.7667 I0.0062 J0.0108
G2 X8.0919 Y21.8533 Z-0.8 I0.0063 J-0.0108
G2 X8.0731 Y21.8425 Z-0.8333 I-0.0125 J0.0
G2 Y21.8642 Z-0.8667 I0.0062 J0.0108
G2 X8.0919 Y21.8533 Z-0.9 I0.0063 J-0.0108
G2 X8.0731 Y21.8425 Z-0.9333 I-0.0125 J0.0
G2 Y21.8642 Z-0.9667 I0.0062 J0.0108
G2 X8.0919 Y21.8533 Z-1.0 I0.0063 J-0.0108
G2 X8.0731 Y21.8425 Z-1.0333 I-0.0125 J0.0
G2 Y21.8642 Z-1.0667 I0.0062 J0.0108
G2 X8.0919 Y21.8533 Z-1.1 I0.0063 J-0.0108
G2 X8.0731 Y21.8425 Z-1.1333 I-0.0125 J0.0
G2 Y21.8642 Z-1.1667 I0.0062 J0.0108
G2 X8.0919 Y21.8533 Z-1.2 I0.0063 J-0.0108
G2 X8.0731 Y21.8425 Z-1.2333 I-0.0125 J0.0
G2 Y21.8642 Z-1.2667 I0.0062 J0.0108
G2 X8.0919 Y21.8533 Z-1.3 I0.0063 J-0.0108
G2 X8.0731 Y21.8425 Z-1.3333 I-0.0125 J0.0
G2 Y21.8642 Z-1.3667 I0.0062 J0.0108
G2 X8.0919 Y21.8533 Z-1.4 I0.0063 J-0.0108
G2 X8.0731 Y21.8425 Z-1.4333 I-0.0125 J0.0
G2 Y21.8642 Z-1.4667 I0.0062 J0.0108
G2 X8.0919 Y21.8533 Z-1.5 I0.0063 J-0.0108
G2 X8.0731 Y21.8425 Z-1.5333 I-0.0125 J0.0
G2 Y21.8642 Z-1.5667 I0.0062 J0.0108
G2 X8.0919 Y21.8533 Z-1.6 I0.0063 J-0.0108
G2 X8.0731 Y21.8425 Z-1.6333 I-0.0125 J0.0
G2 Y21.8642 Z-1.6667 I0.0062 J0.0108
G2 X8.0919 Y21.8533 Z-1.7 I0.0063 J-0.0108
G2 X8.0731 Y21.8425 Z-1.7333 I-0.0125 J0.0
G2 Y21.8642 Z-1.7667 I0.0062 J0.0108
G2 X8.0919 Y21.8533 Z-1.8 I0.0063 J-0.0108
G2 X8.0731 Y21.8425 Z-1.8333 I-0.0125 J0.0
G2 Y21.8642 Z-1.8667 I0.0062 J0.0108
G2 X8.0919 Y21.8533 Z-1.9 I0.0063 J-0.0108
G2 X8.0731 Y21.8425 Z-1.9333 I-0.0125 J0.0
G2 Y21.8642 Z-1.9667 I0.0062 J0.0108
G2 X8.0919 Y21.8533 Z-2.0 I0.0063 J-0.0108
G2 X8.0731 Y21.8425 Z-2.0333 I-0.0125 J0.0
G2 Y21.8642 Z-2.0667 I0.0062 J0.0108
G2 X8.0919 Y21.8533 Z-2.1 I0.0063 J-0.0108
G2 X8.0731 Y21.8425 Z-2.1333 I-0.0125 J0.0
G2 Y21.8642 Z-2.1667 I0.0062 J0.0108
G2 X8.0919 Y21.8533 Z-2.2 I0.0063 J-0.0108
G2 X8.0731 Y21.8425 Z-2.2333 I-0.0125 J0.0
G2 Y21.8642 Z-2.2667 I0.0062 J0.0108
G2 X8.0919 Y21.8533 Z-2.3 I0.0063 J-0.0108
G2 X8.0731 Y21.8425 Z-2.3333 I-0.0125 J0.0
G2 Y21.8642 Z-2.3667 I0.0062 J0.0108
G2 X8.0919 Y21.8533 Z-2.4 I0.0063 J-0.0108
G2 X8.0731 Y21.8425 Z-2.4333 I-0.0125 J0.0
G2 Y21.8642 Z-2.4667 I0.0062 J0.0108
G2 X8.0919 Y21.8533 Z-2.5 I0.0063 J-0.0108
G2 X8.0731 Y21.8425 Z-2.5333 I-0.0125 J0.0
G2 Y21.8642 Z-2.5667 I0.0062 J0.0108
G2 X8.0919 Y21.8533 Z-2.6 I0.0063 J-0.0108
G2 X8.0731 Y21.8425 Z-2.6333 I-0.0125 J0.0
G2 Y21.8642 Z-2.6667 I0.0063 J0.0108
G2 X8.0919 Y21.8533 Z-2.7 I0.0062 J-0.0108
G2 X8.0731 Y21.8425 Z-2.7333 I-0.0125 J0.0
G2 Y21.8642 Z-2.7667 I0.0063 J0.0108
G2 X8.0919 Y21.8533 Z-2.8 I0.0062 J-0.0108
G2 X8.0731 Y21.8425 Z-2.8333 I-0.0125 J0.0
G2 Y21.8642 Z-2.8667 I0.0063 J0.0108
G2 X8.0919 Y21.8533 Z-2.9 I0.0062 J-0.0108
G2 X8.0731 Y21.8425 Z-2.9333 I-0.0125 J0.0
G2 Y21.8642 Z-2.9667 I0.0063 J0.0108
G2 X8.0919 Y21.8533 Z-3.0 I0.0062 J-0.0108
G2 X8.0731 Y21.8425 Z-3.0333 I-0.0125 J0.0
G2 Y21.8642 Z-3.0667 I0.0063 J0.0108
G2 X8.0919 Y21.8533 Z-3.1 I0.0062 J-0.0108
G2 X8.0731 Y21.8425 Z-3.1333 I-0.0125 J0.0
G2 Y21.8642 Z-3.1667 I0.0063 J0.0108
G2 X8.0919 Y21.8533 Z-3.2 I0.0062 J-0.0108
G2 X8.0731 Y21.8425 I-0.0125 J0.0
G2 Y21.8642 I0.0063 J0.0108
G2 X8.0919 Y21.8533 I0.0062 J-0.0108
G0 Z3.0
G0 Y38.3887
G0 Z0.5
G1 F1000.0 Z0.0
G2 F2000.0 X8.0731 Y38.3779 Z-0.0333 I-0.0125 J0.0
G2 Y38.3996 Z-0.0667 I0.0063 J0.0108
G2 X8.0919 Y38.3887 Z-0.1 I0.0062 J-0.0108
G2 X8.0731 Y38.3779 Z-0.1333 I-0.0125 J0.0
G2 Y38.3996 Z-0.1667 I0.0063 J0.0108
G2 X8.0919 Y38.3887 Z-0.2 I0.0062 J-0.0108
G2 X8.0731 Y38.3779 Z-0.2333 I-0.0125 J0.0
G2 Y38.3996 Z-0.2667 I0.0063 J0.0108
G2 X8.0919 Y38.3887 Z-0.3 I0.0062 J-0.0108
G2 X8.0731 Y38.3779 Z-0.3333 I-0.0125 J0.0
G2 Y38.3996 Z-0.3667 I0.0063 J0.0108
G2 X8.0919 Y38.3887 Z-0.4 I0.0062 J-0.0108
G2 X8.0731 Y38.3779 Z-0.4333 I-0.0125 J0.0
G2 Y38.3996 Z-0.4667 I0.0063 J0.0108
G2 X8.0919 Y38.3887 Z-0.5 I0.0062 J-0.0108
G2 X8.0731 Y38.3779 Z-0.5333 I-0.0125 J0.0
G2 Y38.3996 Z-0.5667 I0.0063 J0.0108
G2 X8.0919 Y38.3887 Z-0.6 I0.0062 J-0.0108
G2 X8.0731 Y38.3779 Z-0.6333 I-0.0125 J0.0
G2 Y38.3996 Z-0.6667 I0.0063 J0.0108
G2 X8.0919 Y38.3887 Z-0.7 I0.0062 J-0.0108
G2 X8.0731 Y38.3779 Z-0.7333 I-0.0125 J0.0
G2 Y38.3996 Z-0.7667 I0.0063 J0.0108
G2 X8.0919 Y38.3887 Z-0.8 I0.0062 J-0.0108
G2 X8.0731 Y38.3779 Z-0.8333 I-0.0125 J0.0
G2 Y38.3996 Z-0.8667 I0.0063 J0.0108
G2 X8.0919 Y38.3887 Z-0.9 I0.0062 J-0.0108
G2 X8.0731 Y38.3779 Z-0.9333 I-0.0125 J0.0
G2 Y38.3996 Z-0.9667 I0.0063 J0.0108
G2 X8.0919 Y38.3887 Z-1.0 I0.0062 J-0.0108
G2 X8.0731 Y38.3779 Z-1.0333 I-0.0125 J0.0
G2 Y38.3996 Z-1.0667 I0.0063 J0.0108
G2 X8.0919 Y38.3887 Z-1.1 I0.0062 J-0.0108
G2 X8.0731 Y38.3779 Z-1.1333 I-0.0125 J0.0
G2 Y38.3996 Z-1.1667 I0.0063 J0.0108
G2 X8.0919 Y38.3887 Z-1.2 I0.0062 J-0.0108
G2 X8.0731 Y38.3779 Z-1.2333 I-0.0125 J0.0
G2 Y38.3996 Z-1.2667 I0.0063 J0.0108
G2 X8.0919 Y38.3887 Z-1.3 I0.0062 J-0.0108
G2 X8.0731 Y38.3779 Z-1.3333 I-0.0125 J0.0
G2 Y38.3996 Z-1.3667 I0.0063 J0.0108
G2 X8.0919 Y38.3887 Z-1.4 I0.0062 J-0.0108
G2 X8.0731 Y38.3779 Z-1.4333 I-0.0125 J0.0
G2 Y38.3996 Z-1.4667 I0.0063 J0.0108
G2 X8.0919 Y38.3887 Z-1.5 I0.0062 J-0.0108
G2 X8.0731 Y38.3779 Z-1.5333 I-0.0125 J0.0
G2 Y38.3996 Z-1.5667 I0.0063 J0.0108
G2 X8.0919 Y38.3887 Z-1.6 I0.0062 J-0.0108
G2 X8.0731 Y38.3779 Z-1.6333 I-0.0125 J0.0
G2 Y38.3996 Z-1.6667 I0.0063 J0.0108
G2 X8.0919 Y38.3887 Z-1.7 I0.0062 J-0.0108
G2 X8.0731 Y38.3779 Z-1.7333 I-0.0125 J0.0
G2 Y38.3996 Z-1.7667 I0.0063 J0.0108
G2 X8.0919 Y38.3887 Z-1.8 I0.0062 J-0.0108
G2 X8.0731 Y38.3779 Z-1.8333 I-0.0125 J0.0
G2 Y38.3996 Z-1.8667 I0.0063 J0.0108
G2 X8.0919 Y38.3887 Z-1.9 I0.0062 J-0.0108
G2 X8.0731 Y38.3779 Z-1.9333 I-0.0125 J0.0
G2 Y38.3996 Z-1.9667 I0.0063 J0.0108
G2 X8.0919 Y38.3887 Z-2.0 I0.0062 J-0.0108
G2 X8.0731 Y38.3779 Z-2.0333 I-0.0125 J0.0
G2 Y38.3996 Z-2.0667 I0.0063 J0.0108
G2 X8.0919 Y38.3887 Z-2.1 I0.0062 J-0.0108
G2 X8.0731 Y38.3779 Z-2.1333 I-0.0125 J0.0
G2 Y38.3996 Z-2.1667 I0.0063 J0.0108
G2 X8.0919 Y38.3887 Z-2.2 I0.0062 J-0.0108
G2 X8.0731 Y38.3779 Z-2.2333 I-0.0125 J0.0
G2 Y38.3996 Z-2.2667 I0.0063 J0.0108
G2 X8.0919 Y38.3887 Z-2.3 I0.0062 J-0.0108
G2 X8.0731 Y38.3779 Z-2.3333 I-0.0125 J0.0
G2 Y38.3996 Z-2.3667 I0.0063 J0.0108
G2 X8.0919 Y38.3887 Z-2.4 I0.0062 J-0.0108
G2 X8.0731 Y38.3779 Z-2.4333 I-0.0125 J0.0
G2 Y38.3996 Z-2.4667 I0.0063 J0.0108
G2 X8.0919 Y38.3887 Z-2.5 I0.0062 J-0.0108
G2 X8.0731 Y38.3779 Z-2.5333 I-0.0125 J0.0
G2 Y38.3996 Z-2.5667 I0.0063 J0.0108
G2 X8.0919 Y38.3887 Z-2.6 I0.0062 J-0.0108
G2 X8.0731 Y38.3779 Z-2.6333 I-0.0125 J0.0
G2 Y38.3996 Z-2.6667 I0.0063 J0.0108
G2 X8.0919 Y38.3887 Z-2.7 I0.0062 J-0.0108
G2 X8.0731 Y38.3779 Z-2.7333 I-0.0125 J0.0
G2 Y38.3996 Z-2.7667 I0.0063 J0.0108
G2 X8.0919 Y38.3887 Z-2.8 I0.0062 J-0.0108
G2 X8.0731 Y38.3779 Z-2.8333 I-0.0125 J0.0
G2 Y38.3996 Z-2.8667 I0.0063 J0.0108
G2 X8.0919 Y38.3887 Z-2.9 I0.0062 J-0.0108
G2 X8.0731 Y38.3779 Z-2.9333 I-0.0125 J0.0
G2 Y38.3996 Z-2.9667 I0.0063 J0.0108
G2 X8.0919 Y38.3887 Z-3.0 I0.0062 J-0.0108
G2 X8.0731 Y38.3779 Z-3.0333 I-0.0125 J0.0
G2 Y38.3996 Z-3.0667 I0.0063 J0.0108
G2 X8.0919 Y38.3887 Z-3.1 I0.0062 J-0.0108
G2 X8.0731 Y38.3779 Z-3.1333 I-0.0125 J0.0
G2 Y38.3996 Z-3.1667 I0.0063 J0.0108
G2 X8.0919 Y38.3887 Z-3.2 I0.0062 J-0.0108
G2 X8.0731 Y38.3779 I-0.0125 J0.0
G2 Y38.3996 I0.0063 J0.0108
G2 X8.0919 Y38.3887 I0.0062 J-0.0108
G0 Z3.0
G0 X8.0756 Y52.2825
G0 Z0.5
G1 F1000.0 Z0.0
G2 F2000.0 X8.0569 Y52.2717 Z-0.0333 I-0.0125 J0.0
G2 Y52.2934 Z-0.0667 I0.0063 J0.0108
G2 X8.0756 Y52.2825 Z-0.1 I0.0062 J-0.0108
G2 X8.0569 Y52.2717 Z-0.1333 I-0.0125 J0.0
G2 Y52.2934 Z-0.1667 I0.0063 J0.0108
G2 X8.0756 Y52.2825 Z-0.2 I0.0062 J-0.0108
G2 X8.0569 Y52.2717 Z-0.2333 I-0.0125 J0.0
G2 Y52.2934 Z-0.2667 I0.0063 J0.0108
G2 X8.0756 Y52.2825 Z-0.3 I0.0062 J-0.0108
G2 X8.0569 Y52.2717 Z-0.3333 I-0.0125 J0.0
G2 Y52.2934 Z-0.3667 I0.0063 J0.0108
G2 X8.0756 Y52.2825 Z-0.4 I0.0062 J-0.0108
G2 X8.0569 Y52.2717 Z-0.4333 I-0.0125 J0.0
G2 Y52.2934 Z-0.4667 I0.0063 J0.0108
G2 X8.0756 Y52.2825 Z-0.5 I0.0062 J-0.0108
G2 X8.0569 Y52.2717 Z-0.5333 I-0.0125 J0.0
G2 Y52.2934 Z-0.5667 I0.0063 J0.0108
G2 X8.0756 Y52.2825 Z-0.6 I0.0062 J-0.0108
G2 X8.0569 Y52.2717 Z-0.6333 I-0.0125 J0.0
G2 Y52.2934 Z-0.6667 I0.0063 J0.0108
G2 X8.0756 Y52.2825 Z-0.7 I0.0062 J-0.0108
G2 X8.0569 Y52.2717 Z-0.7333 I-0.0125 J0.0
G2 Y52.2934 Z-0.7667 I0.0063 J0.0108
G2 X8.0756 Y52.2825 Z-0.8 I0.0062 J-0.0108
G2 X8.0569 Y52.2717 Z-0.8333 I-0.0125 J0.0
G2 Y52.2934 Z-0.8667 I0.0063 J0.0108
G2 X8.0756 Y52.2825 Z-0.9 I0.0062 J-0.0108
G2 X8.0569 Y52.2717 Z-0.9333 I-0.0125 J0.0
G2 Y52.2934 Z-0.9667 I0.0063 J0.0108
G2 X8.0756 Y52.2825 Z-1.0 I0.0062 J-0.0108
G2 X8.0569 Y52.2717 Z-1.0333 I-0.0125 J0.0
G2 Y52.2934 Z-1.0667 I0.0063 J0.0108
G2 X8.0756 Y52.2825 Z-1.1 I0.0062 J-0.0108
G2 X8.0569 Y52.2717 Z-1.1333 I-0.0125 J0.0
G2 Y52.2934 Z-1.1667 I0.0063 J0.0108
G2 X8.0756 Y52.2825 Z-1.2 I0.0062 J-0.0108
G2 X8.0569 Y52.2717 Z-1.2333 I-0.0125 J0.0
G2 Y52.2934 Z-1.2667 I0.0063 J0.0108
G2 X8.0756 Y52.2825 Z-1.3 I0.0062 J-0.0108
G2 X8.0569 Y52.2717 Z-1.3333 I-0.0125 J0.0
G2 Y52.2934 Z-1.3667 I0.0063 J0.0108
G2 X8.0756 Y52.2825 Z-1.4 I0.0062 J-0.0108
G2 X8.0569 Y52.2717 Z-1.4333 I-0.0125 J0.0
G2 Y52.2934 Z-1.4667 I0.0063 J0.0108
G2 X8.0756 Y52.2825 Z-1.5 I0.0062 J-0.0108
G2 X8.0569 Y52.2717 Z-1.5333 I-0.0125 J0.0
G2 Y52.2934 Z-1.5667 I0.0063 J0.0108
G2 X8.0756 Y52.2825 Z-1.6 I0.0062 J-0.0108
G2 X8.0569 Y52.2717 Z-1.6333 I-0.0125 J0.0
G2 Y52.2934 Z-1.6667 I0.0063 J0.0108
G2 X8.0756 Y52.2825 Z-1.7 I0.0062 J-0.0108
G2 X8.0569 Y52.2717 Z-1.7333 I-0.0125 J0.0
G2 Y52.2934 Z-1.7667 I0.0063 J0.0108
G2 X8.0756 Y52.2825 Z-1.8 I0.0062 J-0.0108
G2 X8.0569 Y52.2717 Z-1.8333 I-0.0125 J0.0
G2 Y52.2934 Z-1.8667 I0.0063 J0.0108
G2 X8.0756 Y52.2825 Z-1.9 I0.0062 J-0.0108
G2 X8.0569 Y52.2717 Z-1.9333 I-0.0125 J0.0
G2 Y52.2934 Z-1.9667 I0.0063 J0.0108
G2 X8.0756 Y52.2825 Z-2.0 I0.0062 J-0.0108
G2 X8.0569 Y52.2717 Z-2.0333 I-0.0125 J0.0
G2 Y52.2934 Z-2.0667 I0.0063 J0.0108
G2 X8.0756 Y52.2825 Z-2.1 I0.0062 J-0.0108
G2 X8.0569 Y52.2717 Z-2.1333 I-0.0125 J0.0
G2 Y52.2934 Z-2.1667 I0.0063 J0.0108
G2 X8.0756 Y52.2825 Z-2.2 I0.0062 J-0.0108
G2 X8.0569 Y52.2717 Z-2.2333 I-0.0125 J0.0
G2 Y52.2934 Z-2.2667 I0.0063 J0.0108
G2 X8.0756 Y52.2825 Z-2.3 I0.0062 J-0.0108
G2 X8.0569 Y52.2717 Z-2.3333 I-0.0125 J0.0
G2 Y52.2934 Z-2.3667 I0.0063 J0.0108
G2 X8.0756 Y52.2825 Z-2.4 I0.0062 J-0.0108
G2 X8.0569 Y52.2717 Z-2.4333 I-0.0125 J0.0
G2 Y52.2934 Z-2.4667 I0.0063 J0.0108
G2 X8.0756 Y52.2825 Z-2.5 I0.0062 J-0.0108
G2 X8.0569 Y52.2717 Z-2.5333 I-0.0125 J0.0
G2 Y52.2934 Z-2.5667 I0.0063 J0.0108
G2 X8.0756 Y52.2825 Z-2.6 I0.0062 J-0.0108
G2 X8.0569 Y52.2717 Z-2.6333 I-0.0125 J0.0
G2 Y52.2934 Z-2.6667 I0.0063 J0.0108
G2 X8.0756 Y52.2825 Z-2.7 I0.0062 J-0.0108
G2 X8.0569 Y52.2717 Z-2.7333 I-0.0125 J0.0
G2 Y52.2934 Z-2.7667 I0.0063 J0.0108
G2 X8.0756 Y52.2825 Z-2.8 I0.0062 J-0.0108
G2 X8.0569 Y52.2717 Z-2.8333 I-0.0125 J0.0
G2 Y52.2934 Z-2.8667 I0.0063 J0.0108
G2 X8.0756 Y52.2825 Z-2.9 I0.0062 J-0.0108
G2 X8.0569 Y52.2717 Z-2.9333 I-0.0125 J0.0
G2 Y52.2934 Z-2.9667 I0.0063 J0.0108
G2 X8.0756 Y52.2825 Z-3.0 I0.0062 J-0.0108
G2 X8.0569 Y52.2717 Z-3.0333 I-0.0125 J0.0
G2 Y52.2934 Z-3.0667 I0.0063 J0.0108
G2 X8.0756 Y52.2825 Z-3.1 I0.0062 J-0.0108
G2 X8.0569 Y52.2717 Z-3.1333 I-0.0125 J0.0
G2 Y52.2934 Z-3.1667 I0.0063 J0.0108
G2 X8.0756 Y52.2825 Z-3.2 I0.0062 J-0.0108
G2 X8.0569 Y52.2717 I-0.0125 J0.0
G2 Y52.2934 I0.0063 J0.0108
G2 X8.0756 Y52.2825 I0.0062 J-0.0108
G0 Z3.0
G0 Y66.3033
G0 Z0.5
G1 F1000.0 Z0.0
G2 F2000.0 X8.0569 Y66.2925 Z-0.0333 I-0.0125 J0.0
G2 Y66.3142 Z-0.0667 I0.0062 J0.0108
G2 X8.0756 Y66.3033 Z-0.1 I0.0063 J-0.0108
G2 X8.0569 Y66.2925 Z-0.1333 I-0.0125 J0.0
G2 Y66.3142 Z-0.1667 I0.0062 J0.0108
G2 X8.0756 Y66.3033 Z-0.2 I0.0063 J-0.0108
G2 X8.0569 Y66.2925 Z-0.2333 I-0.0125 J0.0
G2 Y66.3142 Z-0.2667 I0.0062 J0.0108
G2 X8.0756 Y66.3033 Z-0.3 I0.0063 J-0.0108
G2 X8.0569 Y66.2925 Z-0.3333 I-0.0125 J0.0
G2 Y66.3142 Z-0.3667 I0.0062 J0.0108
G2 X8.0756 Y66.3033 Z-0.4 I0.0063 J-0.0108
G2 X8.0569 Y66.2925 Z-0.4333 I-0.0125 J0.0
G2 Y66.3142 Z-0.4667 I0.0062 J0.0108
G2 X8.0756 Y66.3033 Z-0.5 I0.0063 J-0.0108
G2 X8.0569 Y66.2925 Z-0.5333 I-0.0125 J0.0
G2 Y66.3142 Z-0.5667 I0.0062 J0.0108
G2 X8.0756 Y66.3033 Z-0.6 I0.0063 J-0.0108
G2 X8.0569 Y66.2925 Z-0.6333 I-0.0125 J0.0
G2 Y66.3142 Z-0.6667 I0.0062 J0.0108
G2 X8.0756 Y66.3033 Z-0.7 I0.0063 J-0.0108
G2 X8.0569 Y66.2925 Z-0.7333 I-0.0125 J0.0
G2 Y66.3142 Z-0.7667 I0.0062 J0.0108
G2 X8.0756 Y66.3033 Z-0.8 I0.0063 J-0.0108
G2 X8.0569 Y66.2925 Z-0.8333 I-0.0125 J0.0
G2 Y66.3142 Z-0.8667 I0.0062 J0.0108
G2 X8.0756 Y66.3033 Z-0.9 I0.0063 J-0.0108
G2 X8.0569 Y66.2925 Z-0.9333 I-0.0125 J0.0
G2 Y66.3142 Z-0.9667 I0.0062 J0.0108
G2 X8.0756 Y66.3033 Z-1.0 I0.0063 J-0.0108
G2 X8.0569 Y66.2925 Z-1.0333 I-0.0125 J0.0
G2 Y66.3142 Z-1.0667 I0.0062 J0.0108
G2 X8.0756 Y66.3033 Z-1.1 I0.0063 J-0.0108
G2 X8.0569 Y66.2925 Z-1.1333 I-0.0125 J0.0
G2 Y66.3142 Z-1.1667 I0.0062 J0.0108
G2 X8.0756 Y66.3033 Z-1.2 I0.0063 J-0.0108
G2 X8.0569 Y66.2925 Z-1.2333 I-0.0125 J0.0
G2 Y66.3142 Z-1.2667 I0.0062 J0.0108
G2 X8.0756 Y66.3033 Z-1.3 I0.0063 J-0.0108
G2 X8.0569 Y66.2925 Z-1.3333 I-0.0125 J0.0
G2 Y66.3142 Z-1.3667 I0.0062 J0.0108
G2 X8.0756 Y66.3033 Z-1.4 I0.0063 J-0.0108
G2 X8.0569 Y66.2925 Z-1.4333 I-0.0125 J0.0
G2 Y66.3142 Z-1.4667 I0.0062 J0.0108
G2 X8.0756 Y66.3033 Z-1.5 I0.0063 J-0.0108
G2 X8.0569 Y66.2925 Z-1.5333 I-0.0125 J0.0
G2 Y66.3142 Z-1.5667 I0.0062 J0.0108
G2 X8.0756 Y66.3033 Z-1.6 I0.0063 J-0.0108
G2 X8.0569 Y66.2925 Z-1.6333 I-0.0125 J0.0
G2 Y66.3142 Z-1.6667 I0.0062 J0.0108
G2 X8.0756 Y66.3033 Z-1.7 I0.0063 J-0.0108
G2 X8.0569 Y66.2925 Z-1.7333 I-0.0125 J0.0
G2 Y66.3142 Z-1.7667 I0.0062 J0.0108
G2 X8.0756 Y66.3033 Z-1.8 I0.0063 J-0.0108
G2 X8.0569 Y66.2925 Z-1.8333 I-0.0125 J0.0
G2 Y66.3142 Z-1.8667 I0.0062 J0.0108
G2 X8.0756 Y66.3033 Z-1.9 I0.0063 J-0.0108
G2 X8.0569 Y66.2925 Z-1.9333 I-0.0125 J0.0
G2 Y66.3142 Z-1.9667 I0.0062 J0.0108
G2 X8.0756 Y66.3033 Z-2.0 I0.0063 J-0.0108
G2 X8.0569 Y66.2925 Z-2.0333 I-0.0125 J0.0
G2 Y66.3142 Z-2.0667 I0.0062 J0.0108
G2 X8.0756 Y66.3033 Z-2.1 I0.0063 J-0.0108
G2 X8.0569 Y66.2925 Z-2.1333 I-0.0125 J0.0
G2 Y66.3142 Z-2.1667 I0.0062 J0.0108
G2 X8.0756 Y66.3033 Z-2.2 I0.0063 J-0.0108
G2 X8.0569 Y66.2925 Z-2.2333 I-0.0125 J0.0
G2 Y66.3142 Z-2.2667 I0.0062 J0.0108
G2 X8.0756 Y66.3033 Z-2.3 I0.0063 J-0.0108
G2 X8.0569 Y66.2925 Z-2.3333 I-0.0125 J0.0
G2 Y66.3142 Z-2.3667 I0.0062 J0.0108
G2 X8.0756 Y66.3033 Z-2.4 I0.0063 J-0.0108
G2 X8.0569 Y66.2925 Z-2.4333 I-0.0125 J0.0
G2 Y66.3142 Z-2.4667 I0.0062 J0.0108
G2 X8.0756 Y66.3033 Z-2.5 I0.0063 J-0.0108
G2 X8.0569 Y66.2925 Z-2.5333 I-0.0125 J0.0
G2 Y66.3142 Z-2.5667 I0.0062 J0.0108
G2 X8.0756 Y66.3033 Z-2.6 I0.0063 J-0.0108
G2 X8.0569 Y66.2925 Z-2.6333 I-0.0125 J0.0
G2 Y66.3142 Z-2.6667 I0.0062 J0.0108
G2 X8.0756 Y66.3033 Z-2.7 I0.0063 J-0.0108
G2 X8.0569 Y66.2925 Z-2.7333 I-0.0125 J0.0
G2 Y66.3142 Z-2.7667 I0.0062 J0.0108
G2 X8.0756 Y66.3033 Z-2.8 I0.0062 J-0.0108
G2 X8.0569 Y66.2925 Z-2.8333 I-0.0125 J0.0
G2 Y66.3142 Z-2.8667 I0.0062 J0.0108
G2 X8.0756 Y66.3033 Z-2.9 I0.0062 J-0.0108
G2 X8.0569 Y66.2925 Z-2.9333 I-0.0125 J0.0
G2 Y66.3142 Z-2.9667 I0.0062 J0.0108
G2 X8.0756 Y66.3033 Z-3.0 I0.0062 J-0.0108
G2 X8.0569 Y66.2925 Z-3.0333 I-0.0125 J0.0
G2 Y66.3142 Z-3.0667 I0.0062 J0.0108
G2 X8.0756 Y66.3033 Z-3.1 I0.0062 J-0.0108
G2 X8.0569 Y66.2925 Z-3.1333 I-0.0125 J0.0
G2 Y66.3142 Z-3.1667 I0.0063 J0.0108
G2 X8.0756 Y66.3033 Z-3.2 I0.0062 J-0.0108
G2 X8.0569 Y66.2925 I-0.0125 J0.0
G2 Y66.3142 I0.0063 J0.0108
G2 X8.0756 Y66.3033 I0.0062 J-0.0108
G0 Z3.0
G0 X8.0846 Y80.2225
G0 Z0.5
G1 F1000.0 Z0.0
G2 F2000.0 X8.0659 Y80.2117 Z-0.0333 I-0.0125 J0.0
G2 Y80.2334 Z-0.0667 I0.0062 J0.0108
G2 X8.0846 Y80.2225 Z-0.1 I0.0063 J-0.0108
G2 X8.0659 Y80.2117 Z-0.1333 I-0.0125 J0.0
G2 Y80.2334 Z-0.1667 I0.0062 J0.0108
G2 X8.0846 Y80.2225 Z-0.2 I0.0063 J-0.0108
G2 X8.0659 Y80.2117 Z-0.2333 I-0.0125 J0.0
G2 Y80.2334 Z-0.2667 I0.0062 J0.0108
G2 X8.0846 Y80.2225 Z-0.3 I0.0063 J-0.0108
G2 X8.0659 Y80.2117 Z-0.3333 I-0.0125 J0.0
G2 Y80.2334 Z-0.3667 I0.0062 J0.0108
G2 X8.0846 Y80.2225 Z-0.4 I0.0063 J-0.0108
G2 X8.0659 Y80.2117 Z-0.4333 I-0.0125 J0.0
G2 Y80.2334 Z-0.4667 I0.0062 J0.0108
G2 X8.0846 Y80.2225 Z-0.5 I0.0063 J-0.0108
G2 X8.0659 Y80.2117 Z-0.5333 I-0.0125 J0.0
G2 Y80.2334 Z-0.5667 I0.0062 J0.0108
G2 X8.0846 Y80.2225 Z-0.6 I0.0063 J-0.0108
G2 X8.0659 Y80.2117 Z-0.6333 I-0.0125 J0.0
G2 Y80.2334 Z-0.6667 I0.0062 J0.0108
G2 X8.0846 Y80.2225 Z-0.7 I0.0063 J-0.0108
G2 X8.0659 Y80.2117 Z-0.7333 I-0.0125 J0.0
G2 Y80.2334 Z-0.7667 I0.0062 J0.0108
G2 X8.0846 Y80.2225 Z-0.8 I0.0063 J-0.0108
G2 X8.0659 Y80.2117 Z-0.8333 I-0.0125 J0.0
G2 Y80.2334 Z-0.8667 I0.0062 J0.0108
G2 X8.0846 Y80.2225 Z-0.9 I0.0063 J-0.0108
G2 X8.0659 Y80.2117 Z-0.9333 I-0.0125 J0.0
G2 Y80.2334 Z-0.9667 I0.0062 J0.0108
G2 X8.0846 Y80.2225 Z-1.0 I0.0063 J-0.0108
G2 X8.0659 Y80.2117 Z-1.0333 I-0.0125 J0.0
G2 Y80.2334 Z-1.0667 I0.0062 J0.0108
G2 X8.0846 Y80.2225 Z-1.1 I0.0063 J-0.0108
G2 X8.0659 Y80.2117 Z-1.1333 I-0.0125 J0.0
G2 Y80.2334 Z-1.1667 I0.0062 J0.0108
G2 X8.0846 Y80.2225 Z-1.2 I0.0063 J-0.0108
G2 X8.0659 Y80.2117 Z-1.2333 I-0.0125 J0.0
G2 Y80.2334 Z-1.2667 I0.0062 J0.0108
G2 X8.0846 Y80.2225 Z-1.3 I0.0063 J-0.0108
G2 X8.0659 Y80.2117 Z-1.3333 I-0.0125 J0.0
G2 Y80.2334 Z-1.3667 I0.0062 J0.0108
G2 X8.0846 Y80.2225 Z-1.4 I0.0063 J-0.0108
G2 X8.0659 Y80.2117 Z-1.4333 I-0.0125 J0.0
G2 Y80.2334 Z-1.4667 I0.0062 J0.0108
G2 X8.0846 Y80.2225 Z-1.5 I0.0063 J-0.0108
G2 X8.0659 Y80.2117 Z-1.5333 I-0.0125 J0.0
G2 Y80.2334 Z-1.5667 I0.0062 J0.0108
G2 X8.0846 Y80.2225 Z-1.6 I0.0063 J-0.0108
G2 X8.0659 Y80.2117 Z-1.6333 I-0.0125 J0.0
G2 Y80.2334 Z-1.6667 I0.0062 J0.0108
G2 X8.0846 Y80.2225 Z-1.7 I0.0063 J-0.0108
G2 X8.0659 Y80.2117 Z-1.7333 I-0.0125 J0.0
G2 Y80.2334 Z-1.7667 I0.0062 J0.0108
G2 X8.0846 Y80.2225 Z-1.8 I0.0063 J-0.0108
G2 X8.0659 Y80.2117 Z-1.8333 I-0.0125 J0.0
G2 Y80.2334 Z-1.8667 I0.0062 J0.0108
G2 X8.0846 Y80.2225 Z-1.9 I0.0063 J-0.0108
G2 X8.0659 Y80.2117 Z-1.9333 I-0.0125 J0.0
G2 Y80.2334 Z-1.9667 I0.0062 J0.0108
G2 X8.0846 Y80.2225 Z-2.0 I0.0063 J-0.0108
G2 X8.0659 Y80.2117 Z-2.0333 I-0.0125 J0.0
G2 Y80.2334 Z-2.0667 I0.0062 J0.0108
G2 X8.0846 Y80.2225 Z-2.1 I0.0063 J-0.0108
G2 X8.0659 Y80.2117 Z-2.1333 I-0.0125 J0.0
G2 Y80.2334 Z-2.1667 I0.0062 J0.0108
G2 X8.0846 Y80.2225 Z-2.2 I0.0063 J-0.0108
G2 X8.0659 Y80.2117 Z-2.2333 I-0.0125 J0.0
G2 Y80.2334 Z-2.2667 I0.0062 J0.0108
G2 X8.0846 Y80.2225 Z-2.3 I0.0063 J-0.0108
G2 X8.0659 Y80.2117 Z-2.3333 I-0.0125 J0.0
G2 Y80.2334 Z-2.3667 I0.0062 J0.0108
G2 X8.0846 Y80.2225 Z-2.4 I0.0063 J-0.0108
G2 X8.0659 Y80.2117 Z-2.4333 I-0.0125 J0.0
G2 Y80.2334 Z-2.4667 I0.0062 J0.0108
G2 X8.0846 Y80.2225 Z-2.5 I0.0063 J-0.0108
G2 X8.0659 Y80.2117 Z-2.5333 I-0.0125 J0.0
G2 Y80.2334 Z-2.5667 I0.0062 J0.0108
G2 X8.0846 Y80.2225 Z-2.6 I0.0063 J-0.0108
G2 X8.0659 Y80.2117 Z-2.6333 I-0.0125 J0.0
G2 Y80.2334 Z-2.6667 I0.0062 J0.0108
G2 X8.0846 Y80.2225 Z-2.7 I0.0063 J-0.0108
G2 X8.0659 Y80.2117 Z-2.7333 I-0.0125 J0.0
G2 Y80.2334 Z-2.7667 I0.0062 J0.0108
G2 X8.0846 Y80.2225 Z-2.8 I0.0063 J-0.0108
G2 X8.0659 Y80.2117 Z-2.8333 I-0.0125 J0.0
G2 Y80.2334 Z-2.8667 I0.0062 J0.0108
G2 X8.0846 Y80.2225 Z-2.9 I0.0063 J-0.0108
G2 X8.0659 Y80.2117 Z-2.9333 I-0.0125 J0.0
G2 Y80.2334 Z-2.9667 I0.0062 J0.0108
G2 X8.0846 Y80.2225 Z-3.0 I0.0063 J-0.0108
G2 X8.0659 Y80.2117 Z-3.0333 I-0.0125 J0.0
G2 Y80.2334 Z-3.0667 I0.0062 J0.0108
G2 X8.0846 Y80.2225 Z-3.1 I0.0063 J-0.0108
G2 X8.0659 Y80.2117 Z-3.1333 I-0.0125 J0.0
G2 Y80.2334 Z-3.1667 I0.0063 J0.0108
G2 X8.0846 Y80.2225 Z-3.2 I0.0062 J-0.0108
G2 X8.0659 Y80.2117 I-0.0125 J0.0
G2 Y80.2334 I0.0063 J0.0108
G2 X8.0846 Y80.2225 I0.0062 J-0.0108
G0 Z3.0
G0 X8.0756 Y94.2623
G0 Z0.5
G1 F1000.0 Z0.0
G2 F2000.0 X8.0569 Y94.2514 Z-0.0333 I-0.0125 J0.0
G2 Y94.2731 Z-0.0667 I0.0062 J0.0108
G2 X8.0756 Y94.2623 Z-0.1 I0.0063 J-0.0108
G2 X8.0569 Y94.2514 Z-0.1333 I-0.0125 J0.0
G2 Y94.2731 Z-0.1667 I0.0062 J0.0108
G2 X8.0756 Y94.2623 Z-0.2 I0.0063 J-0.0108
G2 X8.0569 Y94.2514 Z-0.2333 I-0.0125 J0.0
G2 Y94.2731 Z-0.2667 I0.0062 J0.0108
G2 X8.0756 Y94.2623 Z-0.3 I0.0063 J-0.0108
G2 X8.0569 Y94.2514 Z-0.3333 I-0.0125 J0.0
G2 Y94.2731 Z-0.3667 I0.0062 J0.0108
G2 X8.0756 Y94.2623 Z-0.4 I0.0063 J-0.0108
G2 X8.0569 Y94.2514 Z-0.4333 I-0.0125 J0.0
G2 Y94.2731 Z-0.4667 I0.0062 J0.0108
G2 X8.0756 Y94.2623 Z-0.5 I0.0063 J-0.0108
G2 X8.0569 Y94.2514 Z-0.5333 I-0.0125 J0.0
G2 Y94.2731 Z-0.5667 I0.0062 J0.0108
G2 X8.0756 Y94.2623 Z-0.6 I0.0063 J-0.0108
G2 X8.0569 Y94.2514 Z-0.6333 I-0.0125 J0.0
G2 Y94.2731 Z-0.6667 I0.0062 J0.0108
G2 X8.0756 Y94.2623 Z-0.7 I0.0063 J-0.0108
G2 X8.0569 Y94.2514 Z-0.7333 I-0.0125 J0.0
G2 Y94.2731 Z-0.7667 I0.0062 J0.0108
G2 X8.0756 Y94.2623 Z-0.8 I0.0063 J-0.0108
G2 X8.0569 Y94.2514 Z-0.8333 I-0.0125 J0.0
G2 Y94.2731 Z-0.8667 I0.0062 J0.0108
G2 X8.0756 Y94.2623 Z-0.9 I0.0063 J-0.0108
G2 X8.0569 Y94.2514 Z-0.9333 I-0.0125 J0.0
G2 Y94.2731 Z-0.9667 I0.0062 J0.0108
G2 X8.0756 Y94.2623 Z-1.0 I0.0063 J-0.0108
G2 X8.0569 Y94.2514 Z-1.0333 I-0.0125 J0.0
G2 Y94.2731 Z-1.0667 I0.0062 J0.0108
G2 X8.0756 Y94.2623 Z-1.1 I0.0063 J-0.0108
G2 X8.0569 Y94.2514 Z-1.1333 I-0.0125 J0.0
G2 Y94.2731 Z-1.1667 I0.0062 J0.0108
G2 X8.0756 Y94.2623 Z-1.2 I0.0063 J-0.0108
G2 X8.0569 Y94.2514 Z-1.2333 I-0.0125 J0.0
G2 Y94.2731 Z-1.2667 I0.0062 J0.0108
G2 X8.0756 Y94.2623 Z-1.3 I0.0063 J-0.0108
G2 X8.0569 Y94.2514 Z-1.3333 I-0.0125 J0.0
G2 Y94.2731 Z-1.3667 I0.0062 J0.0108
G2 X8.0756 Y94.2623 Z-1.4 I0.0063 J-0.0108
G2 X8.0569 Y94.2514 Z-1.4333 I-0.0125 J0.0
G2 Y94.2731 Z-1.4667 I0.0062 J0.0108
G2 X8.0756 Y94.2623 Z-1.5 I0.0063 J-0.0108
G2 X8.0569 Y94.2514 Z-1.5333 I-0.0125 J0.0
G2 Y94.2731 Z-1.5667 I0.0062 J0.0108
G2 X8.0756 Y94.2623 Z-1.6 I0.0063 J-0.0108
G2 X8.0569 Y94.2514 Z-1.6333 I-0.0125 J0.0
G2 Y94.2731 Z-1.6667 I0.0062 J0.0108
G2 X8.0756 Y94.2623 Z-1.7 I0.0063 J-0.0108
G2 X8.0569 Y94.2514 Z-1.7333 I-0.0125 J0.0
G2 Y94.2731 Z-1.7667 I0.0062 J0.0108
G2 X8.0756 Y94.2623 Z-1.8 I0.0063 J-0.0108
G2 X8.0569 Y94.2514 Z-1.8333 I-0.0125 J0.0
G2 Y94.2731 Z-1.8667 I0.0062 J0.0108
G2 X8.0756 Y94.2623 Z-1.9 I0.0063 J-0.0108
G2 X8.0569 Y94.2514 Z-1.9333 I-0.0125 J0.0
G2 Y94.2731 Z-1.9667 I0.0062 J0.0108
G2 X8.0756 Y94.2623 Z-2.0 I0.0063 J-0.0108
G2 X8.0569 Y94.2514 Z-2.0333 I-0.0125 J0.0
G2 Y94.2731 Z-2.0667 I0.0062 J0.0108
G2 X8.0756 Y94.2623 Z-2.1 I0.0063 J-0.0108
G2 X8.0569 Y94.2514 Z-2.1333 I-0.0125 J0.0
G2 Y94.2731 Z-2.1667 I0.0062 J0.0108
G2 X8.0756 Y94.2623 Z-2.2 I0.0063 J-0.0108
G2 X8.0569 Y94.2514 Z-2.2333 I-0.0125 J0.0
G2 Y94.2731 Z-2.2667 I0.0062 J0.0108
G2 X8.0756 Y94.2623 Z-2.3 I0.0063 J-0.0108
G2 X8.0569 Y94.2514 Z-2.3333 I-0.0125 J0.0
G2 Y94.2731 Z-2.3667 I0.0062 J0.0108
G2 X8.0756 Y94.2623 Z-2.4 I0.0063 J-0.0108
G2 X8.0569 Y94.2514 Z-2.4333 I-0.0125 J0.0
G2 Y94.2731 Z-2.4667 I0.0062 J0.0108
G2 X8.0756 Y94.2623 Z-2.5 I0.0063 J-0.0108
G2 X8.0569 Y94.2514 Z-2.5333 I-0.0125 J0.0
G2 Y94.2731 Z-2.5667 I0.0062 J0.0108
G2 X8.0756 Y94.2623 Z-2.6 I0.0063 J-0.0108
G2 X8.0569 Y94.2514 Z-2.6333 I-0.0125 J0.0
G2 Y94.2731 Z-2.6667 I0.0062 J0.0108
G2 X8.0756 Y94.2623 Z-2.7 I0.0063 J-0.0108
G2 X8.0569 Y94.2514 Z-2.7333 I-0.0125 J0.0
G2 Y94.2731 Z-2.7667 I0.0062 J0.0108
G2 X8.0756 Y94.2623 Z-2.8 I0.0062 J-0.0108
G2 X8.0569 Y94.2514 Z-2.8333 I-0.0125 J0.0
G2 Y94.2731 Z-2.8667 I0.0062 J0.0108
G2 X8.0756 Y94.2623 Z-2.9 I0.0062 J-0.0108
G2 X8.0569 Y94.2514 Z-2.9333 I-0.0125 J0.0
G2 Y94.2731 Z-2.9667 I0.0062 J0.0108
G2 X8.0756 Y94.2623 Z-3.0 I0.0062 J-0.0108
G2 X8.0569 Y94.2514 Z-3.0333 I-0.0125 J0.0
G2 Y94.2731 Z-3.0667 I0.0062 J0.0108
G2 X8.0756 Y94.2623 Z-3.1 I0.0062 J-0.0108
G2 X8.0569 Y94.2514 Z-3.1333 I-0.0125 J0.0
G2 Y94.2731 Z-3.1667 I0.0063 J0.0108
G2 X8.0756 Y94.2623 Z-3.2 I0.0062 J-0.0108
G2 X8.0569 Y94.2514 I-0.0125 J0.0
G2 Y94.2731 I0.0063 J0.0108
G2 X8.0756 Y94.2623 I0.0062 J-0.0108
G0 Z3.0
G0 Y108.3403
G0 Z0.5
G1 F1000.0 Z0.0
G2 F2000.0 X8.0569 Y108.3295 Z-0.0333 I-0.0125 J0.0
G2 Y108.3512 Z-0.0667 I0.0062 J0.0108
G2 X8.0756 Y108.3403 Z-0.1 I0.0063 J-0.0108
G2 X8.0569 Y108.3295 Z-0.1333 I-0.0125 J0.0
G2 Y108.3512 Z-0.1667 I0.0062 J0.0108
G2 X8.0756 Y108.3403 Z-0.2 I0.0063 J-0.0108
G2 X8.0569 Y108.3295 Z-0.2333 I-0.0125 J0.0
G2 Y108.3512 Z-0.2667 I0.0062 J0.0108
G2 X8.0756 Y108.3403 Z-0.3 I0.0063 J-0.0108
G2 X8.0569 Y108.3295 Z-0.3333 I-0.0125 J0.0
G2 Y108.3512 Z-0.3667 I0.0062 J0.0108
G2 X8.0756 Y108.3403 Z-0.4 I0.0063 J-0.0108
G2 X8.0569 Y108.3295 Z-0.4333 I-0.0125 J0.0
G2 Y108.3512 Z-0.4667 I0.0062 J0.0108
G2 X8.0756 Y108.3403 Z-0.5 I0.0063 J-0.0108
G2 X8.0569 Y108.3295 Z-0.5333 I-0.0125 J0.0
G2 Y108.3512 Z-0.5667 I0.0062 J0.0108
G2 X8.0756 Y108.3403 Z-0.6 I0.0063 J-0.0108
G2 X8.0569 Y108.3295 Z-0.6333 I-0.0125 J0.0
G2 Y108.3512 Z-0.6667 I0.0062 J0.0108
G2 X8.0756 Y108.3403 Z-0.7 I0.0063 J-0.0108
G2 X8.0569 Y108.3295 Z-0.7333 I-0.0125 J0.0
G2 Y108.3512 Z-0.7667 I0.0062 J0.0108
G2 X8.0756 Y108.3403 Z-0.8 I0.0063 J-0.0108
G2 X8.0569 Y108.3295 Z-0.8333 I-0.0125 J0.0
G2 Y108.3512 Z-0.8667 I0.0062 J0.0108
G2 X8.0756 Y108.3403 Z-0.9 I0.0063 J-0.0108
G2 X8.0569 Y108.3295 Z-0.9333 I-0.0125 J0.0
G2 Y108.3512 Z-0.9667 I0.0062 J0.0108
G2 X8.0756 Y108.3403 Z-1.0 I0.0063 J-0.0108
G2 X8.0569 Y108.3295 Z-1.0333 I-0.0125 J0.0
G2 Y108.3512 Z-1.0667 I0.0062 J0.0108
G2 X8.0756 Y108.3403 Z-1.1 I0.0063 J-0.0108
G2 X8.0569 Y108.3295 Z-1.1333 I-0.0125 J0.0
G2 Y108.3512 Z-1.1667 I0.0062 J0.0108
G2 X8.0756 Y108.3403 Z-1.2 I0.0063 J-0.0108
G2 X8.0569 Y108.3295 Z-1.2333 I-0.0125 J0.0
G2 Y108.3512 Z-1.2667 I0.0062 J0.0108
G2 X8.0756 Y108.3403 Z-1.3 I0.0063 J-0.0108
G2 X8.0569 Y108.3295 Z-1.3333 I-0.0125 J0.0
G2 Y108.3512 Z-1.3667 I0.0062 J0.0108
G2 X8.0756 Y108.3403 Z-1.4 I0.0063 J-0.0108
G2 X8.0569 Y108.3295 Z-1.4333 I-0.0125 J0.0
G2 Y108.3512 Z-1.4667 I0.0062 J0.0108
G2 X8.0756 Y108.3403 Z-1.5 I0.0063 J-0.0108
G2 X8.0569 Y108.3295 Z-1.5333 I-0.0125 J0.0
G2 Y108.3512 Z-1.5667 I0.0062 J0.0108
G2 X8.0756 Y108.3403 Z-1.6 I0.0063 J-0.0108
G2 X8.0569 Y108.3295 Z-1.6333 I-0.0125 J0.0
G2 Y108.3512 Z-1.6667 I0.0062 J0.0108
G2 X8.0756 Y108.3403 Z-1.7 I0.0063 J-0.0108
G2 X8.0569 Y108.3295 Z-1.7333 I-0.0125 J0.0
G2 Y108.3512 Z-1.7667 I0.0062 J0.0108
G2 X8.0756 Y108.3403 Z-1.8 I0.0063 J-0.0108
G2 X8.0569 Y108.3295 Z-1.8333 I-0.0125 J0.0
G2 Y108.3512 Z-1.8667 I0.0062 J0.0108
G2 X8.0756 Y108.3403 Z-1.9 I0.0063 J-0.0108
G2 X8.0569 Y108.3295 Z-1.9333 I-0.0125 J0.0
G2 Y108.3512 Z-1.9667 I0.0062 J0.0108
G2 X8.0756 Y108.3403 Z-2.0 I0.0063 J-0.0108
G2 X8.0569 Y108.3295 Z-2.0333 I-0.0125 J0.0
G2 Y108.3512 Z-2.0667 I0.0062 J0.0108
G2 X8.0756 Y108.3403 Z-2.1 I0.0063 J-0.0108
G2 X8.0569 Y108.3295 Z-2.1333 I-0.0125 J0.0
G2 Y108.3512 Z-2.1667 I0.0062 J0.0108
G2 X8.0756 Y108.3403 Z-2.2 I0.0063 J-0.0108
G2 X8.0569 Y108.3295 Z-2.2333 I-0.0125 J0.0
G2 Y108.3512 Z-2.2667 I0.0062 J0.0108
G2 X8.0756 Y108.3403 Z-2.3 I0.0063 J-0.0108
G2 X8.0569 Y108.3295 Z-2.3333 I-0.0125 J0.0
G2 Y108.3512 Z-2.3667 I0.0062 J0.0108
G2 X8.0756 Y108.3403 Z-2.4 I0.0063 J-0.0108
G2 X8.0569 Y108.3295 Z-2.4333 I-0.0125 J0.0
G2 Y108.3512 Z-2.4667 I0.0062 J0.0108
G2 X8.0756 Y108.3403 Z-2.5 I0.0063 J-0.0108
G2 X8.0569 Y108.3295 Z-2.5333 I-0.0125 J0.0
G2 Y108.3512 Z-2.5667 I0.0062 J0.0108
G2 X8.0756 Y108.3403 Z-2.6 I0.0063 J-0.0108
G2 X8.0569 Y108.3295 Z-2.6333 I-0.0125 J0.0
G2 Y108.3512 Z-2.6667 I0.0062 J0.0108
G2 X8.0756 Y108.3403 Z-2.7 I0.0063 J-0.0108
G2 X8.0569 Y108.3295 Z-2.7333 I-0.0125 J0.0
G2 Y108.3512 Z-2.7667 I0.0062 J0.0108
G2 X8.0756 Y108.3403 Z-2.8 I0.0062 J-0.0108
G2 X8.0569 Y108.3295 Z-2.8333 I-0.0125 J0.0
G2 Y108.3512 Z-2.8667 I0.0062 J0.0108
G2 X8.0756 Y108.3403 Z-2.9 I0.0062 J-0.0108
G2 X8.0569 Y108.3295 Z-2.9333 I-0.0125 J0.0
G2 Y108.3512 Z-2.9667 I0.0062 J0.0108
G2 X8.0756 Y108.3403 Z-3.0 I0.0062 J-0.0108
G2 X8.0569 Y108.3295 Z-3.0333 I-0.0125 J0.0
G2 Y108.3512 Z-3.0667 I0.0062 J0.0108
G2 X8.0756 Y108.3403 Z-3.1 I0.0062 J-0.0108
G2 X8.0569 Y108.3295 Z-3.1333 I-0.0125 J0.0
G2 Y108.3512 Z-3.1667 I0.0063 J0.0108
G2 X8.0756 Y108.3403 Z-3.2 I0.0062 J-0.0108
G2 X8.0569 Y108.3295 I-0.0125 J0.0
G2 Y108.3512 I0.0063 J0.0108
G2 X8.0756 Y108.3403 I0.0062 J-0.0108
G0 Z3.0
G0 X27.2235 Y125.6737
G0 Z0.5
G1 F1000.0 Z0.0
G2 F2000.0 X27.2047 Y125.6629 Z-0.0333 I-0.0125 J0.0
G2 Y125.6845 Z-0.0667 I0.0062 J0.0108
G2 X27.2235 Y125.6737 Z-0.1 I0.0063 J-0.0108
G2 X27.2047 Y125.6629 Z-0.1333 I-0.0125 J0.0
G2 Y125.6845 Z-0.1667 I0.0062 J0.0108
G2 X27.2235 Y125.6737 Z-0.2 I0.0063 J-0.0108
G2 X27.2047 Y125.6629 Z-0.2333 I-0.0125 J0.0
G2 Y125.6845 Z-0.2667 I0.0062 J0.0108
G2 X27.2235 Y125.6737 Z-0.3 I0.0063 J-0.0108
G2 X27.2047 Y125.6629 Z-0.3333 I-0.0125 J0.0
G2 Y125.6845 Z-0.3667 I0.0062 J0.0108
G2 X27.2235 Y125.6737 Z-0.4 I0.0063 J-0.0108
G2 X27.2047 Y125.6629 Z-0.4333 I-0.0125 J0.0
G2 Y125.6845 Z-0.4667 I0.0062 J0.0108
G2 X27.2235 Y125.6737 Z-0.5 I0.0063 J-0.0108
G2 X27.2047 Y125.6629 Z-0.5333 I-0.0125 J0.0
G2 Y125.6845 Z-0.5667 I0.0062 J0.0108
G2 X27.2235 Y125.6737 Z-0.6 I0.0063 J-0.0108
G2 X27.2047 Y125.6629 Z-0.6333 I-0.0125 J0.0
G2 Y125.6845 Z-0.6667 I0.0062 J0.0108
G2 X27.2235 Y125.6737 Z-0.7 I0.0063 J-0.0108
G2 X27.2047 Y125.6629 Z-0.7333 I-0.0125 J0.0
G2 Y125.6845 Z-0.7667 I0.0062 J0.0108
G2 X27.2235 Y125.6737 Z-0.8 I0.0063 J-0.0108
G2 X27.2047 Y125.6629 Z-0.8333 I-0.0125 J0.0
G2 Y125.6845 Z-0.8667 I0.0062 J0.0108
G2 X27.2235 Y125.6737 Z-0.9 I0.0063 J-0.0108
G2 X27.2047 Y125.6629 Z-0.9333 I-0.0125 J0.0
G2 Y125.6845 Z-0.9667 I0.0062 J0.0108
G2 X27.2235 Y125.6737 Z-1.0 I0.0063 J-0.0108
G2 X27.2047 Y125.6629 Z-1.0333 I-0.0125 J0.0
G2 Y125.6845 Z-1.0667 I0.0062 J0.0108
G2 X27.2235 Y125.6737 Z-1.1 I0.0063 J-0.0108
G2 X27.2047 Y125.6629 Z-1.1333 I-0.0125 J0.0
G2 Y125.6845 Z-1.1667 I0.0062 J0.0108
G2 X27.2235 Y125.6737 Z-1.2 I0.0063 J-0.0108
G2 X27.2047 Y125.6629 Z-1.2333 I-0.0125 J0.0
G2 Y125.6845 Z-1.2667 I0.0062 J0.0108
G2 X27.2235 Y125.6737 Z-1.3 I0.0063 J-0.0108
G2 X27.2047 Y125.6629 Z-1.3333 I-0.0125 J0.0
G2 Y125.6845 Z-1.3667 I0.0062 J0.0108
G2 X27.2235 Y125.6737 Z-1.4 I0.0063 J-0.0108
G2 X27.2047 Y125.6629 Z-1.4333 I-0.0125 J0.0
G2 Y125.6845 Z-1.4667 I0.0062 J0.0108
G2 X27.2235 Y125.6737 Z-1.5 I0.0063 J-0.0108
G2 X27.2047 Y125.6629 Z-1.5333 I-0.0125 J0.0
G2 Y125.6845 Z-1.5667 I0.0062 J0.0108
G2 X27.2235 Y125.6737 Z-1.6 I0.0063 J-0.0108
G2 X27.2047 Y125.6629 Z-1.6333 I-0.0125 J0.0
G2 Y125.6845 Z-1.6667 I0.0062 J0.0108
G2 X27.2235 Y125.6737 Z-1.7 I0.0063 J-0.0108
G2 X27.2047 Y125.6629 Z-1.7333 I-0.0125 J0.0
G2 Y125.6845 Z-1.7667 I0.0062 J0.0108
G2 X27.2235 Y125.6737 Z-1.8 I0.0063 J-0.0108
G2 X27.2047 Y125.6629 Z-1.8333 I-0.0125 J0.0
G2 Y125.6845 Z-1.8667 I0.0062 J0.0108
G2 X27.2235 Y125.6737 Z-1.9 I0.0063 J-0.0108
G2 X27.2047 Y125.6629 Z-1.9333 I-0.0125 J0.0
G2 Y125.6845 Z-1.9667 I0.0062 J0.0108
G2 X27.2235 Y125.6737 Z-2.0 I0.0063 J-0.0108
G2 X27.2047 Y125.6629 Z-2.0333 I-0.0125 J0.0
G2 Y125.6845 Z-2.0667 I0.0062 J0.0108
G2 X27.2235 Y125.6737 Z-2.1 I0.0063 J-0.0108
G2 X27.2047 Y125.6629 Z-2.1333 I-0.0125 J0.0
G2 Y125.6845 Z-2.1667 I0.0062 J0.0108
G2 X27.2235 Y125.6737 Z-2.2 I0.0063 J-0.0108
G2 X27.2047 Y125.6629 Z-2.2333 I-0.0125 J0.0
G2 Y125.6845 Z-2.2667 I0.0062 J0.0108
G2 X27.2235 Y125.6737 Z-2.3 I0.0063 J-0.0108
G2 X27.2047 Y125.6629 Z-2.3333 I-0.0125 J0.0
G2 Y125.6845 Z-2.3667 I0.0062 J0.0108
G2 X27.2235 Y125.6737 Z-2.4 I0.0063 J-0.0108
G2 X27.2047 Y125.6629 Z-2.4333 I-0.0125 J0.0
G2 Y125.6845 Z-2.4667 I0.0062 J0.0108
G2 X27.2235 Y125.6737 Z-2.5 I0.0063 J-0.0108
G2 X27.2047 Y125.6629 Z-2.5333 I-0.0125 J0.0
G2 Y125.6845 Z-2.5667 I0.0062 J0.0108
G2 X27.2235 Y125.6737 Z-2.6 I0.0063 J-0.0108
G2 X27.2047 Y125.6629 Z-2.6333 I-0.0125 J0.0
G2 Y125.6845 Z-2.6667 I0.0062 J0.0108
G2 X27.2235 Y125.6737 Z-2.7 I0.0063 J-0.0108
G2 X27.2047 Y125.6629 Z-2.7333 I-0.0125 J0.0
G2 Y125.6845 Z-2.7667 I0.0062 J0.0108
G2 X27.2235 Y125.6737 Z-2.8 I0.0063 J-0.0108
G2 X27.2047 Y125.6629 Z-2.8333 I-0.0125 J0.0
G2 Y125.6845 Z-2.8667 I0.0062 J0.0108
G2 X27.2235 Y125.6737 Z-2.9 I0.0063 J-0.0108
G2 X27.2047 Y125.6629 Z-2.9333 I-0.0125 J0.0
G2 Y125.6845 Z-2.9667 I0.0062 J0.0108
G2 X27.2235 Y125.6737 Z-3.0 I0.0063 J-0.0108
G2 X27.2047 Y125.6629 Z-3.0333 I-0.0125 J0.0
G2 Y125.6845 Z-3.0667 I0.0062 J0.0108
G2 X27.2235 Y125.6737 Z-3.1 I0.0063 J-0.0108
G2 X27.2047 Y125.6629 Z-3.1333 I-0.0125 J0.0
G2 Y125.6845 Z-3.1667 I0.0062 J0.0108
G2 X27.2235 Y125.6737 Z-3.2 I0.0063 J-0.0108
G2 X27.2047 Y125.6629 I-0.0125 J0.0
G2 Y125.6845 I0.0063 J0.0108
G2 X27.2235 Y125.6737 I0.0062 J-0.0108
( cutout )
S1000
G0 Z3.0
G0 X33.7954 Y0.2567
G0 Z0.5
G1 F1000.0 Z-0.1
G1 F2000.0 Y128.6687
G3 X32.2079 Y130.2562 I-1.5875 J0.0
G1 X0.1242
G3 X-1.4633 Y128.6687 I0.0 J-1.5875
G1 Y0.2567
G3 X0.1242 Y-1.3308 I1.5875 J0.0
G1 X32.2079
G3 X33.7954 Y0.2567 I0.0 J1.5875
G1 F1000.0 Z-0.2
G1 F2000.0 Y128.6687
G3 X32.2079 Y130.2562 I-1.5875 J0.0
G1 X0.1242
G3 X-1.4633 Y128.6687 I0.0 J-1.5875
G1 Y0.2567
G3 X0.1242 Y-1.3308 I1.5875 J0.0
G1 X32.2079
G3 X33.7954 Y0.2567 I0.0 J1.5875
G1 F1000.0 Z-0.3
G1 F2000.0 Y128.6687
G3 X32.2079 Y130.2562 I-1.5875 J0.0
G1 X0.1242
G3 X-1.4633 Y128.6687 I0.0 J-1.5875
G1 Y0.2567
G3 X0.1242 Y-1.3308 I1.5875 J0.0
G1 X32.2079
G3 X33.7954 Y0.2567 I0.0 J1.5875
G1 F1000.0 Z-0.4
G1 F2000.0 Y128.6687
G3 X32.2079 Y130.2562 I-1.5875 J0.0
G1 X0.1242
G3 X-1.4633 Y128.6687 I0.0 J-1.5875
G1 Y0.2567
G3 X0.1242 Y-1.3308 I1.5875 J0.0
G1 X32.2079
G3 X33.7954 Y0.2567 I0.0 J1.5875
G1 F1000.0 Z-0.5
G1 F2000.0 Y128.6687
G3 X32.2079 Y130.2562 I-1.5875 J0.0
G1 X0.1242
G3 X-1.4633 Y128.6687 I0.0 J-1.5875
G1 Y0.2567
G3 X0.1242 Y-1.3308 I1.5875 J0.0
G1 X32.2079
G3 X33.7954 Y0.2567 I0.0 J1.5875
G1 F1000.0 Z-0.6
G1 F2000.0 Y128.6687
G3 X32.2079 Y130.2562 I-1.5875 J0.0
G1 X0.1242
G3 X-1.4633 Y128.6687 I0.0 J-1.5875
G1 Y0.2567
G3 X0.1242 Y-1.3308 I1.5875 J0.0
G1 X32.2079
G3 X33.7954 Y0.2567 I0.0 J1.5875
G1 F1000.0 Z-0.7
G1 F2000.0 Y128.6687
G3 X32.2079 Y130.2562 I-1.5875 J0.0
G1 X0.1242
G3 X-1.4633 Y128.6687 I0.0 J-1.5875
G1 Y0.2567
G3 X0.1242 Y-1.3308 I1.5875 J0.0
G1 X32.2079
G3 X33.7954 Y0.2567 I0.0 J1.5875
G1 F1000.0 Z-0.8
G1 F2000.0 Y128.6687
G3 X32.2079 Y130.2562 I-1.5875 J0.0
G1 X0.1242
G3 X-1.4633 Y128.6687 I0.0 J-1.5875
G1 Y0.2567
G3 X0.1242 Y-1.3308 I1.5875 J0.0
G1 X32.2079
G3 X33.7954 Y0.2567 I0.0 J1.5875
G1 F1000.0 Z-0.9
G1 F2000.0 Y128.6687
G3 X32.2079 Y130.2562 I-1.5875 J0.0
G1 X0.1242
G3 X-1.4633 Y128.6687 I0.0 J-1.5875
G1 Y0.2567
G3 X0.1242 Y-1.3308 I1.5875 J0.0
G1 X32.2079
G3 X33.7954 Y0.2567 I0.0 J1.5875
G1 F1000.0 Z-1.0
G1 F2000.0 Y128.6687
G3 X32.2079 Y130.2562 I-1.5875 J0.0
G1 X0.1242
G3 X-1.4633 Y128.6687 I0.0 J-1.5875
G1 Y0.2567
G3 X0.1242 Y-1.3308 I1.5875 J0.0
G1 X32.2079
G3 X33.7954 Y0.2567 I0.0 J1.5875
G1 F1000.0 Z-1.1
G1 F2000.0 Y128.6687
G3 X32.2079 Y130.2562 I-1.5875 J0.0
G1 X0.1242
G3 X-1.4633 Y128.6687 I0.0 J-1.5875
G1 Y0.2567
G3 X0.1242 Y-1.3308 I1.5875 J0.0
G1 X32.2079
G3 X33.7954 Y0.2567 I0.0 J1.5875
G1 F1000.0 Z-1.2
G1 F2000.0 Y128.6687
G3 X32.2079 Y130.2562 I-1.5875 J0.0
G1 X0.1242
G3 X-1.4633 Y128.6687 I0.0 J-1.5875
G1 Y0.2567
G3 X0.1242 Y-1.3308 I1.5875 J0.0
G1 X32.2079
G3 X33.7954 Y0.2567 I0.0 J1.5875
G1 F1000.0 Z-1.3
G1 F2000.0 Y128.6687
G3 X32.2079 Y130.2562 I-1.5875 J0.0
G1 X0.1242
G3 X-1.4633 Y128.6687 I0.0 J-1.5875
G1 Y0.2567
G3 X0.1242 Y-1.3308 I1.5875 J0.0
G1 X32.2079
G3 X33.7954 Y0.2567 I0.0 J1.5875
G1 F1000.0 Z-1.4
G1 F2000.0 Y128.6687
G3 X32.2079 Y130.2562 I-1.5875 J0.0
G1 X0.1242
G3 X-1.4633 Y128.6687 I0.0 J-1.5875
G1 Y0.2567
G3 X0.1242 Y-1.3308 I1.5875 J0.0
G1 X32.2079
G3 X33.7954 Y0.2567 I0.0 J1.5875
G1 F1000.0 Z-1.5
G1 F2000.0 Y128.6687
G3 X32.2079 Y130.2562 I-1.5875 J0.0
G1 X0.1242
G3 X-1.4633 Y128.6687 I0.0 J-1.5875
G1 Y0.2567
G3 X0.1242 Y-1.3308 I1.5875 J0.0
G1 X32.2079
G3 X33.7954 Y0.2567 I0.0 J1.5875
G1 F1000.0 Z-1.6
G1 F2000.0 Y128.6687
G3 X32.2079 Y130.2562 I-1.5875 J0.0
G1 X0.1242
G3 X-1.4633 Y128.6687 I0.0 J-1.5875
G1 Y0.2567
G3 X0.1242 Y-1.3308 I1.5875 J0.0
G1 X32.2079
G3 X33.7954 Y0.2567 I0.0 J1.5875
G1 F1000.0 Z-1.7
G1 F2000.0 Y128.6687
G3 X32.2079 Y130.2562 I-1.5875 J0.0
G1 X0.1242
G3 X-1.4633 Y128.6687 I0.0 J-1.5875
G1 Y0.2567
G3 X0.1242 Y-1.3308 I1.5875 J0.0
G1 X32.2079
G3 X33.7954 Y0.2567 I0.0 J1.5875
G1 F1000.0 Z-1.8
G1 F2000.0 Y128.6687
G3 X32.2079 Y130.2562 I-1.5875 J0.0
G1 X0.1242
G3 X-1.4633 Y128.6687 I0.0 J-1.5875
G1 Y0.2567
G3 X0.1242 Y-1.3308 I1.5875 J0.0
G1 X32.2079
G3 X33.7954 Y0.2567 I0.0 J1.5875
G1 F1000.0 Z-1.9
G1 F2000.0 Y128.6687
G3 X32.2079 Y130.2562 I-1.5875 J0.0
G1 X0.1242
G3 X-1.4633 Y128.6687 I0.0 J-1.5875
G1 Y0.2567
G3 X0.1242 Y-1.3308 I1.5875 J0.0
G1 X32.2079
G3 X33.7954 Y0.2567 I0.0 J1.5875
G1 F1000.0 Z-2.0
G1 F2000.0 Y128.6687
G3 X32.2079 Y130.2562 I-1.5875 J0.0
G1 X0.1242
G3 X-1.4633 Y128.6687 I0.0 J-1.5875
G1 Y0.2567
G3 X0.1242 Y-1.3308 I1.5875 J0.0
G1 X32.2079
G3 X33.7954 Y0.2567 I0.0 J1.5875
G1 F1000.0 Z-2.1
G1 F2000.0 Y128.6687
G3 X32.2079 Y130.2562 I-1.5875 J0.0
G1 X0.1242
G3 X-1.4633 Y128.6687 I0.0 J-1.5875
G1 Y0.2567
G3 X0.1242 Y-1.3308 I1.5875 J0.0
G1 X32.2079
G3 X33.7954 Y0.2567 I0.0 J1.5875
G1 F1000.0 Z-2.2
G1 F2000.0 Y38.2931
G1 Y38.7931
G1 Y41.9681
G1 Y42.4681
G1 Y118.5411
G1 Y119.0411
G1 Y122.2161
G1 Y122.7161
G1 Y128.6687
G3 X32.2079 Y130.2562 I-1.5875 J0.0
G1 X0.1242
G3 X-1.4633 Y128.6687 I0.0 J-1.5875
G1 Y90.6323
G1 Y90.1323
G1 Y86.9573
G1 Y86.4573
G1 Y10.3844
G1 Y9.8844
G1 Y6.7094
G1 Y6.2094
G1 Y0.2567
G3 X0.1242 Y-1.3308 I1.5875 J0.0
G1 X32.2079
G3 X33.7954 Y0.2567 I0.0 J1.5875
G1 F1000.0 Z-2.3
G1 F2000.0 Y38.2931
G1 Y38.7931 Z-2.2
G1 Y41.9681
G1 Y42.4681 Z-2.3
G1 Y118.5411
G1 Y119.0411 Z-2.2
G1 Y122.2161
G1 Y122.7161 Z-2.3
G1 Y128.6687
G3 X32.2079 Y130.2562 I-1.5875 J0.0
G1 X0.1242
G3 X-1.4633 Y128.6687 I0.0 J-1.5875
G1 Y90.6323
G1 Y90.1323 Z-2.2
G1 Y86.9573
G1 Y86.4573 Z-2.3
G1 Y10.3844
G1 Y9.8844 Z-2.2
G1 Y6.7094
G1 Y6.2094 Z-2.3
G1 Y0.2567
G3 X0.1242 Y-1.3308 I1.5875 J0.0
G1 X32.2079
G3 X33.7954 Y0.2567 I0.0 J1.5875
G1 F1000.0 Z-2.4
G1 F2000.0 Y38.2931
G1 Y38.7931 Z-2.2
G1 Y41.9681
G1 Y42.4681 Z-2.4
G1 Y118.5411
G1 Y119.0411 Z-2.2
G1 Y122.2161
G1 Y122.7161 Z-2.4
G1 Y128.6687
G3 X32.2079 Y130.2562 I-1.5875 J0.0
G1 X0.1242
G3 X-1.4633 Y128.6687 I0.0 J-1.5875
G1 Y90.6323
G1 Y90.1323 Z-2.2
G1 Y86.9573
G1 Y86.4573 Z-2.4
G1 Y10.3844
G1 Y9.8844 Z-2.2
G1 Y6.7094
G1 Y6.2094 Z-2.4
G1 Y0.2567
G3 X0.1242 Y-1.3308 I1.5875 J0.0
G1 X32.2079
G3 X33.7954 Y0.2567 I0.0 J1.5875
G1 F1000.0 Z-2.5
G1 F2000.0 Y38.2931
G1 Y38.7931 Z-2.2
G1 Y41.9681
G1 Y42.4681 Z-2.5
G1 Y118.5411
G1 Y119.0411 Z-2.2
G1 Y122.2161
G1 Y122.7161 Z-2.5
G1 Y128.6687
G3 X32.2079 Y130.2562 I-1.5875 J0.0
G1 X0.1242
G3 X-1.4633 Y128.6687 I0.0 J-1.5875
G1 Y90.6323
G1 Y90.1323 Z-2.2
G1 Y86.9573
G1 Y86.4573 Z-2.5
G1 Y10.3844
G1 Y9.8844 Z-2.2
G1 Y6.7094
G1 Y6.2094 Z-2.5
G1 Y0.2567
G3 X0.1242 Y-1.3308 I1.5875 J0.0
G1 X32.2079
G3 X33.7954 Y0.2567 I0.0 J1.5875
G1 F1000.0 Z-2.6
G1 F2000.0 Y38.2931
G1 Y38.7931 Z-2.2
G1 Y41.9681
G1 Y42.4681 Z-2.6
G1 Y118.5411
G1 Y119.0411 Z-2.2
G1 Y122.2161
G1 Y122.7161 Z-2.6
G1 Y128.6687
G3 X32.2079 Y130.2562 I-1.5875 J0.0
G1 X0.1242
G3 X-1.4633 Y128.6687 I0.0 J-1.5875
G1 Y90.6323
G1 Y90.1323 Z-2.2
G1 Y86.9573
G1 Y86.4573 Z-2.6
G1 Y10.3844
G1 Y9.8844 Z-2.2
G1 Y6.7094
G1 Y6.2094 Z-2.6
G1 Y0.2567
G3 X0.1242 Y-1.3308 I1.5875 J0.0
G1 X32.2079
G3 X33.7954 Y0.2567 I0.0 J1.5875
G1 F1000.0 Z-2.7
G1 F2000.0 Y38.2931
G1 Y38.7931 Z-2.2
G1 Y41.9681
G1 Y42.4681 Z-2.7
G1 Y118.5411
G1 Y119.0411 Z-2.2
G1 Y122.2161
G1 Y122.7161 Z-2.7
G1 Y128.6687
G3 X32.2079 Y130.2562 I-1.5875 J0.0
G1 X0.1242
G3 X-1.4633 Y128.6687 I0.0 J-1.5875
G1 Y90.6323
G1 Y90.1323 Z-2.2
G1 Y86.9573
G1 Y86.4573 Z-2.7
G1 Y10.3844
G1 Y9.8844 Z-2.2
G1 Y6.7094
G1 Y6.2094 Z-2.7
G1 Y0.2567
G3 X0.1242 Y-1.3308 I1.5875 J0.0
G1 X32.2079
G3 X33.7954 Y0.2567 I0.0 J1.5875
G1 F1000.0 Z-2.8
G1 F2000.0 Y38.2931
G1 Y38.7931 Z-2.2
G1 Y41.9681
G1 Y42.4681 Z-2.8
G1 Y118.5411
G1 Y119.0411 Z-2.2
G1 Y122.2161
G1 Y122.7161 Z-2.8
G1 Y128.6687
G3 X32.2079 Y130.2562 I-1.5875 J0.0
G1 X0.1242
G3 X-1.4633 Y128.6687 I0.0 J-1.5875
G1 Y90.6323
G1 Y90.1323 Z-2.2
G1 Y86.9573
G1 Y86.4573 Z-2.8
G1 Y10.3844
G1 Y9.8844 Z-2.2
G1 Y6.7094
G1 Y6.2094 Z-2.8
G1 Y0.2567
G3 X0.1242 Y-1.3308 I1.5875 J0.0
G1 X32.2079
G3 X33.7954 Y0.2567 I0.0 J1.5875
G1 F1000.0 Z-2.9
G1 F2000.0 Y38.2931
G1 Y38.7931 Z-2.2
G1 Y41.9681
G1 Y42.4681 Z-2.9
G1 Y118.5411
G1 Y119.0411 Z-2.2
G1 Y122.2161
G1 Y122.7161 Z-2.9
G1 Y128.6687
G3 X32.2079 Y130.2562 I-1.5875 J0.0
G1 X0.1242
G3 X-1.4633 Y128.6687 I0.0 J-1.5875
G1 Y90.6323
G1 Y90.1323 Z-2.2
G1 Y86.9573
G1 Y86.4573 Z-2.9
G1 Y10.3844
G1 Y9.8844 Z-2.2
G1 Y6.7094
G1 Y6.2094 Z-2.9
G1 Y0.2567
G3 X0.1242 Y-1.3308 I1.5875 J0.0
G1 X32.2079
G3 X33.7954 Y0.2567 I0.0 J1.5875
G1 F1000.0 Z-3.0
G1 F2000.0 Y38.2931
G1 Y38.7931 Z-2.2
G1 Y41.9681
G1 Y42.4681 Z-3.0
G1 Y118.5411
G1 Y119.0411 Z-2.2
G1 Y122.2161
G1 Y122.7161 Z-3.0
G1 Y128.6687
G3 X32.2079 Y130.2562 I-1.5875 J0.0
G1 X0.1242
G3 X-1.4633 Y128.6687 I0.0 J-1.5875
G1 Y90.6323
G1 Y90.1323 Z-2.2
G1 Y86.9573
G1 Y86.4573 Z-3.0
G1 Y10.3844
G1 Y9.8844 Z-2.2
G1 Y6.7094
G1 Y6.2094 Z-3.0
G1 Y0.2567
G3 X0.1242 Y-1.3308 I1.5875 J0.0
G1 X32.2079
G3 X33.7954 Y0.2567 I0.0 J1.5875
G1 F1000.0 Z-3.1
G1 F2000.0 Y38.2931
G1 Y38.7931 Z-2.2
G1 Y41.9681
G1 Y42.4681 Z-3.1
G1 Y118.5411
G1 Y119.0411 Z-2.2
G1 Y122.2161
G1 Y122.7161 Z-3.1
G1 Y128.6687
G3 X32.2079 Y130.2562 I-1.5875 J0.0
G1 X0.1242
G3 X-1.4633 Y128.6687 I0.0 J-1.5875
G1 Y90.6323
G1 Y90.1323 Z-2.2
G1 Y86.9573
G1 Y86.4573 Z-3.1
G1 Y10.3844
G1 Y9.8844 Z-2.2
G1 Y6.7094
G1 Y6.2094 Z-3.1
G1 Y0.2567
G3 X0.1242 Y-1.3308 I1.5875 J0.0
G1 X32.2079
G3 X33.7954 Y0.2567 I0.0 J1.5875
G1 F1000.0 Z-3.2
G1 F2000.0 Y38.2931
G1 Y38.7931 Z-2.2
G1 Y41.9681
G1 Y42.4681 Z-3.2
G1 Y118.5411
G1 Y119.0411 Z-2.2
G1 Y122.2161
G1 Y122.7161 Z-3.2
G1 Y128.6687
G3 X32.2079 Y130.2562 I-1.5875 J0.0
G1 X0.1242
G3 X-1.4633 Y128.6687 I0.0 J-1.5875
G1 Y90.6323
G1 Y90.1323 Z-2.2
G1 Y86.9573
G1 Y86.4573 Z-3.2
G1 Y10.3844
G1 Y9.8844 Z-2.2
G1 Y6.7094
G1 Y6.2094 Z-3.2
G1 Y0.2567
G3 X0.1242 Y-1.3308 I1.5875 J0.0
G1 X32.2079
G3 X33.7954 Y0.2567 I0.0 J1.5875
G0 Z3.0
M5
M30
