(/Applications/pcbgcode.repo/pcb-gcode.ulp)
(Copyright 2005 - 2012 by John Johnson)
(See readme.txt for licensing terms.)
(This file generated from the board:)
(.../ParametricEQ/eagle/parametric_eq.brd)
(Current profile is .../pcbgcode.repo/profiles/mach.pp  )
(This file generated 11/14/15 6:57 PM)
(Settings from pcb-machine.h)
(spindle on time = 0.0000)
(  Tool Size)
(0.0100  )
(spindle speed = 30000.0000)
(tool change at 0.0000  0.0000  3.0000  )
(feed rate xy = F20    )
(feed rate z  = F10    )
(Z Axis Settings)
(  High     Up        Down     Drill)
(1.0000  	0.0500  	-0.0040 	-0.0730 )
(Settings from pcb-defaults.h)
(isolate min = 0.0010)
(isolate max = 0.0150)
(isolate step = 0.0015)
(Generated bottom outlines, bottom drill, )
(Unit of measure: inch)
(Inch Mode)
G20
(Absolute Coordinates)
G90
S30000
G00 Z1.0000  
G00 X0.0000  Y0.0000  
M03
G04 P0.000000
G00 Z0.0500  
G00 X-0.1709 Y0.1733  
G01 Z-0.0040 F10    
G01 X-0.1754 Y0.1687  F20    
G01 X-0.1807 Y0.1649  
G01 X-0.1864 Y0.1620  
G01 X-0.1925 Y0.1600  
G01 X-0.1989 Y0.1590  
G01 X-0.2054 Y0.1590  
G01 X-0.2118 Y0.1600  
G01 X-0.2179 Y0.1620  
G01 X-0.2236 Y0.1649  
G01 X-0.2289 Y0.1687  
G01 X-0.2334 Y0.1733  
G01 X-0.2372 Y0.1785  
G01 X-0.2401 Y0.1843  
G01 X-0.2421 Y0.1904  
G01 X-0.2431 Y0.1968  
G01 X-0.2431 Y0.2032  
G01 X-0.2421 Y0.2096  
G01 X-0.2401 Y0.2157  
G01 X-0.2372 Y0.2215  
G01 X-0.2334 Y0.2267  
G01 X-0.2289 Y0.2313  
G01 X-0.2260 Y0.2334  
G01 X-0.2260 Y0.2839  
G01 X-0.3088 Y0.3253  
G01 X-0.7348 Y0.4200  
G01 X-0.7367 Y0.4180  
G01 X-0.7633 Y0.4180  
G01 X-0.7820 Y0.4367  
G01 X-0.7820 Y0.4633  
G01 X-0.7633 Y0.4820  
G01 X-0.7367 Y0.4820  
G01 X-0.7261 Y0.4713  
G01 X-0.2962 Y0.3758  
G01 X-0.2956 Y0.3758  
G01 X-0.2937 Y0.3752  
G01 X-0.2919 Y0.3748  
G01 X-0.2913 Y0.3746  
G01 X-0.2907 Y0.3744  
G01 X-0.2889 Y0.3735  
G01 X-0.2872 Y0.3728  
G01 X-0.2867 Y0.3724  
G01 X-0.1892 Y0.3237  
G01 X-0.1877 Y0.3230  
G01 X-0.1869 Y0.3225  
G01 X-0.1861 Y0.3221  
G01 X-0.1848 Y0.3211  
G01 X-0.1834 Y0.3202  
G01 X-0.1828 Y0.3195  
G01 X-0.1820 Y0.3190  
G01 X-0.1810 Y0.3177  
G01 X-0.1798 Y0.3166  
G01 X-0.1793 Y0.3158  
G01 X-0.1787 Y0.3151  
G01 X-0.1779 Y0.3137  
G01 X-0.1770 Y0.3123  
G01 X-0.1766 Y0.3115  
G01 X-0.1761 Y0.3107  
G01 X-0.1756 Y0.3091  
G01 X-0.1750 Y0.3076  
G01 X-0.1748 Y0.3067  
G01 X-0.1745 Y0.3058  
G01 X-0.1743 Y0.3042  
G01 X-0.1740 Y0.3026  
G01 X-0.1740 Y0.3016  
G01 X-0.1739 Y0.3007  
G01 X-0.1740 Y0.2991  
G01 X-0.1740 Y0.2298  
G01 X-0.1709 Y0.2267  
G01 X-0.1671 Y0.2215  
G01 X-0.1642 Y0.2157  
G01 X-0.1622 Y0.2096  
G01 X-0.1611 Y0.2032  
G01 X-0.1611 Y0.1968  
G01 X-0.1622 Y0.1904  
G01 X-0.1642 Y0.1843  
G01 X-0.1671 Y0.1785  
G01 X-0.1709 Y0.1733  
G00 Z0.0500  
G00 X-0.2687 Y0.1733  
G01 Z-0.0040 F10    
G01 X-0.2733 Y0.1687  F20    
G01 X-0.2785 Y0.1649  
G01 X-0.2843 Y0.1620  
G01 X-0.2904 Y0.1600  
G01 X-0.2968 Y0.1590  
G01 X-0.3032 Y0.1590  
G01 X-0.3096 Y0.1600  
G01 X-0.3157 Y0.1620  
G01 X-0.3215 Y0.1649  
G01 X-0.3267 Y0.1687  
G01 X-0.3313 Y0.1733  
G01 X-0.3318 Y0.1740  
G01 X-0.3661 Y0.1740  
G01 X-0.3666 Y0.1733  
G01 X-0.3711 Y0.1687  
G01 X-0.3764 Y0.1649  
G01 X-0.3821 Y0.1620  
G01 X-0.3882 Y0.1600  
G01 X-0.3946 Y0.1590  
G01 X-0.4011 Y0.1590  
G01 X-0.4075 Y0.1600  
G01 X-0.4136 Y0.1620  
G01 X-0.4193 Y0.1649  
G01 X-0.4246 Y0.1687  
G01 X-0.4291 Y0.1733  
G01 X-0.4296 Y0.1740  
G01 X-0.8204 Y0.1740  
G01 X-0.8209 Y0.1733  
G01 X-0.8254 Y0.1687  
G01 X-0.8307 Y0.1649  
G01 X-0.8364 Y0.1620  
G01 X-0.8425 Y0.1600  
G01 X-0.8489 Y0.1590  
G01 X-0.8554 Y0.1590  
G01 X-0.8618 Y0.1600  
G01 X-0.8679 Y0.1620  
G01 X-0.8736 Y0.1649  
G01 X-0.8789 Y0.1687  
G01 X-0.8834 Y0.1733  
G01 X-0.8872 Y0.1785  
G01 X-0.8901 Y0.1843  
G01 X-0.8921 Y0.1904  
G01 X-0.8931 Y0.1968  
G01 X-0.8931 Y0.2032  
G01 X-0.8921 Y0.2096  
G01 X-0.8901 Y0.2157  
G01 X-0.8872 Y0.2215  
G01 X-0.8834 Y0.2267  
G01 X-0.8789 Y0.2313  
G01 X-0.8760 Y0.2334  
G01 X-0.8760 Y0.7089  
G01 X-1.1608 Y0.8513  
G01 X-1.1623 Y0.8520  
G01 X-1.1631 Y0.8525  
G01 X-1.1639 Y0.8529  
G01 X-1.1652 Y0.8539  
G01 X-1.1666 Y0.8548  
G01 X-1.1672 Y0.8555  
G01 X-1.1680 Y0.8560  
G01 X-1.1690 Y0.8573  
G01 X-1.1702 Y0.8584  
G01 X-1.1707 Y0.8592  
G01 X-1.1713 Y0.8599  
G01 X-1.1721 Y0.8613  
G01 X-1.1730 Y0.8627  
G01 X-1.1734 Y0.8635  
G01 X-1.1739 Y0.8643  
G01 X-1.1744 Y0.8659  
G01 X-1.1750 Y0.8674  
G01 X-1.1752 Y0.8683  
G01 X-1.1755 Y0.8692  
G01 X-1.1757 Y0.8708  
G01 X-1.1760 Y0.8724  
G01 X-1.1760 Y0.8734  
G01 X-1.1761 Y0.8743  
G01 X-1.1760 Y0.8759  
G01 X-1.1760 Y1.2741  
G01 X-1.1761 Y1.2757  
G01 X-1.1760 Y1.2766  
G01 X-1.1760 Y1.2776  
G01 X-1.1757 Y1.2792  
G01 X-1.1755 Y1.2808  
G01 X-1.1752 Y1.2817  
G01 X-1.1750 Y1.2826  
G01 X-1.1744 Y1.2841  
G01 X-1.1739 Y1.2857  
G01 X-1.1734 Y1.2865  
G01 X-1.1730 Y1.2873  
G01 X-1.1721 Y1.2887  
G01 X-1.1713 Y1.2901  
G01 X-1.1707 Y1.2908  
G01 X-1.1702 Y1.2916  
G01 X-1.1690 Y1.2927  
G01 X-1.1680 Y1.2940  
G01 X-1.1672 Y1.2945  
G01 X-1.1666 Y1.2952  
G01 X-1.1652 Y1.2961  
G01 X-1.1639 Y1.2971  
G01 X-1.1631 Y1.2975  
G01 X-1.1623 Y1.2980  
G01 X-1.1608 Y1.2987  
G01 X-1.0285 Y1.3648  
G01 X-1.0284 Y1.3652  
G01 X-1.0249 Y1.3704  
G01 X-1.0204 Y1.3749  
G01 X-1.0152 Y1.3784  
G01 X-1.0093 Y1.3808  
G01 X-1.0032 Y1.3820  
G01 X-0.9968 Y1.3820  
G01 X-0.9949 Y1.3816  
G01 X-0.9320 Y1.4131  
G01 X-0.9320 Y1.4133  
G01 X-0.9133 Y1.4320  
G01 X-0.8867 Y1.4320  
G01 X-0.8680 Y1.4133  
G01 X-0.8680 Y1.3867  
G01 X-0.8867 Y1.3680  
G01 X-0.9059 Y1.3680  
G01 X-0.9715 Y1.3352  
G01 X-0.9716 Y1.3348  
G01 X-0.9751 Y1.3296  
G01 X-0.9796 Y1.3251  
G01 X-0.9848 Y1.3216  
G01 X-0.9907 Y1.3192  
G01 X-0.9968 Y1.3180  
G01 X-1.0032 Y1.3180  
G01 X-1.0051 Y1.3184  
G01 X-1.1240 Y1.2589  
G01 X-1.1240 Y0.8911  
G01 X-0.8392 Y0.7487  
G01 X-0.8377 Y0.7480  
G01 X-0.8369 Y0.7475  
G01 X-0.8361 Y0.7471  
G01 X-0.8348 Y0.7461  
G01 X-0.8334 Y0.7452  
G01 X-0.8328 Y0.7445  
G01 X-0.8320 Y0.7440  
G01 X-0.8310 Y0.7427  
G01 X-0.8298 Y0.7416  
G01 X-0.8293 Y0.7408  
G01 X-0.8287 Y0.7401  
G01 X-0.8279 Y0.7387  
G01 X-0.8270 Y0.7373  
G01 X-0.8266 Y0.7365  
G01 X-0.8261 Y0.7357  
G01 X-0.8256 Y0.7341  
G01 X-0.8250 Y0.7326  
G01 X-0.8248 Y0.7317  
G01 X-0.8245 Y0.7308  
G01 X-0.8243 Y0.7292  
G01 X-0.8240 Y0.7276  
G01 X-0.8240 Y0.7266  
G01 X-0.8239 Y0.7257  
G01 X-0.8240 Y0.7241  
G01 X-0.8240 Y0.2298  
G01 X-0.8209 Y0.2267  
G01 X-0.8204 Y0.2260  
G01 X-0.4296 Y0.2260  
G01 X-0.4291 Y0.2267  
G01 X-0.4246 Y0.2313  
G01 X-0.4193 Y0.2351  
G01 X-0.4136 Y0.2380  
G01 X-0.4075 Y0.2400  
G01 X-0.4011 Y0.2410  
G01 X-0.3946 Y0.2410  
G01 X-0.3882 Y0.2400  
G01 X-0.3821 Y0.2380  
G01 X-0.3764 Y0.2351  
G01 X-0.3711 Y0.2313  
G01 X-0.3666 Y0.2267  
G01 X-0.3661 Y0.2260  
G01 X-0.3318 Y0.2260  
G01 X-0.3313 Y0.2267  
G01 X-0.3267 Y0.2313  
G01 X-0.3215 Y0.2351  
G01 X-0.3157 Y0.2380  
G01 X-0.3096 Y0.2400  
G01 X-0.3032 Y0.2410  
G01 X-0.2968 Y0.2410  
G01 X-0.2904 Y0.2400  
G01 X-0.2843 Y0.2380  
G01 X-0.2785 Y0.2351  
G01 X-0.2733 Y0.2313  
G01 X-0.2687 Y0.2267  
G01 X-0.2649 Y0.2215  
G01 X-0.2620 Y0.2157  
G01 X-0.2600 Y0.2096  
G01 X-0.2590 Y0.2032  
G01 X-0.2590 Y0.1968  
G01 X-0.2600 Y0.1904  
G01 X-0.2620 Y0.1843  
G01 X-0.2649 Y0.1785  
G01 X-0.2687 Y0.1733  
G00 Z0.0500  
G00 X-0.9187 Y0.1733  
G01 Z-0.0040 F10    
G01 X-0.9233 Y0.1687  F20    
G01 X-0.9285 Y0.1649  
G01 X-0.9343 Y0.1620  
G01 X-0.9404 Y0.1600  
G01 X-0.9468 Y0.1590  
G01 X-0.9532 Y0.1590  
G01 X-0.9596 Y0.1600  
G01 X-0.9657 Y0.1620  
G01 X-0.9715 Y0.1649  
G01 X-0.9767 Y0.1687  
G01 X-0.9813 Y0.1733  
G01 X-0.9851 Y0.1785  
G01 X-0.9880 Y0.1843  
G01 X-0.9900 Y0.1904  
G01 X-0.9910 Y0.1968  
G01 X-0.9910 Y0.2032  
G01 X-0.9900 Y0.2096  
G01 X-0.9880 Y0.2157  
G01 X-0.9851 Y0.2215  
G01 X-0.9813 Y0.2267  
G01 X-0.9767 Y0.2313  
G01 X-0.9760 Y0.2318  
G01 X-0.9760 Y0.6307  
G01 X-0.9820 Y0.6367  
G01 X-0.9820 Y0.6633  
G01 X-0.9633 Y0.6820  
G01 X-0.9367 Y0.6820  
G01 X-0.9180 Y0.6633  
G01 X-0.9180 Y0.6367  
G01 X-0.9240 Y0.6307  
G01 X-0.9240 Y0.2318  
G01 X-0.9233 Y0.2313  
G01 X-0.9187 Y0.2267  
G01 X-0.9149 Y0.2215  
G01 X-0.9120 Y0.2157  
G01 X-0.9100 Y0.2096  
G01 X-0.9090 Y0.2032  
G01 X-0.9090 Y0.1968  
G01 X-0.9100 Y0.1904  
G01 X-0.9120 Y0.1843  
G01 X-0.9149 Y0.1785  
G01 X-0.9187 Y0.1733  
G00 Z0.0500  
G00 X-1.0166 Y0.1733  
G01 Z-0.0040 F10    
G01 X-1.0211 Y0.1687  F20    
G01 X-1.0264 Y0.1649  
G01 X-1.0321 Y0.1620  
G01 X-1.0382 Y0.1600  
G01 X-1.0446 Y0.1590  
G01 X-1.0511 Y0.1590  
G01 X-1.0575 Y0.1600  
G01 X-1.0636 Y0.1620  
G01 X-1.0693 Y0.1649  
G01 X-1.0746 Y0.1687  
G01 X-1.0762 Y0.1703  
G01 X-1.2619 Y0.0775  
G01 X-1.2627 Y0.0770  
G01 X-1.2642 Y0.0763  
G01 X-1.2657 Y0.0756  
G01 X-1.2666 Y0.0754  
G01 X-1.2674 Y0.0750  
G01 X-1.2690 Y0.0747  
G01 X-1.2706 Y0.0742  
G01 X-1.2715 Y0.0742  
G01 X-1.2724 Y0.0740  
G01 X-1.2741 Y0.0740  
G01 X-1.2757 Y0.0739  
G01 X-1.2766 Y0.0740  
G01 X-1.8526 Y0.0740  
G01 X-1.8576 Y0.0750  
G01 X-1.8623 Y0.0770  
G01 X-1.8666 Y0.0798  
G01 X-1.9462 Y0.1594  
G01 X-1.9489 Y0.1590  
G01 X-1.9554 Y0.1590  
G01 X-1.9618 Y0.1600  
G01 X-1.9679 Y0.1620  
G01 X-1.9736 Y0.1649  
G01 X-1.9789 Y0.1687  
G01 X-1.9834 Y0.1733  
G01 X-1.9872 Y0.1785  
G01 X-1.9901 Y0.1843  
G01 X-1.9921 Y0.1904  
G01 X-1.9931 Y0.1968  
G01 X-1.9931 Y0.2032  
G01 X-1.9921 Y0.2096  
G01 X-1.9901 Y0.2157  
G01 X-1.9872 Y0.2215  
G01 X-1.9834 Y0.2267  
G01 X-1.9789 Y0.2313  
G01 X-1.9736 Y0.2351  
G01 X-1.9679 Y0.2380  
G01 X-1.9618 Y0.2400  
G01 X-1.9554 Y0.2410  
G01 X-1.9489 Y0.2410  
G01 X-1.9425 Y0.2400  
G01 X-1.9364 Y0.2380  
G01 X-1.9307 Y0.2351  
G01 X-1.9254 Y0.2313  
G01 X-1.9209 Y0.2267  
G01 X-1.9171 Y0.2215  
G01 X-1.9142 Y0.2157  
G01 X-1.9122 Y0.2096  
G01 X-1.9111 Y0.2032  
G01 X-1.9111 Y0.1979  
G01 X-1.8392 Y0.1260  
G01 X-1.2811 Y0.1260  
G01 X-1.1010 Y0.2161  
G01 X-1.1010 Y0.6654  
G01 X-1.2441 Y0.8323  
G01 X-1.2452 Y0.8334  
G01 X-1.2458 Y0.8343  
G01 X-1.2464 Y0.8350  
G01 X-1.2472 Y0.8364  
G01 X-1.2480 Y0.8377  
G01 X-1.2484 Y0.8386  
G01 X-1.2489 Y0.8395  
G01 X-1.2494 Y0.8410  
G01 X-1.2500 Y0.8424  
G01 X-1.2502 Y0.8434  
G01 X-1.2505 Y0.8444  
G01 X-1.2507 Y0.8459  
G01 X-1.2510 Y0.8474  
G01 X-1.2510 Y0.8484  
G01 X-1.2511 Y0.8494  
G01 X-1.2510 Y0.8510  
G01 X-1.2510 Y1.1861  
G01 X-1.2989 Y1.2180  
G01 X-1.3032 Y1.2180  
G01 X-1.3093 Y1.2192  
G01 X-1.3152 Y1.2216  
G01 X-1.3204 Y1.2251  
G01 X-1.3249 Y1.2296  
G01 X-1.3284 Y1.2348  
G01 X-1.3285 Y1.2352  
G01 X-1.4102 Y1.2760  
G01 X-1.4112 Y1.2764  
G01 X-1.4125 Y1.2772  
G01 X-1.4139 Y1.2779  
G01 X-1.4147 Y1.2785  
G01 X-1.4156 Y1.2790  
G01 X-1.4167 Y1.2801  
G01 X-1.4180 Y1.2810  
G01 X-1.4186 Y1.2818  
G01 X-1.4194 Y1.2825  
G01 X-1.4203 Y1.2837  
G01 X-1.4213 Y1.2849  
G01 X-1.4218 Y1.2858  
G01 X-1.4224 Y1.2866  
G01 X-1.4231 Y1.2880  
G01 X-1.4239 Y1.2893  
G01 X-1.4242 Y1.2903  
G01 X-1.4246 Y1.2912  
G01 X-1.4250 Y1.2927  
G01 X-1.4255 Y1.2942  
G01 X-1.4256 Y1.2952  
G01 X-1.5203 Y1.6740  
G01 X-1.6807 Y1.6740  
G01 X-1.6867 Y1.6680  
G01 X-1.7133 Y1.6680  
G01 X-1.7320 Y1.6867  
G01 X-1.7320 Y1.7133  
G01 X-1.7133 Y1.7320  
G01 X-1.6867 Y1.7320  
G01 X-1.6807 Y1.7260  
G01 X-1.5260 Y1.7260  
G01 X-1.5260 Y1.7526  
G01 X-1.5250 Y1.7576  
G01 X-1.5230 Y1.7623  
G01 X-1.5202 Y1.7666  
G01 X-1.5166 Y1.7702  
G01 X-1.5123 Y1.7730  
G01 X-1.5076 Y1.7750  
G01 X-1.5026 Y1.7760  
G01 X-1.2693 Y1.7760  
G01 X-1.2633 Y1.7820  
G01 X-1.2367 Y1.7820  
G01 X-1.2180 Y1.7633  
G01 X-1.2180 Y1.7367  
G01 X-1.2367 Y1.7180  
G01 X-1.2633 Y1.7180  
G01 X-1.2693 Y1.7240  
G01 X-1.4740 Y1.7240  
G01 X-1.4740 Y1.7193  
G01 X-1.4680 Y1.7133  
G01 X-1.4680 Y1.6867  
G01 X-1.4695 Y1.6852  
G01 X-1.3777 Y1.3179  
G01 X-1.3051 Y1.2816  
G01 X-1.3032 Y1.2820  
G01 X-1.2968 Y1.2820  
G01 X-1.2907 Y1.2808  
G01 X-1.2848 Y1.2784  
G01 X-1.2796 Y1.2749  
G01 X-1.2751 Y1.2704  
G01 X-1.2716 Y1.2652  
G01 X-1.2700 Y1.2613  
G01 X-1.2127 Y1.2230  
G01 X-1.2105 Y1.2216  
G01 X-1.2084 Y1.2202  
G01 X-1.2066 Y1.2184  
G01 X-1.2048 Y1.2166  
G01 X-1.2034 Y1.2145  
G01 X-1.2020 Y1.2123  
G01 X-1.2010 Y1.2099  
G01 X-1.2000 Y1.2076  
G01 X-1.1995 Y1.2050  
G01 X-1.1990 Y1.2026  
G01 X-1.1990 Y1.2000  
G01 X-1.1990 Y1.1975  
G01 X-1.1990 Y0.8596  
G01 X-1.0559 Y0.6927  
G01 X-1.0548 Y0.6916  
G01 X-1.0542 Y0.6907  
G01 X-1.0536 Y0.6900  
G01 X-1.0528 Y0.6886  
G01 X-1.0520 Y0.6873  
G01 X-1.0516 Y0.6864  
G01 X-1.0511 Y0.6855  
G01 X-1.0506 Y0.6840  
G01 X-1.0500 Y0.6826  
G01 X-1.0498 Y0.6816  
G01 X-1.0495 Y0.6806  
G01 X-1.0493 Y0.6791  
G01 X-1.0490 Y0.6776  
G01 X-1.0490 Y0.6766  
G01 X-1.0489 Y0.6756  
G01 X-1.0490 Y0.6740  
G01 X-1.0490 Y0.2410  
G01 X-1.0446 Y0.2410  
G01 X-1.0382 Y0.2400  
G01 X-1.0321 Y0.2380  
G01 X-1.0264 Y0.2351  
G01 X-1.0211 Y0.2313  
G01 X-1.0166 Y0.2267  
G01 X-1.0128 Y0.2215  
G01 X-1.0099 Y0.2157  
G01 X-1.0079 Y0.2096  
G01 X-1.0069 Y0.2032  
G01 X-1.0069 Y0.1968  
G01 X-1.0079 Y0.1904  
G01 X-1.0099 Y0.1843  
G01 X-1.0128 Y0.1785  
G01 X-1.0166 Y0.1733  
G00 Z0.0500  
G00 X-1.3709 Y0.1733  
G01 Z-0.0040 F10    
G01 X-1.3754 Y0.1687  F20    
G01 X-1.3807 Y0.1649  
G01 X-1.3864 Y0.1620  
G01 X-1.3925 Y0.1600  
G01 X-1.3989 Y0.1590  
G01 X-1.4054 Y0.1590  
G01 X-1.4118 Y0.1600  
G01 X-1.4179 Y0.1620  
G01 X-1.4236 Y0.1649  
G01 X-1.4289 Y0.1687  
G01 X-1.4334 Y0.1733  
G01 X-1.4339 Y0.1740  
G01 X-1.4682 Y0.1740  
G01 X-1.4687 Y0.1733  
G01 X-1.4733 Y0.1687  
G01 X-1.4785 Y0.1649  
G01 X-1.4843 Y0.1620  
G01 X-1.4904 Y0.1600  
G01 X-1.4968 Y0.1590  
G01 X-1.5032 Y0.1590  
G01 X-1.5096 Y0.1600  
G01 X-1.5157 Y0.1620  
G01 X-1.5215 Y0.1649  
G01 X-1.5267 Y0.1687  
G01 X-1.5313 Y0.1733  
G01 X-1.5351 Y0.1785  
G01 X-1.5380 Y0.1843  
G01 X-1.5400 Y0.1904  
G01 X-1.5410 Y0.1968  
G01 X-1.5410 Y0.2032  
G01 X-1.5400 Y0.2096  
G01 X-1.5380 Y0.2157  
G01 X-1.5351 Y0.2215  
G01 X-1.5313 Y0.2267  
G01 X-1.5267 Y0.2313  
G01 X-1.5215 Y0.2351  
G01 X-1.5157 Y0.2380  
G01 X-1.5096 Y0.2400  
G01 X-1.5032 Y0.2410  
G01 X-1.4968 Y0.2410  
G01 X-1.4904 Y0.2400  
G01 X-1.4843 Y0.2380  
G01 X-1.4785 Y0.2351  
G01 X-1.4733 Y0.2313  
G01 X-1.4687 Y0.2267  
G01 X-1.4682 Y0.2260  
G01 X-1.4339 Y0.2260  
G01 X-1.4334 Y0.2267  
G01 X-1.4289 Y0.2313  
G01 X-1.4260 Y0.2334  
G01 X-1.4260 Y0.2645  
G01 X-1.4289 Y0.2666  
G01 X-1.4334 Y0.2711  
G01 X-1.4372 Y0.2764  
G01 X-1.4376 Y0.2770  
G01 X-1.4377 Y0.2770  
G01 X-1.4424 Y0.2750  
G01 X-1.4474 Y0.2740  
G01 X-1.4666 Y0.2740  
G01 X-1.4687 Y0.2711  
G01 X-1.4733 Y0.2666  
G01 X-1.4785 Y0.2628  
G01 X-1.4843 Y0.2599  
G01 X-1.4904 Y0.2579  
G01 X-1.4968 Y0.2569  
G01 X-1.5032 Y0.2569  
G01 X-1.5096 Y0.2579  
G01 X-1.5157 Y0.2599  
G01 X-1.5215 Y0.2628  
G01 X-1.5267 Y0.2666  
G01 X-1.5313 Y0.2711  
G01 X-1.5351 Y0.2764  
G01 X-1.5380 Y0.2821  
G01 X-1.5400 Y0.2882  
G01 X-1.5410 Y0.2946  
G01 X-1.5410 Y0.3011  
G01 X-1.5400 Y0.3075  
G01 X-1.5380 Y0.3136  
G01 X-1.5351 Y0.3193  
G01 X-1.5313 Y0.3246  
G01 X-1.5267 Y0.3291  
G01 X-1.5215 Y0.3329  
G01 X-1.5157 Y0.3358  
G01 X-1.5096 Y0.3378  
G01 X-1.5032 Y0.3389  
G01 X-1.4968 Y0.3389  
G01 X-1.4904 Y0.3378  
G01 X-1.4843 Y0.3358  
G01 X-1.4785 Y0.3329  
G01 X-1.4760 Y0.3311  
G01 X-1.4760 Y0.9807  
G01 X-1.4820 Y0.9867  
G01 X-1.4820 Y1.0133  
G01 X-1.4633 Y1.0320  
G01 X-1.4367 Y1.0320  
G01 X-1.4307 Y1.0260  
G01 X-1.4061 Y1.0260  
G01 X-1.3285 Y1.0648  
G01 X-1.3284 Y1.0652  
G01 X-1.3249 Y1.0704  
G01 X-1.3204 Y1.0749  
G01 X-1.3152 Y1.0784  
G01 X-1.3093 Y1.0808  
G01 X-1.3032 Y1.0820  
G01 X-1.2968 Y1.0820  
G01 X-1.2907 Y1.0808  
G01 X-1.2848 Y1.0784  
G01 X-1.2796 Y1.0749  
G01 X-1.2751 Y1.0704  
G01 X-1.2716 Y1.0652  
G01 X-1.2692 Y1.0593  
G01 X-1.2680 Y1.0532  
G01 X-1.2680 Y1.0468  
G01 X-1.2692 Y1.0407  
G01 X-1.2716 Y1.0348  
G01 X-1.2751 Y1.0296  
G01 X-1.2796 Y1.0251  
G01 X-1.2848 Y1.0216  
G01 X-1.2907 Y1.0192  
G01 X-1.2968 Y1.0180  
G01 X-1.3032 Y1.0180  
G01 X-1.3051 Y1.0184  
G01 X-1.3869 Y0.9775  
G01 X-1.3877 Y0.9770  
G01 X-1.3892 Y0.9763  
G01 X-1.3907 Y0.9756  
G01 X-1.3916 Y0.9754  
G01 X-1.3924 Y0.9750  
G01 X-1.3940 Y0.9747  
G01 X-1.3956 Y0.9742  
G01 X-1.3965 Y0.9742  
G01 X-1.3974 Y0.9740  
G01 X-1.3991 Y0.9740  
G01 X-1.4007 Y0.9739  
G01 X-1.4016 Y0.9740  
G01 X-1.4240 Y0.9740  
G01 X-1.4240 Y0.3327  
G01 X-1.4236 Y0.3329  
G01 X-1.4179 Y0.3358  
G01 X-1.4118 Y0.3378  
G01 X-1.4054 Y0.3389  
G01 X-1.3989 Y0.3389  
G01 X-1.3925 Y0.3378  
G01 X-1.3864 Y0.3358  
G01 X-1.3807 Y0.3329  
G01 X-1.3754 Y0.3291  
G01 X-1.3709 Y0.3246  
G01 X-1.3671 Y0.3193  
G01 X-1.3642 Y0.3136  
G01 X-1.3622 Y0.3075  
G01 X-1.3611 Y0.3011  
G01 X-1.3611 Y0.2946  
G01 X-1.3622 Y0.2882  
G01 X-1.3642 Y0.2821  
G01 X-1.3671 Y0.2764  
G01 X-1.3709 Y0.2711  
G01 X-1.3740 Y0.2680  
G01 X-1.3740 Y0.2298  
G01 X-1.3709 Y0.2267  
G01 X-1.3671 Y0.2215  
G01 X-1.3642 Y0.2157  
G01 X-1.3622 Y0.2096  
G01 X-1.3611 Y0.2032  
G01 X-1.3611 Y0.1968  
G01 X-1.3622 Y0.1904  
G01 X-1.3642 Y0.1843  
G01 X-1.3671 Y0.1785  
G01 X-1.3709 Y0.1733  
G00 Z0.0500  
G00 X-1.5666 Y0.1733  
G01 Z-0.0040 F10    
G01 X-1.5711 Y0.1687  F20    
G01 X-1.5764 Y0.1649  
G01 X-1.5821 Y0.1620  
G01 X-1.5882 Y0.1600  
G01 X-1.5946 Y0.1590  
G01 X-1.6011 Y0.1590  
G01 X-1.6075 Y0.1600  
G01 X-1.6136 Y0.1620  
G01 X-1.6193 Y0.1649  
G01 X-1.6246 Y0.1687  
G01 X-1.6291 Y0.1733  
G01 X-1.6329 Y0.1785  
G01 X-1.6358 Y0.1843  
G01 X-1.6378 Y0.1904  
G01 X-1.6382 Y0.1926  
G01 X-1.7367 Y0.2517  
G01 X-1.7373 Y0.2520  
G01 X-1.7389 Y0.2530  
G01 X-1.7406 Y0.2540  
G01 X-1.7410 Y0.2545  
G01 X-1.7416 Y0.2548  
G01 X-1.7429 Y0.2562  
G01 X-1.7444 Y0.2575  
G01 X-1.7447 Y0.2580  
G01 X-1.7452 Y0.2584  
G01 X-1.7463 Y0.2600  
G01 X-1.7474 Y0.2616  
G01 X-1.7477 Y0.2622  
G01 X-1.7480 Y0.2627  
G01 X-1.7488 Y0.2645  
G01 X-1.7496 Y0.2662  
G01 X-1.7498 Y0.2668  
G01 X-1.7500 Y0.2674  
G01 X-1.7504 Y0.2693  
G01 X-1.7508 Y0.2712  
G01 X-1.7509 Y0.2718  
G01 X-1.7510 Y0.2724  
G01 X-1.7510 Y0.2744  
G01 X-1.7511 Y0.2763  
G01 X-1.7510 Y0.2769  
G01 X-1.7510 Y0.4225  
G01 X-1.7510 Y0.4250  
G01 X-1.7510 Y0.4276  
G01 X-1.7505 Y0.4301  
G01 X-1.7500 Y0.4326  
G01 X-1.7259 Y0.5533  
G01 X-1.7258 Y0.5540  
G01 X-1.7254 Y0.5558  
G01 X-1.7250 Y0.5576  
G01 X-1.7247 Y0.5583  
G01 X-1.7246 Y0.5589  
G01 X-1.7237 Y0.5606  
G01 X-1.7230 Y0.5623  
G01 X-1.7226 Y0.5629  
G01 X-1.7223 Y0.5636  
G01 X-1.7212 Y0.5650  
G01 X-1.7202 Y0.5666  
G01 X-1.7197 Y0.5671  
G01 X-1.5820 Y0.7507  
G01 X-1.5820 Y0.7633  
G01 X-1.5633 Y0.7820  
G01 X-1.5367 Y0.7820  
G01 X-1.5180 Y0.7633  
G01 X-1.5180 Y0.7367  
G01 X-1.5367 Y0.7180  
G01 X-1.5415 Y0.7180  
G01 X-1.6757 Y0.5391  
G01 X-1.6990 Y0.4224  
G01 X-1.6990 Y0.2897  
G01 X-1.6131 Y0.2382  
G01 X-1.6075 Y0.2400  
G01 X-1.6011 Y0.2410  
G01 X-1.5946 Y0.2410  
G01 X-1.5882 Y0.2400  
G01 X-1.5821 Y0.2380  
G01 X-1.5764 Y0.2351  
G01 X-1.5711 Y0.2313  
G01 X-1.5666 Y0.2267  
G01 X-1.5628 Y0.2215  
G01 X-1.5599 Y0.2157  
G01 X-1.5579 Y0.2096  
G01 X-1.5569 Y0.2032  
G01 X-1.5569 Y0.1968  
G01 X-1.5579 Y0.1904  
G01 X-1.5599 Y0.1843  
G01 X-1.5628 Y0.1785  
G01 X-1.5666 Y0.1733  
G00 Z0.0500  
G00 X-1.5666 Y0.2711  
G01 Z-0.0040 F10    
G01 X-1.5711 Y0.2666  F20    
G01 X-1.5764 Y0.2628  
G01 X-1.5821 Y0.2599  
G01 X-1.5882 Y0.2579  
G01 X-1.5946 Y0.2569  
G01 X-1.6011 Y0.2569  
G01 X-1.6075 Y0.2579  
G01 X-1.6136 Y0.2599  
G01 X-1.6193 Y0.2628  
G01 X-1.6246 Y0.2666  
G01 X-1.6291 Y0.2711  
G01 X-1.6329 Y0.2764  
G01 X-1.6358 Y0.2821  
G01 X-1.6378 Y0.2882  
G01 X-1.6389 Y0.2946  
G01 X-1.6389 Y0.3011  
G01 X-1.6378 Y0.3075  
G01 X-1.6358 Y0.3136  
G01 X-1.6329 Y0.3193  
G01 X-1.6291 Y0.3246  
G01 X-1.6260 Y0.3277  
G01 X-1.6260 Y0.4807  
G01 X-1.6320 Y0.4867  
G01 X-1.6320 Y0.5133  
G01 X-1.6133 Y0.5320  
G01 X-1.5867 Y0.5320  
G01 X-1.5680 Y0.5133  
G01 X-1.5680 Y0.4867  
G01 X-1.5740 Y0.4807  
G01 X-1.5740 Y0.3312  
G01 X-1.5711 Y0.3291  
G01 X-1.5666 Y0.3246  
G01 X-1.5628 Y0.3193  
G01 X-1.5599 Y0.3136  
G01 X-1.5579 Y0.3075  
G01 X-1.5569 Y0.3011  
G01 X-1.5569 Y0.2946  
G01 X-1.5579 Y0.2882  
G01 X-1.5599 Y0.2821  
G01 X-1.5628 Y0.2764  
G01 X-1.5666 Y0.2711  
G00 Z0.0500  
G00 X-1.8180 Y0.4367  
G01 Z-0.0040 F10    
G01 X-1.8367 Y0.4180  F20    
G01 X-1.8423 Y0.4180  
G01 X-2.0098 Y0.2086  
G01 X-2.0090 Y0.2032  
G01 X-2.0090 Y0.1968  
G01 X-2.0100 Y0.1904  
G01 X-2.0120 Y0.1843  
G01 X-2.0149 Y0.1785  
G01 X-2.0187 Y0.1733  
G01 X-2.0233 Y0.1687  
G01 X-2.0285 Y0.1649  
G01 X-2.0343 Y0.1620  
G01 X-2.0404 Y0.1600  
G01 X-2.0468 Y0.1590  
G01 X-2.0532 Y0.1590  
G01 X-2.0596 Y0.1600  
G01 X-2.0657 Y0.1620  
G01 X-2.0715 Y0.1649  
G01 X-2.0767 Y0.1687  
G01 X-2.0813 Y0.1733  
G01 X-2.0851 Y0.1785  
G01 X-2.0880 Y0.1843  
G01 X-2.0900 Y0.1904  
G01 X-2.0910 Y0.1968  
G01 X-2.0910 Y0.2032  
G01 X-2.0900 Y0.2096  
G01 X-2.0880 Y0.2157  
G01 X-2.0851 Y0.2215  
G01 X-2.0813 Y0.2267  
G01 X-2.0767 Y0.2313  
G01 X-2.0715 Y0.2351  
G01 X-2.0657 Y0.2380  
G01 X-2.0596 Y0.2400  
G01 X-2.0532 Y0.2410  
G01 X-2.0505 Y0.2410  
G01 X-1.8820 Y0.4516  
G01 X-1.8820 Y0.4633  
G01 X-1.8633 Y0.4820  
G01 X-1.8367 Y0.4820  
G01 X-1.8180 Y0.4633  
G01 X-1.8180 Y0.4367  
G00 Z0.0500  
G00 X-1.9006 Y0.4907  
G01 Z-0.0040 F10    
G01 X-1.9512 Y0.3896  F20    
G01 X-1.9516 Y0.3884  
G01 X-1.9523 Y0.3873  
G01 X-1.9529 Y0.3861  
G01 X-1.9536 Y0.3851  
G01 X-1.9543 Y0.3841  
G01 X-1.9552 Y0.3831  
G01 X-1.9560 Y0.3820  
G01 X-1.9570 Y0.3812  
G01 X-1.9578 Y0.3803  
G01 X-1.9589 Y0.3796  
G01 X-1.9599 Y0.3787  
G01 X-1.9610 Y0.3781  
G01 X-2.1240 Y0.2616  
G01 X-2.1240 Y0.2334  
G01 X-2.1211 Y0.2313  
G01 X-2.1166 Y0.2267  
G01 X-2.1128 Y0.2215  
G01 X-2.1099 Y0.2157  
G01 X-2.1079 Y0.2096  
G01 X-2.1069 Y0.2032  
G01 X-2.1069 Y0.1968  
G01 X-2.1079 Y0.1904  
G01 X-2.1099 Y0.1843  
G01 X-2.1128 Y0.1785  
G01 X-2.1166 Y0.1733  
G01 X-2.1211 Y0.1687  
G01 X-2.1264 Y0.1649  
G01 X-2.1321 Y0.1620  
G01 X-2.1382 Y0.1600  
G01 X-2.1446 Y0.1590  
G01 X-2.1511 Y0.1590  
G01 X-2.1575 Y0.1600  
G01 X-2.1636 Y0.1620  
G01 X-2.1693 Y0.1649  
G01 X-2.1746 Y0.1687  
G01 X-2.1791 Y0.1733  
G01 X-2.1796 Y0.1740  
G01 X-2.2218 Y0.1740  
G01 X-2.3149 Y0.1507  
G01 X-2.4361 Y0.0780  
G01 X-2.4377 Y0.0770  
G01 X-2.4383 Y0.0767  
G01 X-2.4388 Y0.0764  
G01 X-2.4406 Y0.0757  
G01 X-2.4424 Y0.0750  
G01 X-2.4430 Y0.0749  
G01 X-2.4436 Y0.0747  
G01 X-2.4455 Y0.0744  
G01 X-2.4474 Y0.0740  
G01 X-2.4481 Y0.0740  
G01 X-2.4487 Y0.0739  
G01 X-2.4506 Y0.0740  
G01 X-2.9236 Y0.0740  
G01 X-2.9247 Y0.0739  
G01 X-2.9261 Y0.0740  
G01 X-2.9276 Y0.0740  
G01 X-2.9287 Y0.0742  
G01 X-2.9298 Y0.0743  
G01 X-2.9312 Y0.0747  
G01 X-2.9326 Y0.0750  
G01 X-2.9336 Y0.0754  
G01 X-2.9347 Y0.0757  
G01 X-2.9360 Y0.0764  
G01 X-2.9373 Y0.0770  
G01 X-2.9382 Y0.0776  
G01 X-2.9392 Y0.0781  
G01 X-2.9404 Y0.0790  
G01 X-2.9416 Y0.0798  
G01 X-2.9424 Y0.0806  
G01 X-3.0419 Y0.1602  
G01 X-3.0425 Y0.1600  
G01 X-3.0489 Y0.1590  
G01 X-3.0554 Y0.1590  
G01 X-3.0618 Y0.1600  
G01 X-3.0679 Y0.1620  
G01 X-3.0736 Y0.1649  
G01 X-3.0789 Y0.1687  
G01 X-3.0834 Y0.1733  
G01 X-3.0872 Y0.1785  
G01 X-3.0901 Y0.1843  
G01 X-3.0921 Y0.1904  
G01 X-3.0931 Y0.1968  
G01 X-3.0931 Y0.2032  
G01 X-3.0921 Y0.2096  
G01 X-3.0901 Y0.2157  
G01 X-3.0872 Y0.2215  
G01 X-3.0834 Y0.2267  
G01 X-3.0789 Y0.2313  
G01 X-3.0736 Y0.2351  
G01 X-3.0679 Y0.2380  
G01 X-3.0618 Y0.2400  
G01 X-3.0554 Y0.2410  
G01 X-3.0489 Y0.2410  
G01 X-3.0425 Y0.2400  
G01 X-3.0364 Y0.2380  
G01 X-3.0307 Y0.2351  
G01 X-3.0254 Y0.2313  
G01 X-3.0209 Y0.2267  
G01 X-3.0171 Y0.2215  
G01 X-3.0142 Y0.2157  
G01 X-3.0122 Y0.2096  
G01 X-3.0111 Y0.2032  
G01 X-3.0111 Y0.2022  
G01 X-2.9159 Y0.1260  
G01 X-2.4572 Y0.1260  
G01 X-2.3395 Y0.1966  
G01 X-2.3384 Y0.1974  
G01 X-2.3373 Y0.1980  
G01 X-2.3362 Y0.1986  
G01 X-2.3350 Y0.1990  
G01 X-2.3338 Y0.1996  
G01 X-2.3326 Y0.1999  
G01 X-2.3314 Y0.2003  
G01 X-2.3301 Y0.2005  
G01 X-2.2332 Y0.2248  
G01 X-2.2326 Y0.2250  
G01 X-2.2307 Y0.2254  
G01 X-2.2288 Y0.2258  
G01 X-2.2282 Y0.2259  
G01 X-2.2276 Y0.2260  
G01 X-2.2256 Y0.2260  
G01 X-2.2237 Y0.2261  
G01 X-2.2231 Y0.2260  
G01 X-2.1796 Y0.2260  
G01 X-2.1791 Y0.2267  
G01 X-2.1760 Y0.2298  
G01 X-2.1760 Y0.2746  
G01 X-2.1761 Y0.2767  
G01 X-2.1760 Y0.2772  
G01 X-2.1760 Y0.2776  
G01 X-2.1756 Y0.2797  
G01 X-2.1752 Y0.2818  
G01 X-2.1751 Y0.2822  
G01 X-2.1750 Y0.2826  
G01 X-2.1742 Y0.2846  
G01 X-2.1734 Y0.2866  
G01 X-2.1732 Y0.2869  
G01 X-2.1730 Y0.2873  
G01 X-2.1718 Y0.2891  
G01 X-2.1707 Y0.2909  
G01 X-2.1704 Y0.2912  
G01 X-2.1702 Y0.2916  
G01 X-2.1687 Y0.2931  
G01 X-2.1672 Y0.2947  
G01 X-2.1669 Y0.2949  
G01 X-2.1666 Y0.2952  
G01 X-2.1648 Y0.2964  
G01 X-1.9954 Y0.4174  
G01 X-1.9471 Y0.5139  
G01 X-1.9440 Y0.5180  
G01 X-1.9401 Y0.5213  
G01 X-1.9357 Y0.5239  
G01 X-1.9308 Y0.5255  
G01 X-1.9266 Y0.5260  
G01 X-1.5440 Y0.9325  
G01 X-1.5440 Y1.0821  
G01 X-1.5443 Y1.0824  
G01 X-1.6197 Y1.1829  
G01 X-1.6202 Y1.1834  
G01 X-1.6212 Y1.1850  
G01 X-1.6223 Y1.1864  
G01 X-1.6226 Y1.1871  
G01 X-1.6230 Y1.1877  
G01 X-1.6238 Y1.1894  
G01 X-1.6246 Y1.1911  
G01 X-1.6247 Y1.1918  
G01 X-1.6250 Y1.1924  
G01 X-1.6254 Y1.1942  
G01 X-1.6258 Y1.1960  
G01 X-1.6259 Y1.1967  
G01 X-1.6260 Y1.1974  
G01 X-1.6260 Y1.1993  
G01 X-1.6261 Y1.2011  
G01 X-1.6260 Y1.2018  
G01 X-1.6260 Y1.3133  
G01 X-1.8422 Y1.5055  
G01 X-1.8440 Y1.5070  
G01 X-1.8441 Y1.5072  
G01 X-1.8442 Y1.5073  
G01 X-1.8456 Y1.5092  
G01 X-1.8471 Y1.5111  
G01 X-1.8472 Y1.5112  
G01 X-1.8473 Y1.5114  
G01 X-1.8483 Y1.5135  
G01 X-1.8994 Y1.6157  
G01 X-1.9008 Y1.6206  
G01 X-1.9011 Y1.6257  
G01 X-1.9005 Y1.6308  
G01 X-1.8989 Y1.6357  
G01 X-1.8987 Y1.6360  
G01 X-1.9089 Y1.6665  
G01 X-2.0680 Y1.5869  
G01 X-2.0680 Y1.5867  
G01 X-2.0867 Y1.5680  
G01 X-2.0952 Y1.5680  
G01 X-2.2798 Y1.3834  
G01 X-2.2834 Y1.3798  
G01 X-2.2877 Y1.3770  
G01 X-2.2924 Y1.3750  
G01 X-2.2974 Y1.3740  
G01 X-2.3813 Y1.3740  
G01 X-2.3848 Y1.3716  
G01 X-2.3907 Y1.3692  
G01 X-2.3968 Y1.3680  
G01 X-2.4032 Y1.3680  
G01 X-2.4093 Y1.3692  
G01 X-2.4152 Y1.3716  
G01 X-2.4204 Y1.3751  
G01 X-2.4249 Y1.3796  
G01 X-2.4284 Y1.3848  
G01 X-2.4308 Y1.3907  
G01 X-2.4320 Y1.3968  
G01 X-2.4320 Y1.4032  
G01 X-2.4308 Y1.4093  
G01 X-2.4284 Y1.4152  
G01 X-2.4249 Y1.4204  
G01 X-2.4204 Y1.4249  
G01 X-2.4152 Y1.4284  
G01 X-2.4093 Y1.4308  
G01 X-2.4032 Y1.4320  
G01 X-2.4010 Y1.4320  
G01 X-2.4010 Y1.6142  
G01 X-2.4548 Y1.6680  
G01 X-2.4633 Y1.6680  
G01 X-2.4820 Y1.6867  
G01 X-2.4820 Y1.7133  
G01 X-2.4633 Y1.7320  
G01 X-2.4367 Y1.7320  
G01 X-2.4180 Y1.7133  
G01 X-2.4180 Y1.7048  
G01 X-2.3548 Y1.6416  
G01 X-2.3520 Y1.6373  
G01 X-2.3500 Y1.6326  
G01 X-2.3490 Y1.6276  
G01 X-2.3490 Y1.4260  
G01 X-2.3108 Y1.4260  
G01 X-2.1320 Y1.6048  
G01 X-2.1320 Y1.6133  
G01 X-2.1133 Y1.6320  
G01 X-2.0941 Y1.6320  
G01 X-1.9320 Y1.7131  
G01 X-1.9320 Y1.7133  
G01 X-1.9133 Y1.7320  
G01 X-1.8867 Y1.7320  
G01 X-1.8680 Y1.7133  
G01 X-1.8680 Y1.6867  
G01 X-1.8737 Y1.6811  
G01 X-1.8626 Y1.6479  
G01 X-1.8599 Y1.6463  
G01 X-1.8560 Y1.6430  
G01 X-1.8529 Y1.6389  
G01 X-1.8040 Y1.5411  
G01 X-1.5841 Y1.3456  
G01 X-1.5834 Y1.3452  
G01 X-1.5822 Y1.3439  
G01 X-1.5808 Y1.3427  
G01 X-1.5803 Y1.3421  
G01 X-1.5798 Y1.3416  
G01 X-1.5788 Y1.3401  
G01 X-1.5777 Y1.3386  
G01 X-1.5774 Y1.3380  
G01 X-1.5770 Y1.3373  
G01 X-1.5763 Y1.3357  
G01 X-1.5755 Y1.3340  
G01 X-1.5753 Y1.3333  
G01 X-1.5750 Y1.3326  
G01 X-1.5746 Y1.3308  
G01 X-1.5742 Y1.3291  
G01 X-1.5742 Y1.3283  
G01 X-1.5740 Y1.3276  
G01 X-1.5740 Y1.3258  
G01 X-1.5739 Y1.3240  
G01 X-1.5740 Y1.3232  
G01 X-1.5740 Y1.2087  
G01 X-1.5027 Y1.1136  
G01 X-1.5004 Y1.1089  
G01 X-1.4992 Y1.1040  
G01 X-1.4989 Y1.0989  
G01 X-1.4996 Y1.0938  
G01 X-1.5013 Y1.0890  
G01 X-1.5039 Y1.0845  
G01 X-1.5060 Y1.0822  
G01 X-1.5060 Y0.9253  
G01 X-1.5059 Y0.9231  
G01 X-1.5060 Y0.9228  
G01 X-1.5060 Y0.9225  
G01 X-1.5066 Y0.9204  
G01 X-1.5071 Y0.9182  
G01 X-1.5072 Y0.9179  
G01 X-1.5073 Y0.9177  
G01 X-1.5084 Y0.9157  
G01 X-1.5094 Y0.9138  
G01 X-1.5096 Y0.9136  
G01 X-1.5098 Y0.9133  
G01 X-1.5114 Y0.9118  
G01 X-1.8989 Y0.5000  
G01 X-1.8992 Y0.4956  
G01 X-1.9006 Y0.4907  
G00 Z0.0500  
G00 X-2.0367 Y0.4820  
G01 Z-0.0040 F10    
G01 X-2.0180 Y0.4633  F20    
G01 X-2.0180 Y0.4367  
G01 X-2.0367 Y0.4180  
G01 X-2.0633 Y0.4180  
G01 X-2.0820 Y0.4367  
G01 X-2.0820 Y0.4452  
G01 X-2.1548 Y0.5180  
G01 X-2.1633 Y0.5180  
G01 X-2.1820 Y0.5367  
G01 X-2.1820 Y0.5633  
G01 X-2.1633 Y0.5820  
G01 X-2.1367 Y0.5820  
G01 X-2.1180 Y0.5633  
G01 X-2.1180 Y0.5548  
G01 X-2.0452 Y0.4820  
G01 X-2.0367 Y0.4820  
G00 Z0.0500  
G00 X-2.0548 Y0.6084  
G01 Z-0.0040 F10    
G01 X-2.0584 Y0.6048  F20    
G01 X-2.0627 Y0.6020  
G01 X-2.0674 Y0.6000  
G01 X-2.0724 Y0.5990  
G01 X-2.2611 Y0.5990  
G01 X-2.4520 Y0.3127  
G01 X-2.4534 Y0.3106  
G01 X-2.4548 Y0.3084  
G01 X-2.4566 Y0.3067  
G01 X-2.4584 Y0.3048  
G01 X-2.4613 Y0.3019  
G01 X-2.4611 Y0.3011  
G01 X-2.4611 Y0.2946  
G01 X-2.4622 Y0.2882  
G01 X-2.4642 Y0.2821  
G01 X-2.4671 Y0.2764  
G01 X-2.4709 Y0.2711  
G01 X-2.4740 Y0.2680  
G01 X-2.4740 Y0.2298  
G01 X-2.4709 Y0.2267  
G01 X-2.4671 Y0.2215  
G01 X-2.4642 Y0.2157  
G01 X-2.4622 Y0.2096  
G01 X-2.4611 Y0.2032  
G01 X-2.4611 Y0.1968  
G01 X-2.4622 Y0.1904  
G01 X-2.4642 Y0.1843  
G01 X-2.4671 Y0.1785  
G01 X-2.4709 Y0.1733  
G01 X-2.4754 Y0.1687  
G01 X-2.4807 Y0.1649  
G01 X-2.4864 Y0.1620  
G01 X-2.4925 Y0.1600  
G01 X-2.4989 Y0.1590  
G01 X-2.5054 Y0.1590  
G01 X-2.5118 Y0.1600  
G01 X-2.5179 Y0.1620  
G01 X-2.5236 Y0.1649  
G01 X-2.5289 Y0.1687  
G01 X-2.5334 Y0.1733  
G01 X-2.5339 Y0.1740  
G01 X-2.5682 Y0.1740  
G01 X-2.5687 Y0.1733  
G01 X-2.5733 Y0.1687  
G01 X-2.5785 Y0.1649  
G01 X-2.5843 Y0.1620  
G01 X-2.5904 Y0.1600  
G01 X-2.5968 Y0.1590  
G01 X-2.6032 Y0.1590  
G01 X-2.6096 Y0.1600  
G01 X-2.6157 Y0.1620  
G01 X-2.6215 Y0.1649  
G01 X-2.6267 Y0.1687  
G01 X-2.6313 Y0.1733  
G01 X-2.6351 Y0.1785  
G01 X-2.6380 Y0.1843  
G01 X-2.6400 Y0.1904  
G01 X-2.6410 Y0.1968  
G01 X-2.6410 Y0.2032  
G01 X-2.6400 Y0.2096  
G01 X-2.6380 Y0.2157  
G01 X-2.6351 Y0.2215  
G01 X-2.6313 Y0.2267  
G01 X-2.6267 Y0.2313  
G01 X-2.6215 Y0.2351  
G01 X-2.6157 Y0.2380  
G01 X-2.6096 Y0.2400  
G01 X-2.6032 Y0.2410  
G01 X-2.5968 Y0.2410  
G01 X-2.5904 Y0.2400  
G01 X-2.5843 Y0.2380  
G01 X-2.5785 Y0.2351  
G01 X-2.5733 Y0.2313  
G01 X-2.5687 Y0.2267  
G01 X-2.5682 Y0.2260  
G01 X-2.5339 Y0.2260  
G01 X-2.5334 Y0.2267  
G01 X-2.5289 Y0.2313  
G01 X-2.5260 Y0.2334  
G01 X-2.5260 Y0.2645  
G01 X-2.5289 Y0.2666  
G01 X-2.5334 Y0.2711  
G01 X-2.5355 Y0.2740  
G01 X-2.5666 Y0.2740  
G01 X-2.5687 Y0.2711  
G01 X-2.5733 Y0.2666  
G01 X-2.5785 Y0.2628  
G01 X-2.5843 Y0.2599  
G01 X-2.5904 Y0.2579  
G01 X-2.5968 Y0.2569  
G01 X-2.6032 Y0.2569  
G01 X-2.6096 Y0.2579  
G01 X-2.6157 Y0.2599  
G01 X-2.6215 Y0.2628  
G01 X-2.6267 Y0.2666  
G01 X-2.6313 Y0.2711  
G01 X-2.6351 Y0.2764  
G01 X-2.6380 Y0.2821  
G01 X-2.6400 Y0.2882  
G01 X-2.6410 Y0.2946  
G01 X-2.6410 Y0.3011  
G01 X-2.6400 Y0.3075  
G01 X-2.6380 Y0.3136  
G01 X-2.6351 Y0.3193  
G01 X-2.6313 Y0.3246  
G01 X-2.6267 Y0.3291  
G01 X-2.6215 Y0.3329  
G01 X-2.6157 Y0.3358  
G01 X-2.6096 Y0.3378  
G01 X-2.6032 Y0.3389  
G01 X-2.5968 Y0.3389  
G01 X-2.5904 Y0.3378  
G01 X-2.5843 Y0.3358  
G01 X-2.5785 Y0.3329  
G01 X-2.5733 Y0.3291  
G01 X-2.5702 Y0.3260  
G01 X-2.5320 Y0.3260  
G01 X-2.5289 Y0.3291  
G01 X-2.5236 Y0.3329  
G01 X-2.5179 Y0.3358  
G01 X-2.5118 Y0.3378  
G01 X-2.5054 Y0.3389  
G01 X-2.4989 Y0.3389  
G01 X-2.4981 Y0.3387  
G01 X-2.4952 Y0.3416  
G01 X-2.2980 Y0.6373  
G01 X-2.2966 Y0.6395  
G01 X-2.2952 Y0.6416  
G01 X-2.2934 Y0.6434  
G01 X-2.2916 Y0.6452  
G01 X-2.2895 Y0.6466  
G01 X-2.2873 Y0.6480  
G01 X-2.2849 Y0.6490  
G01 X-2.2826 Y0.6500  
G01 X-2.2801 Y0.6505  
G01 X-2.2776 Y0.6510  
G01 X-2.2750 Y0.6510  
G01 X-2.2725 Y0.6510  
G01 X-2.0858 Y0.6510  
G01 X-2.0510 Y0.6858  
G01 X-2.0510 Y1.0180  
G01 X-2.0633 Y1.0180  
G01 X-2.0820 Y1.0367  
G01 X-2.0820 Y1.0633  
G01 X-2.0633 Y1.0820  
G01 X-2.0367 Y1.0820  
G01 X-2.0180 Y1.0633  
G01 X-2.0180 Y1.0501  
G01 X-2.0174 Y1.0500  
G01 X-2.0127 Y1.0480  
G01 X-2.0084 Y1.0452  
G01 X-2.0048 Y1.0416  
G01 X-2.0020 Y1.0373  
G01 X-2.0000 Y1.0326  
G01 X-1.9990 Y1.0276  
G01 X-1.9990 Y0.6940  
G01 X-1.8824 Y0.6940  
G01 X-1.5940 Y0.9584  
G01 X-1.5940 Y1.0613  
G01 X-1.6391 Y1.0764  
G01 X-1.6424 Y1.0750  
G01 X-1.6474 Y1.0740  
G01 X-1.6525 Y1.0740  
G01 X-1.6576 Y1.0750  
G01 X-1.6623 Y1.0769  
G01 X-1.8079 Y1.1740  
G01 X-2.3813 Y1.1740  
G01 X-2.3848 Y1.1716  
G01 X-2.3907 Y1.1692  
G01 X-2.3968 Y1.1680  
G01 X-2.4032 Y1.1680  
G01 X-2.4093 Y1.1692  
G01 X-2.4152 Y1.1716  
G01 X-2.4204 Y1.1751  
G01 X-2.4249 Y1.1796  
G01 X-2.4284 Y1.1848  
G01 X-2.4308 Y1.1907  
G01 X-2.4320 Y1.1968  
G01 X-2.4320 Y1.2032  
G01 X-2.4308 Y1.2093  
G01 X-2.4284 Y1.2152  
G01 X-2.4249 Y1.2204  
G01 X-2.4204 Y1.2249  
G01 X-2.4152 Y1.2284  
G01 X-2.4093 Y1.2308  
G01 X-2.4032 Y1.2320  
G01 X-2.3968 Y1.2320  
G01 X-2.3907 Y1.2308  
G01 X-2.3848 Y1.2284  
G01 X-2.3813 Y1.2260  
G01 X-1.8000 Y1.2260  
G01 X-1.7975 Y1.2260  
G01 X-1.7949 Y1.2255  
G01 X-1.7924 Y1.2250  
G01 X-1.7900 Y1.2240  
G01 X-1.7877 Y1.2231  
G01 X-1.7856 Y1.2216  
G01 X-1.6334 Y1.1202  
G01 X-1.6298 Y1.1166  
G01 X-1.6270 Y1.1124  
G01 X-1.5695 Y1.0932  
G01 X-1.5677 Y1.0927  
G01 X-1.5672 Y1.0924  
G01 X-1.5666 Y1.0922  
G01 X-1.5650 Y1.0912  
G01 X-1.5633 Y1.0902  
G01 X-1.5629 Y1.0898  
G01 X-1.5624 Y1.0895  
G01 X-1.5612 Y1.0880  
G01 X-1.5598 Y1.0867  
G01 X-1.5595 Y1.0862  
G01 X-1.5591 Y1.0857  
G01 X-1.5583 Y1.0840  
G01 X-1.5573 Y1.0823  
G01 X-1.5571 Y1.0818  
G01 X-1.5569 Y1.0813  
G01 X-1.5565 Y1.0794  
G01 X-1.5560 Y1.0775  
G01 X-1.5560 Y1.0769  
G01 X-1.5559 Y1.0764  
G01 X-1.5560 Y1.0744  
G01 X-1.5560 Y0.9521  
G01 X-1.5559 Y0.9517  
G01 X-1.5560 Y0.9496  
G01 X-1.5560 Y0.9475  
G01 X-1.5561 Y0.9471  
G01 X-1.5561 Y0.9467  
G01 X-1.5568 Y0.9447  
G01 X-1.5573 Y0.9427  
G01 X-1.5575 Y0.9423  
G01 X-1.5576 Y0.9419  
G01 X-1.5588 Y0.9401  
G01 X-1.5598 Y0.9383  
G01 X-1.5601 Y0.9380  
G01 X-1.5603 Y0.9377  
G01 X-1.5619 Y0.9363  
G01 X-1.5633 Y0.9348  
G01 X-1.5637 Y0.9346  
G01 X-1.8619 Y0.6613  
G01 X-1.8633 Y0.6598  
G01 X-1.8637 Y0.6596  
G01 X-1.8640 Y0.6593  
G01 X-1.8659 Y0.6583  
G01 X-1.8677 Y0.6573  
G01 X-1.8681 Y0.6572  
G01 X-1.8684 Y0.6570  
G01 X-1.8705 Y0.6565  
G01 X-1.8725 Y0.6560  
G01 X-1.8729 Y0.6560  
G01 X-1.8733 Y0.6559  
G01 X-1.8754 Y0.6560  
G01 X-2.0072 Y0.6560  
G01 X-2.0548 Y0.6084  
G00 Z0.0500  
G00 X-2.1048 Y0.7334  
G01 Z-0.0040 F10    
G01 X-2.1084 Y0.7298  F20    
G01 X-2.1127 Y0.7270  
G01 X-2.1174 Y0.7250  
G01 X-2.1224 Y0.7240  
G01 X-2.1276 Y0.7240  
G01 X-2.1302 Y0.7245  
G01 X-2.1367 Y0.7180  
G01 X-2.1633 Y0.7180  
G01 X-2.1693 Y0.7240  
G01 X-2.3234 Y0.7240  
G01 X-2.3243 Y0.7239  
G01 X-2.3259 Y0.7240  
G01 X-2.3276 Y0.7240  
G01 X-2.3285 Y0.7242  
G01 X-2.3294 Y0.7242  
G01 X-2.3310 Y0.7247  
G01 X-2.3326 Y0.7250  
G01 X-2.3334 Y0.7254  
G01 X-2.3343 Y0.7256  
G01 X-2.3358 Y0.7263  
G01 X-2.3373 Y0.7270  
G01 X-2.3381 Y0.7275  
G01 X-2.4858 Y0.8013  
G01 X-2.4873 Y0.8019  
G01 X-2.4881 Y0.8025  
G01 X-2.4889 Y0.8029  
G01 X-2.4902 Y0.8039  
G01 X-2.4916 Y0.8048  
G01 X-2.4922 Y0.8055  
G01 X-2.4930 Y0.8060  
G01 X-2.4940 Y0.8073  
G01 X-2.4952 Y0.8084  
G01 X-2.4957 Y0.8092  
G01 X-2.4963 Y0.8099  
G01 X-2.4971 Y0.8113  
G01 X-2.4980 Y0.8127  
G01 X-2.4984 Y0.8135  
G01 X-2.4989 Y0.8143  
G01 X-2.4994 Y0.8159  
G01 X-2.5000 Y0.8174  
G01 X-2.5002 Y0.8183  
G01 X-2.5005 Y0.8192  
G01 X-2.5007 Y0.8208  
G01 X-2.5160 Y0.8973  
G01 X-2.7298 Y0.6834  
G01 X-2.7334 Y0.6798  
G01 X-2.7377 Y0.6770  
G01 X-2.7424 Y0.6750  
G01 X-2.7474 Y0.6740  
G01 X-2.7807 Y0.6740  
G01 X-2.7867 Y0.6680  
G01 X-2.8133 Y0.6680  
G01 X-2.8193 Y0.6740  
G01 X-2.8750 Y0.6740  
G01 X-2.8775 Y0.6740  
G01 X-2.8801 Y0.6745  
G01 X-2.8826 Y0.6750  
G01 X-2.8850 Y0.6760  
G01 X-2.8873 Y0.6769  
G01 X-2.8894 Y0.6784  
G01 X-3.0989 Y0.8180  
G01 X-3.1133 Y0.8180  
G01 X-3.1320 Y0.8367  
G01 X-3.1320 Y0.8633  
G01 X-3.1133 Y0.8820  
G01 X-3.0867 Y0.8820  
G01 X-3.0680 Y0.8633  
G01 X-3.0680 Y0.8599  
G01 X-2.8671 Y0.7260  
G01 X-2.8193 Y0.7260  
G01 X-2.8133 Y0.7320  
G01 X-2.7867 Y0.7320  
G01 X-2.7807 Y0.7260  
G01 X-2.7608 Y0.7260  
G01 X-2.5320 Y0.9548  
G01 X-2.5320 Y0.9633  
G01 X-2.5260 Y0.9693  
G01 X-2.5260 Y1.3392  
G01 X-2.5666 Y1.3798  
G01 X-2.5702 Y1.3834  
G01 X-2.5730 Y1.3877  
G01 X-2.5750 Y1.3924  
G01 X-2.5760 Y1.3974  
G01 X-2.5760 Y1.5307  
G01 X-2.5820 Y1.5367  
G01 X-2.5820 Y1.5511  
G01 X-2.6716 Y1.6856  
G01 X-2.6730 Y1.6877  
G01 X-2.6740 Y1.6900  
G01 X-2.6750 Y1.6924  
G01 X-2.6755 Y1.6949  
G01 X-2.6760 Y1.6974  
G01 X-2.6760 Y1.7000  
G01 X-2.6760 Y1.7870  
G01 X-2.8676 Y1.9307  
G01 X-2.8711 Y1.9345  
G01 X-2.8737 Y1.9390  
G01 X-2.8754 Y1.9438  
G01 X-2.8761 Y1.9489  
G01 X-2.8758 Y1.9540  
G01 X-2.8746 Y1.9589  
G01 X-2.8723 Y1.9636  
G01 X-2.8720 Y1.9640  
G01 X-2.8720 Y1.9696  
G01 X-2.8739 Y1.9709  
G01 X-2.8791 Y1.9761  
G01 X-2.8832 Y1.9822  
G01 X-2.8839 Y1.9839  
G01 X-3.0082 Y2.0253  
G01 X-3.1296 Y2.0396  
G01 X-3.1354 Y2.0339  
G01 X-3.1425 Y2.0287  
G01 X-3.1504 Y2.0247  
G01 X-3.1587 Y2.0220  
G01 X-3.1674 Y2.0206  
G01 X-3.2763 Y2.0206  
G01 X-3.2850 Y2.0220  
G01 X-3.2933 Y2.0247  
G01 X-3.3012 Y2.0287  
G01 X-3.3083 Y2.0339  
G01 X-3.3146 Y2.0401  
G01 X-3.3197 Y2.0472  
G01 X-3.3237 Y2.0551  
G01 X-3.3265 Y2.0635  
G01 X-3.3279 Y2.0722  
G01 X-3.3279 Y2.0810  
G01 X-3.3265 Y2.0897  
G01 X-3.3237 Y2.0981  
G01 X-3.3197 Y2.1059  
G01 X-3.3146 Y2.1131  
G01 X-3.3083 Y2.1193  
G01 X-3.3012 Y2.1245  
G01 X-3.2933 Y2.1285  
G01 X-3.2850 Y2.1312  
G01 X-3.2763 Y2.1326  
G01 X-3.1674 Y2.1326  
G01 X-3.1587 Y2.1312  
G01 X-3.1504 Y2.1285  
G01 X-3.1425 Y2.1245  
G01 X-3.1354 Y2.1193  
G01 X-3.1291 Y2.1131  
G01 X-3.1240 Y2.1059  
G01 X-3.1200 Y2.0981  
G01 X-3.1175 Y2.0905  
G01 X-2.9897 Y2.0755  
G01 X-2.9848 Y2.0739  
G01 X-2.9804 Y2.0714  
G01 X-2.9792 Y2.0705  
G01 X-2.8760 Y2.0361  
G01 X-2.8760 Y2.0991  
G01 X-2.8761 Y2.1007  
G01 X-2.8760 Y2.1016  
G01 X-2.8760 Y2.1026  
G01 X-2.8757 Y2.1042  
G01 X-2.8755 Y2.1058  
G01 X-2.8752 Y2.1067  
G01 X-2.8750 Y2.1076  
G01 X-2.8744 Y2.1091  
G01 X-2.8739 Y2.1107  
G01 X-2.8734 Y2.1115  
G01 X-2.8730 Y2.1123  
G01 X-2.8721 Y2.1137  
G01 X-2.8713 Y2.1151  
G01 X-2.8707 Y2.1158  
G01 X-2.8702 Y2.1166  
G01 X-2.8690 Y2.1177  
G01 X-2.8680 Y2.1190  
G01 X-2.8672 Y2.1195  
G01 X-2.8666 Y2.1202  
G01 X-2.8652 Y2.1211  
G01 X-2.8639 Y2.1221  
G01 X-2.8631 Y2.1225  
G01 X-2.8623 Y2.1230  
G01 X-2.8608 Y2.1237  
G01 X-2.7760 Y2.1661  
G01 X-2.7760 Y2.2480  
G01 X-2.7875 Y2.2595  
G01 X-2.7875 Y2.2905  
G01 X-2.7655 Y2.3125  
G01 X-2.7345 Y2.3125  
G01 X-2.7308 Y2.3088  
G01 X-2.6841 Y2.3244  
G01 X-2.6826 Y2.3250  
G01 X-2.6817 Y2.3252  
G01 X-2.6808 Y2.3255  
G01 X-2.6792 Y2.3257  
G01 X-2.6776 Y2.3260  
G01 X-2.6766 Y2.3260  
G01 X-2.6757 Y2.3261  
G01 X-2.6741 Y2.3260  
G01 X-2.1974 Y2.3260  
G01 X-2.1924 Y2.3250  
G01 X-2.1877 Y2.3230  
G01 X-2.1834 Y2.3202  
G01 X-2.1062 Y2.2430  
G01 X-2.0822 Y2.2430  
G01 X-2.0652 Y2.2260  
G01 X-2.0348 Y2.2260  
G01 X-2.0178 Y2.2430  
G01 X-1.9822 Y2.2430  
G01 X-1.9570 Y2.2178  
G01 X-1.9570 Y2.1822  
G01 X-1.9740 Y2.1652  
G01 X-1.9740 Y2.1348  
G01 X-1.9570 Y2.1178  
G01 X-1.9570 Y2.0822  
G01 X-1.9822 Y2.0570  
G01 X-2.0178 Y2.0570  
G01 X-2.0348 Y2.0740  
G01 X-2.0652 Y2.0740  
G01 X-2.0822 Y2.0570  
G01 X-2.1178 Y2.0570  
G01 X-2.1348 Y2.0740  
G01 X-2.1652 Y2.0740  
G01 X-2.1822 Y2.0570  
G01 X-2.2178 Y2.0570  
G01 X-2.2430 Y2.0822  
G01 X-2.2430 Y2.1178  
G01 X-2.2260 Y2.1348  
G01 X-2.2260 Y2.1526  
G01 X-2.2250 Y2.1576  
G01 X-2.2231 Y2.1623  
G01 X-2.2430 Y2.1822  
G01 X-2.2430 Y2.2178  
G01 X-2.2260 Y2.2348  
G01 X-2.2260 Y2.2526  
G01 X-2.2250 Y2.2576  
G01 X-2.2230 Y2.2623  
G01 X-2.2202 Y2.2666  
G01 X-2.2166 Y2.2702  
G01 X-2.2123 Y2.2730  
G01 X-2.2105 Y2.2738  
G01 X-2.2108 Y2.2740  
G01 X-2.6708 Y2.2740  
G01 X-2.7125 Y2.2601  
G01 X-2.7125 Y2.2595  
G01 X-2.7240 Y2.2480  
G01 X-2.7240 Y2.1509  
G01 X-2.7239 Y2.1493  
G01 X-2.7240 Y2.1484  
G01 X-2.7240 Y2.1474  
G01 X-2.7243 Y2.1458  
G01 X-2.7245 Y2.1442  
G01 X-2.7248 Y2.1433  
G01 X-2.7250 Y2.1424  
G01 X-2.7256 Y2.1409  
G01 X-2.7261 Y2.1393  
G01 X-2.7266 Y2.1385  
G01 X-2.7270 Y2.1377  
G01 X-2.7279 Y2.1363  
G01 X-2.7287 Y2.1349  
G01 X-2.7293 Y2.1342  
G01 X-2.7298 Y2.1334  
G01 X-2.7310 Y2.1323  
G01 X-2.7320 Y2.1310  
G01 X-2.7328 Y2.1305  
G01 X-2.7334 Y2.1298  
G01 X-2.7348 Y2.1289  
G01 X-2.7361 Y2.1279  
G01 X-2.7369 Y2.1275  
G01 X-2.7377 Y2.1270  
G01 X-2.7392 Y2.1263  
G01 X-2.8240 Y2.0839  
G01 X-2.8240 Y2.0270  
G01 X-2.8209 Y2.0239  
G01 X-2.8168 Y2.0178  
G01 X-2.8139 Y2.0109  
G01 X-2.8125 Y2.0037  
G01 X-2.8125 Y1.9963  
G01 X-2.8139 Y1.9891  
G01 X-2.8168 Y1.9822  
G01 X-2.8209 Y1.9761  
G01 X-2.8261 Y1.9709  
G01 X-2.8280 Y1.9696  
G01 X-2.8280 Y1.9660  
G01 X-2.6413 Y1.8260  
G01 X-1.9147 Y1.8260  
G01 X-1.8483 Y1.9367  
G01 X-1.8480 Y1.9373  
G01 X-1.8470 Y1.9389  
G01 X-1.8460 Y1.9406  
G01 X-1.8455 Y1.9410  
G01 X-1.8452 Y1.9416  
G01 X-1.8438 Y1.9429  
G01 X-1.8425 Y1.9444  
G01 X-1.8420 Y1.9447  
G01 X-1.8416 Y1.9452  
G01 X-1.8400 Y1.9463  
G01 X-1.8384 Y1.9474  
G01 X-1.8378 Y1.9477  
G01 X-1.8373 Y1.9480  
G01 X-1.8355 Y1.9488  
G01 X-1.8338 Y1.9496  
G01 X-1.8332 Y1.9498  
G01 X-1.8326 Y1.9500  
G01 X-1.8307 Y1.9504  
G01 X-1.8288 Y1.9508  
G01 X-1.8282 Y1.9509  
G01 X-1.8276 Y1.9510  
G01 X-1.8256 Y1.9510  
G01 X-1.8237 Y1.9511  
G01 X-1.8231 Y1.9510  
G01 X-0.8724 Y1.9510  
G01 X-0.8674 Y1.9500  
G01 X-0.8627 Y1.9480  
G01 X-0.8584 Y1.9452  
G01 X-0.8250 Y1.9118  
G01 X-0.6400 Y2.0968  
G01 X-0.6357 Y2.0996  
G01 X-0.6310 Y2.1016  
G01 X-0.6260 Y2.1026  
G01 X-0.5715 Y2.1026  
G01 X-0.5697 Y2.1059  
G01 X-0.5646 Y2.1131  
G01 X-0.5583 Y2.1193  
G01 X-0.5512 Y2.1245  
G01 X-0.5433 Y2.1285  
G01 X-0.5350 Y2.1312  
G01 X-0.5263 Y2.1326  
G01 X-0.4174 Y2.1326  
G01 X-0.4087 Y2.1312  
G01 X-0.4004 Y2.1285  
G01 X-0.3925 Y2.1245  
G01 X-0.3854 Y2.1193  
G01 X-0.3791 Y2.1131  
G01 X-0.3740 Y2.1059  
G01 X-0.3700 Y2.0981  
G01 X-0.3672 Y2.0897  
G01 X-0.3659 Y2.0810  
G01 X-0.3659 Y2.0722  
G01 X-0.3672 Y2.0635  
G01 X-0.3700 Y2.0551  
G01 X-0.3740 Y2.0472  
G01 X-0.3791 Y2.0401  
G01 X-0.3854 Y2.0339  
G01 X-0.3925 Y2.0287  
G01 X-0.4004 Y2.0247  
G01 X-0.4087 Y2.0220  
G01 X-0.4174 Y2.0206  
G01 X-0.5263 Y2.0206  
G01 X-0.5350 Y2.0220  
G01 X-0.5433 Y2.0247  
G01 X-0.5512 Y2.0287  
G01 X-0.5583 Y2.0339  
G01 X-0.5646 Y2.0401  
G01 X-0.5697 Y2.0472  
G01 X-0.5715 Y2.0506  
G01 X-0.6127 Y2.0506  
G01 X-0.7882 Y1.8750  
G01 X-0.7548 Y1.8416  
G01 X-0.7520 Y1.8373  
G01 X-0.7500 Y1.8326  
G01 X-0.7490 Y1.8276  
G01 X-0.7490 Y1.5139  
G01 X-0.6877 Y1.4730  
G01 X-0.6855 Y1.4716  
G01 X-0.6834 Y1.4702  
G01 X-0.6816 Y1.4684  
G01 X-0.6798 Y1.4666  
G01 X-0.6784 Y1.4645  
G01 X-0.6770 Y1.4623  
G01 X-0.6760 Y1.4599  
G01 X-0.6750 Y1.4576  
G01 X-0.6745 Y1.4550  
G01 X-0.6740 Y1.4526  
G01 X-0.6740 Y1.4500  
G01 X-0.6740 Y1.4475  
G01 X-0.6740 Y1.2764  
G01 X-0.6739 Y1.2753  
G01 X-0.6740 Y1.2739  
G01 X-0.6740 Y1.2724  
G01 X-0.6742 Y1.2713  
G01 X-0.6743 Y1.2702  
G01 X-0.6747 Y1.2688  
G01 X-0.6750 Y1.2674  
G01 X-0.6754 Y1.2664  
G01 X-0.6757 Y1.2653  
G01 X-0.6764 Y1.2640  
G01 X-0.6770 Y1.2627  
G01 X-0.6776 Y1.2618  
G01 X-0.6781 Y1.2608  
G01 X-0.6790 Y1.2596  
G01 X-0.6798 Y1.2584  
G01 X-0.6806 Y1.2576  
G01 X-0.7790 Y1.1346  
G01 X-0.7798 Y1.1334  
G01 X-0.7806 Y1.1326  
G01 X-0.7813 Y1.1318  
G01 X-0.7824 Y1.1308  
G01 X-0.7834 Y1.1298  
G01 X-0.7844 Y1.1292  
G01 X-0.7852 Y1.1285  
G01 X-0.7865 Y1.1278  
G01 X-0.7877 Y1.1270  
G01 X-0.7887 Y1.1265  
G01 X-0.7897 Y1.1260  
G01 X-0.7911 Y1.1256  
G01 X-0.7924 Y1.1250  
G01 X-0.7935 Y1.1248  
G01 X-0.7946 Y1.1244  
G01 X-0.7960 Y1.1243  
G01 X-0.7974 Y1.1240  
G01 X-0.7986 Y1.1240  
G01 X-0.7997 Y1.1239  
G01 X-0.8011 Y1.1240  
G01 X-0.8307 Y1.1240  
G01 X-0.8367 Y1.1180  
G01 X-0.8633 Y1.1180  
G01 X-0.8693 Y1.1240  
G01 X-0.9813 Y1.1240  
G01 X-0.9848 Y1.1216  
G01 X-0.9907 Y1.1192  
G01 X-0.9968 Y1.1180  
G01 X-1.0032 Y1.1180  
G01 X-1.0093 Y1.1192  
G01 X-1.0152 Y1.1216  
G01 X-1.0204 Y1.1251  
G01 X-1.0249 Y1.1296  
G01 X-1.0284 Y1.1348  
G01 X-1.0308 Y1.1407  
G01 X-1.0320 Y1.1468  
G01 X-1.0320 Y1.1532  
G01 X-1.0308 Y1.1593  
G01 X-1.0284 Y1.1652  
G01 X-1.0249 Y1.1704  
G01 X-1.0204 Y1.1749  
G01 X-1.0152 Y1.1784  
G01 X-1.0093 Y1.1808  
G01 X-1.0032 Y1.1820  
G01 X-0.9968 Y1.1820  
G01 X-0.9907 Y1.1808  
G01 X-0.9848 Y1.1784  
G01 X-0.9813 Y1.1760  
G01 X-0.8693 Y1.1760  
G01 X-0.8633 Y1.1820  
G01 X-0.8367 Y1.1820  
G01 X-0.8307 Y1.1760  
G01 X-0.8125 Y1.1760  
G01 X-0.7260 Y1.2841  
G01 X-0.7260 Y1.4361  
G01 X-0.7829 Y1.4740  
G01 X-1.1307 Y1.4740  
G01 X-1.1367 Y1.4680  
G01 X-1.1633 Y1.4680  
G01 X-1.1820 Y1.4867  
G01 X-1.1820 Y1.5133  
G01 X-1.1633 Y1.5320  
G01 X-1.1367 Y1.5320  
G01 X-1.1307 Y1.5260  
G01 X-0.8010 Y1.5260  
G01 X-0.8010 Y1.8142  
G01 X-0.8452 Y1.8584  
G01 X-0.8858 Y1.8990  
G01 X-1.8103 Y1.8990  
G01 X-1.8767 Y1.7883  
G01 X-1.8770 Y1.7877  
G01 X-1.8780 Y1.7861  
G01 X-1.8790 Y1.7844  
G01 X-1.8795 Y1.7840  
G01 X-1.8798 Y1.7834  
G01 X-1.8812 Y1.7821  
G01 X-1.8825 Y1.7806  
G01 X-1.8830 Y1.7803  
G01 X-1.8834 Y1.7798  
G01 X-1.8850 Y1.7787  
G01 X-1.8866 Y1.7776  
G01 X-1.8872 Y1.7773  
G01 X-1.8877 Y1.7770  
G01 X-1.8895 Y1.7762  
G01 X-1.8912 Y1.7754  
G01 X-1.8918 Y1.7752  
G01 X-1.8924 Y1.7750  
G01 X-1.8943 Y1.7746  
G01 X-1.8962 Y1.7742  
G01 X-1.8968 Y1.7741  
G01 X-1.8974 Y1.7740  
G01 X-1.8994 Y1.7740  
G01 X-1.9013 Y1.7739  
G01 X-1.9019 Y1.7740  
G01 X-2.6240 Y1.7740  
G01 X-2.6240 Y1.7079  
G01 X-2.5401 Y1.5820  
G01 X-2.5367 Y1.5820  
G01 X-2.5180 Y1.5633  
G01 X-2.5180 Y1.5367  
G01 X-2.5240 Y1.5307  
G01 X-2.5240 Y1.4108  
G01 X-2.4798 Y1.3666  
G01 X-2.4770 Y1.3623  
G01 X-2.4750 Y1.3576  
G01 X-2.4740 Y1.3526  
G01 X-2.4740 Y0.9693  
G01 X-2.4680 Y0.9633  
G01 X-2.4680 Y0.9367  
G01 X-2.4704 Y0.9344  
G01 X-2.4520 Y0.8426  
G01 X-2.3189 Y0.7760  
G01 X-2.1693 Y0.7760  
G01 X-2.1633 Y0.7820  
G01 X-2.1510 Y0.7820  
G01 X-2.1510 Y1.1276  
G01 X-2.1500 Y1.1326  
G01 X-2.1480 Y1.1373  
G01 X-2.1452 Y1.1416  
G01 X-2.1416 Y1.1452  
G01 X-2.1373 Y1.1480  
G01 X-2.1326 Y1.1500  
G01 X-2.1276 Y1.1510  
G01 X-1.9275 Y1.1510  
G01 X-1.9250 Y1.1510  
G01 X-1.9224 Y1.1510  
G01 X-1.9200 Y1.1505  
G01 X-1.9174 Y1.1500  
G01 X-1.9151 Y1.1490  
G01 X-1.9127 Y1.1480  
G01 X-1.9105 Y1.1466  
G01 X-1.9084 Y1.1452  
G01 X-1.9066 Y1.1434  
G01 X-1.9048 Y1.1416  
G01 X-1.9034 Y1.1395  
G01 X-1.9020 Y1.1373  
G01 X-1.8644 Y1.0809  
G01 X-1.8633 Y1.0820  
G01 X-1.8367 Y1.0820  
G01 X-1.8180 Y1.0633  
G01 X-1.8180 Y1.0367  
G01 X-1.8240 Y1.0307  
G01 X-1.8240 Y1.0260  
G01 X-1.6693 Y1.0260  
G01 X-1.6633 Y1.0320  
G01 X-1.6367 Y1.0320  
G01 X-1.6180 Y1.0133  
G01 X-1.6180 Y0.9867  
G01 X-1.6367 Y0.9680  
G01 X-1.6633 Y0.9680  
G01 X-1.6693 Y0.9740  
G01 X-1.8240 Y0.9740  
G01 X-1.8240 Y0.8474  
G01 X-1.8250 Y0.8424  
G01 X-1.8270 Y0.8377  
G01 X-1.8298 Y0.8334  
G01 X-1.8334 Y0.8298  
G01 X-1.9180 Y0.7452  
G01 X-1.9180 Y0.7367  
G01 X-1.9367 Y0.7180  
G01 X-1.9633 Y0.7180  
G01 X-1.9820 Y0.7367  
G01 X-1.9820 Y0.7633  
G01 X-1.9633 Y0.7820  
G01 X-1.9548 Y0.7820  
G01 X-1.8760 Y0.8608  
G01 X-1.8760 Y1.0240  
G01 X-1.8776 Y1.0240  
G01 X-1.8826 Y1.0250  
G01 X-1.8873 Y1.0270  
G01 X-1.8916 Y1.0298  
G01 X-1.8952 Y1.0334  
G01 X-1.9389 Y1.0990  
G01 X-2.0990 Y1.0990  
G01 X-2.0990 Y0.7474  
G01 X-2.1000 Y0.7424  
G01 X-2.1020 Y0.7377  
G01 X-2.1048 Y0.7334  
G00 Z0.0500  
G00 X-2.5180 Y0.7367  
G01 Z-0.0040 F10    
G01 X-2.5367 Y0.7180  F20    
G01 X-2.5426 Y0.7180  
G01 X-2.7490 Y0.4657  
G01 X-2.7490 Y0.2437  
G01 X-2.7205 Y0.2342  
G01 X-2.7193 Y0.2351  
G01 X-2.7136 Y0.2380  
G01 X-2.7075 Y0.2400  
G01 X-2.7011 Y0.2410  
G01 X-2.6946 Y0.2410  
G01 X-2.6882 Y0.2400  
G01 X-2.6821 Y0.2380  
G01 X-2.6764 Y0.2351  
G01 X-2.6711 Y0.2313  
G01 X-2.6666 Y0.2267  
G01 X-2.6628 Y0.2215  
G01 X-2.6599 Y0.2157  
G01 X-2.6579 Y0.2096  
G01 X-2.6569 Y0.2032  
G01 X-2.6569 Y0.1968  
G01 X-2.6579 Y0.1904  
G01 X-2.6599 Y0.1843  
G01 X-2.6628 Y0.1785  
G01 X-2.6666 Y0.1733  
G01 X-2.6711 Y0.1687  
G01 X-2.6764 Y0.1649  
G01 X-2.6821 Y0.1620  
G01 X-2.6882 Y0.1600  
G01 X-2.6946 Y0.1590  
G01 X-2.7011 Y0.1590  
G01 X-2.7075 Y0.1600  
G01 X-2.7136 Y0.1620  
G01 X-2.7193 Y0.1649  
G01 X-2.7246 Y0.1687  
G01 X-2.7291 Y0.1733  
G01 X-2.7329 Y0.1785  
G01 X-2.7358 Y0.1843  
G01 X-2.7359 Y0.1846  
G01 X-2.7817 Y0.1998  
G01 X-2.7826 Y0.2000  
G01 X-2.7841 Y0.2006  
G01 X-2.7857 Y0.2011  
G01 X-2.7865 Y0.2016  
G01 X-2.7873 Y0.2020  
G01 X-2.7887 Y0.2029  
G01 X-2.7901 Y0.2037  
G01 X-2.7908 Y0.2043  
G01 X-2.7916 Y0.2048  
G01 X-2.7927 Y0.2060  
G01 X-2.7940 Y0.2070  
G01 X-2.7945 Y0.2078  
G01 X-2.7952 Y0.2084  
G01 X-2.7961 Y0.2098  
G01 X-2.7971 Y0.2111  
G01 X-2.7975 Y0.2119  
G01 X-2.7980 Y0.2127  
G01 X-2.7987 Y0.2142  
G01 X-2.7994 Y0.2157  
G01 X-2.7996 Y0.2166  
G01 X-2.8000 Y0.2174  
G01 X-2.8003 Y0.2190  
G01 X-2.8008 Y0.2206  
G01 X-2.8008 Y0.2215  
G01 X-2.8010 Y0.2224  
G01 X-2.8010 Y0.2241  
G01 X-2.8011 Y0.2257  
G01 X-2.8010 Y0.2266  
G01 X-2.8010 Y0.4737  
G01 X-2.8011 Y0.4750  
G01 X-2.8010 Y0.4763  
G01 X-2.8010 Y0.4776  
G01 X-2.8008 Y0.4788  
G01 X-2.8006 Y0.4801  
G01 X-2.8003 Y0.4813  
G01 X-2.8000 Y0.4826  
G01 X-2.7995 Y0.4838  
G01 X-2.7992 Y0.4850  
G01 X-2.7985 Y0.4861  
G01 X-2.7980 Y0.4873  
G01 X-2.7973 Y0.4884  
G01 X-2.7967 Y0.4895  
G01 X-2.7959 Y0.4905  
G01 X-2.7952 Y0.4916  
G01 X-2.7943 Y0.4925  
G01 X-2.5820 Y0.7519  
G01 X-2.5820 Y0.7633  
G01 X-2.5633 Y0.7820  
G01 X-2.5367 Y0.7820  
G01 X-2.5180 Y0.7633  
G01 X-2.5180 Y0.7367  
G00 Z0.0500  
G00 X-2.5367 Y0.5820  
G01 Z-0.0040 F10    
G01 X-2.5180 Y0.5633  F20    
G01 X-2.5180 Y0.5367  
G01 X-2.5367 Y0.5180  
G01 X-2.5452 Y0.5180  
G01 X-2.6490 Y0.4142  
G01 X-2.6490 Y0.3012  
G01 X-2.6489 Y0.2999  
G01 X-2.6490 Y0.2987  
G01 X-2.6490 Y0.2974  
G01 X-2.6493 Y0.2961  
G01 X-2.6494 Y0.2948  
G01 X-2.6498 Y0.2936  
G01 X-2.6500 Y0.2924  
G01 X-2.6505 Y0.2912  
G01 X-2.6509 Y0.2899  
G01 X-2.6515 Y0.2888  
G01 X-2.6520 Y0.2877  
G01 X-2.6527 Y0.2866  
G01 X-2.6533 Y0.2854  
G01 X-2.6541 Y0.2844  
G01 X-2.6548 Y0.2834  
G01 X-2.6558 Y0.2825  
G01 X-2.6566 Y0.2814  
G01 X-2.6576 Y0.2807  
G01 X-2.6584 Y0.2798  
G01 X-2.6595 Y0.2791  
G01 X-2.6606 Y0.2782  
G01 X-2.6617 Y0.2776  
G01 X-2.6624 Y0.2772  
G01 X-2.6628 Y0.2764  
G01 X-2.6666 Y0.2711  
G01 X-2.6711 Y0.2666  
G01 X-2.6764 Y0.2628  
G01 X-2.6821 Y0.2599  
G01 X-2.6882 Y0.2579  
G01 X-2.6946 Y0.2569  
G01 X-2.7011 Y0.2569  
G01 X-2.7075 Y0.2579  
G01 X-2.7136 Y0.2599  
G01 X-2.7193 Y0.2628  
G01 X-2.7246 Y0.2666  
G01 X-2.7291 Y0.2711  
G01 X-2.7329 Y0.2764  
G01 X-2.7358 Y0.2821  
G01 X-2.7378 Y0.2882  
G01 X-2.7389 Y0.2946  
G01 X-2.7389 Y0.3011  
G01 X-2.7378 Y0.3075  
G01 X-2.7358 Y0.3136  
G01 X-2.7329 Y0.3193  
G01 X-2.7291 Y0.3246  
G01 X-2.7246 Y0.3291  
G01 X-2.7193 Y0.3329  
G01 X-2.7136 Y0.3358  
G01 X-2.7075 Y0.3378  
G01 X-2.7011 Y0.3389  
G01 X-2.7010 Y0.4276  
G01 X-2.7000 Y0.4326  
G01 X-2.6980 Y0.4373  
G01 X-2.6952 Y0.4416  
G01 X-2.6916 Y0.4452  
G01 X-2.5820 Y0.5548  
G01 X-2.5820 Y0.5633  
G01 X-2.5633 Y0.5820  
G01 X-2.5367 Y0.5820  
G00 Z0.0500  
G00 X-2.5798 Y0.9584  
G01 Z-0.0040 F10    
G01 X-2.7334 Y0.8048  F20    
G01 X-2.7377 Y0.8020  
G01 X-2.7424 Y0.8000  
G01 X-2.7474 Y0.7990  
G01 X-2.8776 Y0.7990  
G01 X-2.8826 Y0.8000  
G01 X-2.8873 Y0.8020  
G01 X-2.8916 Y0.8048  
G01 X-3.0548 Y0.9680  
G01 X-3.0633 Y0.9680  
G01 X-3.0693 Y0.9740  
G01 X-3.2490 Y0.9740  
G01 X-3.2490 Y0.2410  
G01 X-3.2446 Y0.2410  
G01 X-3.2382 Y0.2400  
G01 X-3.2321 Y0.2380  
G01 X-3.2264 Y0.2351  
G01 X-3.2211 Y0.2313  
G01 X-3.2166 Y0.2267  
G01 X-3.2128 Y0.2215  
G01 X-3.2099 Y0.2157  
G01 X-3.2079 Y0.2096  
G01 X-3.2069 Y0.2032  
G01 X-3.2069 Y0.1968  
G01 X-3.2079 Y0.1904  
G01 X-3.2099 Y0.1843  
G01 X-3.2128 Y0.1785  
G01 X-3.2166 Y0.1733  
G01 X-3.2211 Y0.1687  
G01 X-3.2264 Y0.1649  
G01 X-3.2321 Y0.1620  
G01 X-3.2382 Y0.1600  
G01 X-3.2446 Y0.1590  
G01 X-3.2511 Y0.1590  
G01 X-3.2575 Y0.1600  
G01 X-3.2636 Y0.1620  
G01 X-3.2693 Y0.1649  
G01 X-3.2746 Y0.1687  
G01 X-3.2791 Y0.1733  
G01 X-3.2829 Y0.1785  
G01 X-3.2858 Y0.1843  
G01 X-3.2878 Y0.1904  
G01 X-3.2889 Y0.1968  
G01 X-3.2889 Y0.2030  
G01 X-3.2916 Y0.2048  
G01 X-3.2952 Y0.2084  
G01 X-3.2980 Y0.2127  
G01 X-3.3000 Y0.2174  
G01 X-3.3010 Y0.2224  
G01 X-3.3010 Y1.0026  
G01 X-3.3000 Y1.0076  
G01 X-3.2980 Y1.0123  
G01 X-3.2952 Y1.0166  
G01 X-3.2916 Y1.0202  
G01 X-3.2873 Y1.0230  
G01 X-3.2826 Y1.0250  
G01 X-3.2776 Y1.0260  
G01 X-3.0693 Y1.0260  
G01 X-3.0633 Y1.0320  
G01 X-3.0367 Y1.0320  
G01 X-3.0180 Y1.0133  
G01 X-3.0180 Y1.0048  
G01 X-2.8642 Y0.8510  
G01 X-2.7608 Y0.8510  
G01 X-2.6260 Y0.9858  
G01 X-2.6260 Y1.2589  
G01 X-2.6561 Y1.2740  
G01 X-2.6813 Y1.2740  
G01 X-2.6848 Y1.2716  
G01 X-2.6907 Y1.2692  
G01 X-2.6968 Y1.2680  
G01 X-2.7032 Y1.2680  
G01 X-2.7093 Y1.2692  
G01 X-2.7152 Y1.2716  
G01 X-2.7187 Y1.2740  
G01 X-2.7526 Y1.2740  
G01 X-2.7576 Y1.2750  
G01 X-2.7623 Y1.2770  
G01 X-2.7666 Y1.2798  
G01 X-2.7702 Y1.2834  
G01 X-2.8858 Y1.3990  
G01 X-3.0925 Y1.3990  
G01 X-3.0975 Y1.4000  
G01 X-3.1023 Y1.4020  
G01 X-3.1065 Y1.4048  
G01 X-3.2026 Y1.5009  
G01 X-3.2411 Y1.5009  
G01 X-3.2740 Y1.4680  
G01 X-3.2740 Y1.3443  
G01 X-3.2680 Y1.3383  
G01 X-3.2680 Y1.3117  
G01 X-3.2867 Y1.2930  
G01 X-3.3133 Y1.2930  
G01 X-3.3320 Y1.3117  
G01 X-3.3320 Y1.3383  
G01 X-3.3260 Y1.3443  
G01 X-3.3260 Y1.4813  
G01 X-3.3250 Y1.4863  
G01 X-3.3230 Y1.4911  
G01 X-3.3202 Y1.4953  
G01 X-3.3043 Y1.5112  
G01 X-3.3083 Y1.5142  
G01 X-3.3146 Y1.5204  
G01 X-3.3197 Y1.5275  
G01 X-3.3237 Y1.5354  
G01 X-3.3265 Y1.5438  
G01 X-3.3279 Y1.5525  
G01 X-3.3279 Y1.5613  
G01 X-3.3265 Y1.5700  
G01 X-3.3237 Y1.5784  
G01 X-3.3197 Y1.5862  
G01 X-3.3146 Y1.5934  
G01 X-3.3083 Y1.5996  
G01 X-3.3012 Y1.6048  
G01 X-3.2933 Y1.6088  
G01 X-3.2850 Y1.6115  
G01 X-3.2763 Y1.6129  
G01 X-3.1674 Y1.6129  
G01 X-3.1587 Y1.6115  
G01 X-3.1504 Y1.6088  
G01 X-3.1425 Y1.6048  
G01 X-3.1354 Y1.5996  
G01 X-3.1291 Y1.5934  
G01 X-3.1240 Y1.5862  
G01 X-3.1200 Y1.5784  
G01 X-3.1172 Y1.5700  
G01 X-3.1159 Y1.5613  
G01 X-3.1159 Y1.5525  
G01 X-3.1172 Y1.5438  
G01 X-3.1200 Y1.5354  
G01 X-3.1240 Y1.5275  
G01 X-3.1291 Y1.5204  
G01 X-3.1354 Y1.5142  
G01 X-3.1394 Y1.5112  
G01 X-3.0792 Y1.4510  
G01 X-2.8724 Y1.4510  
G01 X-2.8674 Y1.4500  
G01 X-2.8627 Y1.4480  
G01 X-2.8584 Y1.4452  
G01 X-2.7392 Y1.3260  
G01 X-2.7187 Y1.3260  
G01 X-2.7152 Y1.3284  
G01 X-2.7093 Y1.3308  
G01 X-2.7032 Y1.3320  
G01 X-2.6968 Y1.3320  
G01 X-2.6907 Y1.3308  
G01 X-2.6848 Y1.3284  
G01 X-2.6813 Y1.3260  
G01 X-2.6516 Y1.3260  
G01 X-2.6507 Y1.3261  
G01 X-2.6491 Y1.3260  
G01 X-2.6474 Y1.3260  
G01 X-2.6465 Y1.3258  
G01 X-2.6456 Y1.3258  
G01 X-2.6440 Y1.3253  
G01 X-2.6424 Y1.3250  
G01 X-2.6416 Y1.3246  
G01 X-2.6407 Y1.3244  
G01 X-2.6392 Y1.3237  
G01 X-2.6377 Y1.3230  
G01 X-2.6369 Y1.3225  
G01 X-2.5892 Y1.2987  
G01 X-2.5877 Y1.2980  
G01 X-2.5869 Y1.2975  
G01 X-2.5861 Y1.2971  
G01 X-2.5848 Y1.2961  
G01 X-2.5834 Y1.2952  
G01 X-2.5828 Y1.2945  
G01 X-2.5820 Y1.2940  
G01 X-2.5810 Y1.2927  
G01 X-2.5798 Y1.2916  
G01 X-2.5793 Y1.2908  
G01 X-2.5787 Y1.2901  
G01 X-2.5779 Y1.2887  
G01 X-2.5770 Y1.2873  
G01 X-2.5766 Y1.2865  
G01 X-2.5761 Y1.2857  
G01 X-2.5756 Y1.2841  
G01 X-2.5750 Y1.2826  
G01 X-2.5748 Y1.2817  
G01 X-2.5745 Y1.2808  
G01 X-2.5743 Y1.2792  
G01 X-2.5740 Y1.2776  
G01 X-2.5740 Y1.2766  
G01 X-2.5739 Y1.2757  
G01 X-2.5740 Y1.2741  
G01 X-2.5740 Y0.9724  
G01 X-2.5750 Y0.9674  
G01 X-2.5770 Y0.9627  
G01 X-2.5798 Y0.9584  
G00 Z0.0500  
G00 X-2.6798 Y0.9834  
G01 Z-0.0040 F10    
G01 X-2.6834 Y0.9798  F20    
G01 X-2.7680 Y0.8952  
G01 X-2.7680 Y0.8867  
G01 X-2.7867 Y0.8680  
G01 X-2.8133 Y0.8680  
G01 X-2.8320 Y0.8867  
G01 X-2.8320 Y0.8952  
G01 X-2.9858 Y1.0490  
G01 X-3.3490 Y1.0490  
G01 X-3.3490 Y0.4760  
G01 X-3.3489 Y0.4744  
G01 X-3.3490 Y0.4734  
G01 X-3.3490 Y0.4724  
G01 X-3.3493 Y0.4709  
G01 X-3.3495 Y0.4693  
G01 X-3.3498 Y0.4684  
G01 X-3.3500 Y0.4674  
G01 X-3.3506 Y0.4659  
G01 X-3.3511 Y0.4644  
G01 X-3.3516 Y0.4636  
G01 X-3.3520 Y0.4627  
G01 X-3.3529 Y0.4613  
G01 X-3.3536 Y0.4599  
G01 X-3.3543 Y0.4592  
G01 X-3.3548 Y0.4584  
G01 X-3.3559 Y0.4573  
G01 X-3.3570 Y0.4561  
G01 X-3.3577 Y0.4555  
G01 X-3.3584 Y0.4548  
G01 X-3.3598 Y0.4539  
G01 X-3.5611 Y0.2969  
G01 X-3.5611 Y0.2946  
G01 X-3.5622 Y0.2882  
G01 X-3.5642 Y0.2821  
G01 X-3.5671 Y0.2764  
G01 X-3.5709 Y0.2711  
G01 X-3.5740 Y0.2680  
G01 X-3.5740 Y0.2298  
G01 X-3.5709 Y0.2267  
G01 X-3.5671 Y0.2215  
G01 X-3.5642 Y0.2157  
G01 X-3.5622 Y0.2096  
G01 X-3.5611 Y0.2032  
G01 X-3.5611 Y0.1968  
G01 X-3.5622 Y0.1904  
G01 X-3.5642 Y0.1843  
G01 X-3.5671 Y0.1785  
G01 X-3.5709 Y0.1733  
G01 X-3.5754 Y0.1687  
G01 X-3.5807 Y0.1649  
G01 X-3.5864 Y0.1620  
G01 X-3.5925 Y0.1600  
G01 X-3.5989 Y0.1590  
G01 X-3.6054 Y0.1590  
G01 X-3.6118 Y0.1600  
G01 X-3.6179 Y0.1620  
G01 X-3.6236 Y0.1649  
G01 X-3.6289 Y0.1687  
G01 X-3.6334 Y0.1733  
G01 X-3.6339 Y0.1740  
G01 X-3.6682 Y0.1740  
G01 X-3.6687 Y0.1733  
G01 X-3.6733 Y0.1687  
G01 X-3.6785 Y0.1649  
G01 X-3.6843 Y0.1620  
G01 X-3.6904 Y0.1600  
G01 X-3.6968 Y0.1590  
G01 X-3.7032 Y0.1590  
G01 X-3.7096 Y0.1600  
G01 X-3.7157 Y0.1620  
G01 X-3.7215 Y0.1649  
G01 X-3.7267 Y0.1687  
G01 X-3.7313 Y0.1733  
G01 X-3.7351 Y0.1785  
G01 X-3.7380 Y0.1843  
G01 X-3.7400 Y0.1904  
G01 X-3.7410 Y0.1968  
G01 X-3.7410 Y0.2032  
G01 X-3.7400 Y0.2096  
G01 X-3.7380 Y0.2157  
G01 X-3.7351 Y0.2215  
G01 X-3.7313 Y0.2267  
G01 X-3.7267 Y0.2313  
G01 X-3.7215 Y0.2351  
G01 X-3.7157 Y0.2380  
G01 X-3.7096 Y0.2400  
G01 X-3.7032 Y0.2410  
G01 X-3.6968 Y0.2410  
G01 X-3.6904 Y0.2400  
G01 X-3.6843 Y0.2380  
G01 X-3.6785 Y0.2351  
G01 X-3.6733 Y0.2313  
G01 X-3.6687 Y0.2267  
G01 X-3.6682 Y0.2260  
G01 X-3.6339 Y0.2260  
G01 X-3.6334 Y0.2267  
G01 X-3.6289 Y0.2313  
G01 X-3.6260 Y0.2334  
G01 X-3.6260 Y0.2645  
G01 X-3.6289 Y0.2666  
G01 X-3.6334 Y0.2711  
G01 X-3.6355 Y0.2740  
G01 X-3.6666 Y0.2740  
G01 X-3.6687 Y0.2711  
G01 X-3.6733 Y0.2666  
G01 X-3.6785 Y0.2628  
G01 X-3.6843 Y0.2599  
G01 X-3.6904 Y0.2579  
G01 X-3.6968 Y0.2569  
G01 X-3.7032 Y0.2569  
G01 X-3.7096 Y0.2579  
G01 X-3.7157 Y0.2599  
G01 X-3.7215 Y0.2628  
G01 X-3.7267 Y0.2666  
G01 X-3.7313 Y0.2711  
G01 X-3.7351 Y0.2764  
G01 X-3.7380 Y0.2821  
G01 X-3.7400 Y0.2882  
G01 X-3.7410 Y0.2946  
G01 X-3.7410 Y0.3011  
G01 X-3.7400 Y0.3075  
G01 X-3.7380 Y0.3136  
G01 X-3.7351 Y0.3193  
G01 X-3.7313 Y0.3246  
G01 X-3.7267 Y0.3291  
G01 X-3.7215 Y0.3329  
G01 X-3.7157 Y0.3358  
G01 X-3.7096 Y0.3378  
G01 X-3.7032 Y0.3389  
G01 X-3.6968 Y0.3389  
G01 X-3.6904 Y0.3378  
G01 X-3.6843 Y0.3358  
G01 X-3.6785 Y0.3329  
G01 X-3.6733 Y0.3291  
G01 X-3.6702 Y0.3260  
G01 X-3.6320 Y0.3260  
G01 X-3.6289 Y0.3291  
G01 X-3.6236 Y0.3329  
G01 X-3.6179 Y0.3358  
G01 X-3.6118 Y0.3378  
G01 X-3.6054 Y0.3389  
G01 X-3.5989 Y0.3389  
G01 X-3.5930 Y0.3379  
G01 X-3.4010 Y0.4877  
G01 X-3.4010 Y1.0776  
G01 X-3.4000 Y1.0826  
G01 X-3.3980 Y1.0873  
G01 X-3.3952 Y1.0916  
G01 X-3.3916 Y1.0952  
G01 X-3.3873 Y1.0980  
G01 X-3.3826 Y1.1000  
G01 X-3.3776 Y1.1010  
G01 X-2.9724 Y1.1010  
G01 X-2.9674 Y1.1000  
G01 X-2.9627 Y1.0980  
G01 X-2.9584 Y1.0952  
G01 X-2.9548 Y1.0916  
G01 X-2.8000 Y0.9368  
G01 X-2.7260 Y1.0108  
G01 X-2.7260 Y1.0813  
G01 X-2.7284 Y1.0848  
G01 X-2.7308 Y1.0907  
G01 X-2.7320 Y1.0968  
G01 X-2.7320 Y1.1032  
G01 X-2.7308 Y1.1093  
G01 X-2.7284 Y1.1152  
G01 X-2.7249 Y1.1204  
G01 X-2.7204 Y1.1249  
G01 X-2.7152 Y1.1284  
G01 X-2.7093 Y1.1308  
G01 X-2.7032 Y1.1320  
G01 X-2.6968 Y1.1320  
G01 X-2.6907 Y1.1308  
G01 X-2.6848 Y1.1284  
G01 X-2.6796 Y1.1249  
G01 X-2.6751 Y1.1204  
G01 X-2.6716 Y1.1152  
G01 X-2.6692 Y1.1093  
G01 X-2.6680 Y1.1032  
G01 X-2.6680 Y1.0968  
G01 X-2.6692 Y1.0907  
G01 X-2.6716 Y1.0848  
G01 X-2.6740 Y1.0813  
G01 X-2.6740 Y0.9974  
G01 X-2.6750 Y0.9924  
G01 X-2.6770 Y0.9877  
G01 X-2.6798 Y0.9834  
G00 Z0.0500  
G00 X-2.6796 Y1.1751  
G01 Z-0.0040 F10    
G01 X-2.6848 Y1.1716  F20    
G01 X-2.6907 Y1.1692  
G01 X-2.6968 Y1.1680  
G01 X-2.7032 Y1.1680  
G01 X-2.7093 Y1.1692  
G01 X-2.7152 Y1.1716  
G01 X-2.7187 Y1.1740  
G01 X-2.8476 Y1.1740  
G01 X-2.8478 Y1.1740  
G01 X-2.8502 Y1.1740  
G01 X-3.0307 Y1.1740  
G01 X-3.0367 Y1.1680  
G01 X-3.0633 Y1.1680  
G01 X-3.0693 Y1.1740  
G01 X-3.3026 Y1.1740  
G01 X-3.3076 Y1.1750  
G01 X-3.3123 Y1.1770  
G01 X-3.3166 Y1.1798  
G01 X-3.3202 Y1.1834  
G01 X-3.3421 Y1.2053  
G01 X-3.4400 Y1.2788  
G01 X-3.4416 Y1.2798  
G01 X-3.4421 Y1.2803  
G01 X-3.4426 Y1.2807  
G01 X-3.4439 Y1.2821  
G01 X-3.4452 Y1.2834  
G01 X-3.4456 Y1.2840  
G01 X-3.4461 Y1.2845  
G01 X-3.4470 Y1.2861  
G01 X-3.4480 Y1.2877  
G01 X-3.4483 Y1.2883  
G01 X-3.4487 Y1.2890  
G01 X-3.4493 Y1.2907  
G01 X-3.4500 Y1.2924  
G01 X-3.4501 Y1.2931  
G01 X-3.4504 Y1.2938  
G01 X-3.4506 Y1.2956  
G01 X-3.4510 Y1.2974  
G01 X-3.4510 Y1.2982  
G01 X-3.4511 Y1.2989  
G01 X-3.4510 Y1.3007  
G01 X-3.4510 Y1.4494  
G01 X-3.4511 Y1.4513  
G01 X-3.4510 Y1.4519  
G01 X-3.4510 Y1.4526  
G01 X-3.4506 Y1.4544  
G01 X-3.4503 Y1.4563  
G01 X-3.4501 Y1.4569  
G01 X-3.4500 Y1.4576  
G01 X-3.4493 Y1.4594  
G01 X-3.3251 Y1.8069  
G01 X-3.3250 Y1.8076  
G01 X-3.3243 Y1.8094  
G01 X-3.3236 Y1.8112  
G01 X-3.3233 Y1.8117  
G01 X-3.3230 Y1.8123  
G01 X-3.3220 Y1.8139  
G01 X-3.3210 Y1.8156  
G01 X-3.3206 Y1.8160  
G01 X-3.3202 Y1.8166  
G01 X-3.3188 Y1.8179  
G01 X-3.3176 Y1.8193  
G01 X-3.3170 Y1.8197  
G01 X-3.3166 Y1.8202  
G01 X-3.3150 Y1.8213  
G01 X-3.3134 Y1.8224  
G01 X-3.3129 Y1.8227  
G01 X-3.3123 Y1.8230  
G01 X-3.3105 Y1.8238  
G01 X-3.3088 Y1.8246  
G01 X-3.3082 Y1.8248  
G01 X-3.3076 Y1.8250  
G01 X-3.3057 Y1.8254  
G01 X-3.3038 Y1.8258  
G01 X-3.3032 Y1.8259  
G01 X-3.3026 Y1.8260  
G01 X-3.3006 Y1.8260  
G01 X-3.2987 Y1.8261  
G01 X-3.2981 Y1.8260  
G01 X-2.9764 Y1.8260  
G01 X-2.9753 Y1.8261  
G01 X-2.9739 Y1.8260  
G01 X-2.9724 Y1.8260  
G01 X-2.9713 Y1.8258  
G01 X-2.9702 Y1.8257  
G01 X-2.9688 Y1.8253  
G01 X-2.9674 Y1.8250  
G01 X-2.9664 Y1.8246  
G01 X-2.9653 Y1.8243  
G01 X-2.9640 Y1.8236  
G01 X-2.9627 Y1.8230  
G01 X-2.9618 Y1.8224  
G01 X-2.9608 Y1.8219  
G01 X-2.9596 Y1.8210  
G01 X-2.9584 Y1.8202  
G01 X-2.9576 Y1.8194  
G01 X-2.8484 Y1.7320  
G01 X-2.8367 Y1.7320  
G01 X-2.8180 Y1.7133  
G01 X-2.8180 Y1.6867  
G01 X-2.8367 Y1.6680  
G01 X-2.8633 Y1.6680  
G01 X-2.8820 Y1.6867  
G01 X-2.8820 Y1.6923  
G01 X-2.9841 Y1.7740  
G01 X-3.2817 Y1.7740  
G01 X-3.3990 Y1.4455  
G01 X-3.3990 Y1.3130  
G01 X-3.3100 Y1.2462  
G01 X-3.3084 Y1.2452  
G01 X-3.3079 Y1.2447  
G01 X-3.3074 Y1.2443  
G01 X-3.3061 Y1.2429  
G01 X-3.2892 Y1.2260  
G01 X-3.0693 Y1.2260  
G01 X-3.0633 Y1.2320  
G01 X-3.0367 Y1.2320  
G01 X-3.0307 Y1.2260  
G01 X-2.8884 Y1.2260  
G01 X-2.9165 Y1.2962  
G01 X-2.9320 Y1.3117  
G01 X-2.9320 Y1.3383  
G01 X-2.9133 Y1.3570  
G01 X-2.8867 Y1.3570  
G01 X-2.8680 Y1.3383  
G01 X-2.8680 Y1.3150  
G01 X-2.8324 Y1.2260  
G01 X-2.7187 Y1.2260  
G01 X-2.7152 Y1.2284  
G01 X-2.7093 Y1.2308  
G01 X-2.7032 Y1.2320  
G01 X-2.6968 Y1.2320  
G01 X-2.6907 Y1.2308  
G01 X-2.6848 Y1.2284  
G01 X-2.6796 Y1.2249  
G01 X-2.6751 Y1.2204  
G01 X-2.6716 Y1.2152  
G01 X-2.6692 Y1.2093  
G01 X-2.6680 Y1.2032  
G01 X-2.6680 Y1.1968  
G01 X-2.6692 Y1.1907  
G01 X-2.6716 Y1.1848  
G01 X-2.6751 Y1.1796  
G01 X-2.6796 Y1.1751  
G00 Z0.0500  
G00 X-2.6796 Y1.3751  
G01 Z-0.0040 F10    
G01 X-2.6848 Y1.3716  F20    
G01 X-2.6907 Y1.3692  
G01 X-2.6968 Y1.3680  
G01 X-2.7032 Y1.3680  
G01 X-2.7093 Y1.3692  
G01 X-2.7152 Y1.3716  
G01 X-2.7204 Y1.3751  
G01 X-2.7249 Y1.3796  
G01 X-2.7284 Y1.3848  
G01 X-2.7308 Y1.3907  
G01 X-2.7316 Y1.3948  
G01 X-2.7702 Y1.4334  
G01 X-2.7730 Y1.4377  
G01 X-2.7750 Y1.4424  
G01 X-2.7760 Y1.4474  
G01 X-2.7760 Y1.7370  
G01 X-2.9605 Y1.8754  
G01 X-3.2538 Y1.9243  
G01 X-3.2558 Y1.9245  
G01 X-3.2563 Y1.9247  
G01 X-3.2568 Y1.9248  
G01 X-3.2587 Y1.9255  
G01 X-3.4067 Y1.9748  
G01 X-3.4076 Y1.9750  
G01 X-3.4091 Y1.9756  
G01 X-3.4107 Y1.9761  
G01 X-3.4115 Y1.9766  
G01 X-3.4123 Y1.9770  
G01 X-3.4137 Y1.9779  
G01 X-3.4151 Y1.9787  
G01 X-3.4158 Y1.9793  
G01 X-3.4166 Y1.9798  
G01 X-3.4177 Y1.9810  
G01 X-3.4190 Y1.9820  
G01 X-3.4195 Y1.9828  
G01 X-3.4202 Y1.9834  
G01 X-3.4211 Y1.9848  
G01 X-3.4221 Y1.9861  
G01 X-3.4225 Y1.9869  
G01 X-3.4230 Y1.9877  
G01 X-3.4237 Y1.9892  
G01 X-3.4244 Y1.9907  
G01 X-3.4246 Y1.9916  
G01 X-3.4250 Y1.9924  
G01 X-3.4253 Y1.9940  
G01 X-3.4258 Y1.9956  
G01 X-3.4258 Y1.9965  
G01 X-3.4260 Y1.9974  
G01 X-3.4260 Y1.9991  
G01 X-3.4261 Y2.0007  
G01 X-3.4260 Y2.0016  
G01 X-3.4260 Y2.1487  
G01 X-3.4261 Y2.1499  
G01 X-3.4260 Y2.1512  
G01 X-3.4260 Y2.1526  
G01 X-3.4258 Y2.1538  
G01 X-3.4256 Y2.1550  
G01 X-3.4253 Y2.1563  
G01 X-3.4250 Y2.1576  
G01 X-3.4245 Y2.1587  
G01 X-3.4242 Y2.1599  
G01 X-3.4235 Y2.1611  
G01 X-3.4230 Y2.1623  
G01 X-3.4223 Y2.1634  
G01 X-3.4218 Y2.1645  
G01 X-3.4209 Y2.1655  
G01 X-3.4202 Y2.1666  
G01 X-3.4193 Y2.1675  
G01 X-3.4185 Y2.1684  
G01 X-3.4175 Y2.1693  
G01 X-3.4166 Y2.1702  
G01 X-3.4155 Y2.1709  
G01 X-3.4146 Y2.1717  
G01 X-3.4134 Y2.1723  
G01 X-3.4123 Y2.1730  
G01 X-3.4112 Y2.1735  
G01 X-3.3052 Y2.2306  
G01 X-3.3041 Y2.2313  
G01 X-3.3029 Y2.2318  
G01 X-3.3018 Y2.2324  
G01 X-3.3005 Y2.2327  
G01 X-3.2993 Y2.2333  
G01 X-3.2981 Y2.2335  
G01 X-3.2969 Y2.2339  
G01 X-3.2956 Y2.2340  
G01 X-3.2943 Y2.2343  
G01 X-3.2931 Y2.2343  
G01 X-3.2918 Y2.2344  
G01 X-3.2905 Y2.2343  
G01 X-2.9233 Y2.2343  
G01 X-2.9214 Y2.2390  
G01 X-2.9185 Y2.2432  
G01 X-2.8875 Y2.2743  
G01 X-2.8875 Y2.2787  
G01 X-2.8861 Y2.2859  
G01 X-2.8832 Y2.2928  
G01 X-2.8791 Y2.2989  
G01 X-2.8739 Y2.3041  
G01 X-2.8678 Y2.3082  
G01 X-2.8611 Y2.3110  
G01 X-2.8237 Y2.3858  
G01 X-2.8230 Y2.3873  
G01 X-2.8225 Y2.3881  
G01 X-2.8221 Y2.3889  
G01 X-2.8211 Y2.3902  
G01 X-2.8202 Y2.3916  
G01 X-2.8195 Y2.3922  
G01 X-2.8190 Y2.3930  
G01 X-2.8177 Y2.3940  
G01 X-2.8166 Y2.3952  
G01 X-2.8158 Y2.3957  
G01 X-2.8151 Y2.3963  
G01 X-2.8137 Y2.3971  
G01 X-2.8123 Y2.3980  
G01 X-2.8115 Y2.3984  
G01 X-2.8107 Y2.3989  
G01 X-2.8091 Y2.3994  
G01 X-2.8076 Y2.4000  
G01 X-2.8067 Y2.4002  
G01 X-2.8058 Y2.4005  
G01 X-2.8042 Y2.4007  
G01 X-2.8026 Y2.4010  
G01 X-2.8016 Y2.4010  
G01 X-2.8007 Y2.4011  
G01 X-2.7991 Y2.4010  
G01 X-1.2740 Y2.4010  
G01 X-1.2690 Y2.4000  
G01 X-1.2643 Y2.3980  
G01 X-1.2600 Y2.3952  
G01 X-1.1083 Y2.2435  
G01 X-1.1050 Y2.2440  
G01 X-1.0981 Y2.2440  
G01 X-1.0913 Y2.2429  
G01 X-1.0847 Y2.2408  
G01 X-1.0785 Y2.2376  
G01 X-1.0729 Y2.2336  
G01 X-1.0680 Y2.2287  
G01 X-1.0639 Y2.2231  
G01 X-1.0608 Y2.2169  
G01 X-1.0587 Y2.2103  
G01 X-1.0576 Y2.2035  
G01 X-1.0576 Y2.1965  
G01 X-1.0587 Y2.1897  
G01 X-1.0608 Y2.1831  
G01 X-1.0639 Y2.1769  
G01 X-1.0680 Y2.1713  
G01 X-1.0729 Y2.1664  
G01 X-1.0785 Y2.1624  
G01 X-1.0847 Y2.1592  
G01 X-1.0913 Y2.1571  
G01 X-1.0981 Y2.1560  
G01 X-1.1050 Y2.1560  
G01 X-1.1069 Y2.1563  
G01 X-1.1798 Y2.0834  
G01 X-1.1834 Y2.0798  
G01 X-1.1877 Y2.0770  
G01 X-1.1924 Y2.0750  
G01 X-1.1974 Y2.0740  
G01 X-1.3526 Y2.0740  
G01 X-1.3535 Y2.0742  
G01 X-1.3710 Y2.0742  
G01 X-1.3732 Y2.0751  
G01 X-1.3749 Y2.0768  
G01 X-1.3758 Y2.0790  
G01 X-1.3758 Y2.0965  
G01 X-1.3760 Y2.0974  
G01 X-1.3760 Y2.1026  
G01 X-1.3758 Y2.1035  
G01 X-1.3758 Y2.1210  
G01 X-1.3749 Y2.1232  
G01 X-1.3732 Y2.1249  
G01 X-1.3710 Y2.1258  
G01 X-1.3535 Y2.1258  
G01 X-1.3526 Y2.1260  
G01 X-1.2108 Y2.1260  
G01 X-1.1448 Y2.1919  
G01 X-1.1456 Y2.1965  
G01 X-1.1456 Y2.2035  
G01 X-1.1451 Y2.2067  
G01 X-1.2873 Y2.3490  
G01 X-2.7839 Y2.3490  
G01 X-2.8146 Y2.2876  
G01 X-2.8139 Y2.2859  
G01 X-2.8125 Y2.2787  
G01 X-2.8125 Y2.2713  
G01 X-2.8139 Y2.2641  
G01 X-2.8168 Y2.2572  
G01 X-2.8209 Y2.2511  
G01 X-2.8261 Y2.2459  
G01 X-2.8322 Y2.2418  
G01 X-2.8391 Y2.2389  
G01 X-2.8463 Y2.2375  
G01 X-2.8507 Y2.2375  
G01 X-2.8723 Y2.2159  
G01 X-2.8723 Y2.2057  
G01 X-2.8733 Y2.2007  
G01 X-2.8753 Y2.1959  
G01 X-2.8782 Y2.1917  
G01 X-2.8818 Y2.1881  
G01 X-2.8860 Y2.1852  
G01 X-2.8908 Y2.1833  
G01 X-2.8958 Y2.1823  
G01 X-3.2852 Y2.1823  
G01 X-3.3740 Y2.1345  
G01 X-3.3740 Y2.0187  
G01 X-3.2437 Y1.9753  
G01 X-2.9471 Y1.9259  
G01 X-2.9460 Y1.9258  
G01 X-2.9446 Y1.9255  
G01 X-2.9432 Y1.9252  
G01 X-2.9422 Y1.9248  
G01 X-2.9411 Y1.9246  
G01 X-2.9398 Y1.9239  
G01 X-2.9384 Y1.9234  
G01 X-2.9375 Y1.9228  
G01 X-2.9364 Y1.9223  
G01 X-2.9353 Y1.9215  
G01 X-2.9341 Y1.9207  
G01 X-2.9332 Y1.9199  
G01 X-2.7350 Y1.7712  
G01 X-2.7334 Y1.7702  
G01 X-2.7329 Y1.7697  
G01 X-2.7324 Y1.7693  
G01 X-2.7311 Y1.7679  
G01 X-2.7298 Y1.7666  
G01 X-2.7294 Y1.7660  
G01 X-2.7289 Y1.7655  
G01 X-2.7280 Y1.7639  
G01 X-2.7270 Y1.7623  
G01 X-2.7267 Y1.7617  
G01 X-2.7263 Y1.7610  
G01 X-2.7257 Y1.7593  
G01 X-2.7250 Y1.7576  
G01 X-2.7249 Y1.7569  
G01 X-2.7246 Y1.7562  
G01 X-2.7244 Y1.7544  
G01 X-2.7240 Y1.7526  
G01 X-2.7240 Y1.7518  
G01 X-2.7239 Y1.7511  
G01 X-2.7240 Y1.7493  
G01 X-2.7240 Y1.5760  
G01 X-2.6693 Y1.5760  
G01 X-2.6633 Y1.5820  
G01 X-2.6367 Y1.5820  
G01 X-2.6180 Y1.5633  
G01 X-2.6180 Y1.5367  
G01 X-2.6367 Y1.5180  
G01 X-2.6633 Y1.5180  
G01 X-2.6693 Y1.5240  
G01 X-2.7240 Y1.5240  
G01 X-2.7240 Y1.4608  
G01 X-2.6948 Y1.4316  
G01 X-2.6907 Y1.4308  
G01 X-2.6848 Y1.4284  
G01 X-2.6796 Y1.4249  
G01 X-2.6751 Y1.4204  
G01 X-2.6716 Y1.4152  
G01 X-2.6692 Y1.4093  
G01 X-2.6680 Y1.4032  
G01 X-2.6680 Y1.3968  
G01 X-2.6692 Y1.3907  
G01 X-2.6716 Y1.3848  
G01 X-2.6751 Y1.3796  
G01 X-2.6796 Y1.3751  
G00 Z0.0500  
G00 X-2.4249 Y1.3204  
G01 Z-0.0040 F10    
G01 X-2.4204 Y1.3249  F20    
G01 X-2.4152 Y1.3284  
G01 X-2.4093 Y1.3308  
G01 X-2.4032 Y1.3320  
G01 X-2.3968 Y1.3320  
G01 X-2.3907 Y1.3308  
G01 X-2.3848 Y1.3284  
G01 X-2.3813 Y1.3260  
G01 X-2.1260 Y1.3260  
G01 X-2.1260 Y1.3807  
G01 X-2.1320 Y1.3867  
G01 X-2.1320 Y1.4133  
G01 X-2.1133 Y1.4320  
G01 X-2.0867 Y1.4320  
G01 X-2.0680 Y1.4133  
G01 X-2.0680 Y1.3867  
G01 X-2.0740 Y1.3807  
G01 X-2.0740 Y1.3260  
G01 X-1.9193 Y1.3260  
G01 X-1.9133 Y1.3320  
G01 X-1.8867 Y1.3320  
G01 X-1.8807 Y1.3260  
G01 X-1.7193 Y1.3260  
G01 X-1.7133 Y1.3320  
G01 X-1.6867 Y1.3320  
G01 X-1.6680 Y1.3133  
G01 X-1.6680 Y1.2867  
G01 X-1.6867 Y1.2680  
G01 X-1.7133 Y1.2680  
G01 X-1.7193 Y1.2740  
G01 X-1.8807 Y1.2740  
G01 X-1.8867 Y1.2680  
G01 X-1.9133 Y1.2680  
G01 X-1.9193 Y1.2740  
G01 X-2.3813 Y1.2740  
G01 X-2.3848 Y1.2716  
G01 X-2.3907 Y1.2692  
G01 X-2.3968 Y1.2680  
G01 X-2.4032 Y1.2680  
G01 X-2.4093 Y1.2692  
G01 X-2.4152 Y1.2716  
G01 X-2.4204 Y1.2751  
G01 X-2.4249 Y1.2796  
G01 X-2.4284 Y1.2848  
G01 X-2.4308 Y1.2907  
G01 X-2.4320 Y1.2968  
G01 X-2.4320 Y1.3032  
G01 X-2.4308 Y1.3093  
G01 X-2.4284 Y1.3152  
G01 X-2.4249 Y1.3204  
G00 Z0.0500  
G00 X-2.4249 Y1.1204  
G01 Z-0.0040 F10    
G01 X-2.4204 Y1.1249  F20    
G01 X-2.4152 Y1.1284  
G01 X-2.4093 Y1.1308  
G01 X-2.4032 Y1.1320  
G01 X-2.3968 Y1.1320  
G01 X-2.3907 Y1.1308  
G01 X-2.3848 Y1.1284  
G01 X-2.3813 Y1.1260  
G01 X-2.2974 Y1.1260  
G01 X-2.2965 Y1.1258  
G01 X-2.2790 Y1.1258  
G01 X-2.2768 Y1.1249  
G01 X-2.2751 Y1.1232  
G01 X-2.2742 Y1.1210  
G01 X-2.2742 Y1.1035  
G01 X-2.2740 Y1.1026  
G01 X-2.2740 Y1.0974  
G01 X-2.2742 Y1.0965  
G01 X-2.2742 Y1.0790  
G01 X-2.2751 Y1.0768  
G01 X-2.2768 Y1.0751  
G01 X-2.2790 Y1.0742  
G01 X-2.2965 Y1.0742  
G01 X-2.2974 Y1.0740  
G01 X-2.3740 Y1.0740  
G01 X-2.3740 Y0.9693  
G01 X-2.3680 Y0.9633  
G01 X-2.3680 Y0.9367  
G01 X-2.3867 Y0.9180  
G01 X-2.4133 Y0.9180  
G01 X-2.4320 Y0.9367  
G01 X-2.4320 Y0.9633  
G01 X-2.4260 Y0.9693  
G01 X-2.4260 Y1.0813  
G01 X-2.4284 Y1.0848  
G01 X-2.4308 Y1.0907  
G01 X-2.4320 Y1.0968  
G01 X-2.4320 Y1.1032  
G01 X-2.4308 Y1.1093  
G01 X-2.4284 Y1.1152  
G01 X-2.4249 Y1.1204  
G00 Z0.0500  
G00 X-2.3232 Y1.8751  
G01 Z-0.0040 F10    
G01 X-2.3249 Y1.8768  F20    
G01 X-2.3258 Y1.8790  
G01 X-2.3258 Y1.8965  
G01 X-2.3260 Y1.8974  
G01 X-2.3260 Y1.9740  
G01 X-2.5656 Y1.9740  
G01 X-2.5664 Y1.9729  
G01 X-2.5713 Y1.9680  
G01 X-2.5769 Y1.9639  
G01 X-2.5831 Y1.9608  
G01 X-2.5897 Y1.9587  
G01 X-2.5965 Y1.9576  
G01 X-2.6035 Y1.9576  
G01 X-2.6103 Y1.9587  
G01 X-2.6169 Y1.9608  
G01 X-2.6231 Y1.9639  
G01 X-2.6287 Y1.9680  
G01 X-2.6336 Y1.9729  
G01 X-2.6355 Y1.9756  
G01 X-2.7214 Y1.9756  
G01 X-2.7345 Y1.9625  
G01 X-2.7655 Y1.9625  
G01 X-2.7875 Y1.9845  
G01 X-2.7875 Y2.0155  
G01 X-2.7655 Y2.0375  
G01 X-2.7345 Y2.0375  
G01 X-2.7245 Y2.0276  
G01 X-2.6355 Y2.0276  
G01 X-2.6336 Y2.0302  
G01 X-2.6287 Y2.0351  
G01 X-2.6231 Y2.0392  
G01 X-2.6169 Y2.0424  
G01 X-2.6103 Y2.0445  
G01 X-2.6035 Y2.0456  
G01 X-2.5965 Y2.0456  
G01 X-2.5897 Y2.0445  
G01 X-2.5831 Y2.0424  
G01 X-2.5769 Y2.0392  
G01 X-2.5713 Y2.0351  
G01 X-2.5664 Y2.0302  
G01 X-2.5634 Y2.0260  
G01 X-1.1358 Y2.0260  
G01 X-0.9416 Y2.2202  
G01 X-0.9373 Y2.2230  
G01 X-0.9326 Y2.2250  
G01 X-0.9276 Y2.2260  
G01 X-0.3474 Y2.2260  
G01 X-0.3424 Y2.2250  
G01 X-0.3377 Y2.2230  
G01 X-0.3334 Y2.2202  
G01 X-0.3298 Y2.2166  
G01 X-0.2798 Y2.1666  
G01 X-0.2770 Y2.1623  
G01 X-0.2750 Y2.1576  
G01 X-0.2740 Y2.1526  
G01 X-0.2740 Y2.0224  
G01 X-0.2750 Y2.0174  
G01 X-0.2770 Y2.0127  
G01 X-0.2798 Y2.0084  
G01 X-0.2834 Y2.0048  
G01 X-0.6490 Y1.6392  
G01 X-0.6490 Y1.5608  
G01 X-0.5798 Y1.4916  
G01 X-0.5770 Y1.4873  
G01 X-0.5750 Y1.4826  
G01 X-0.5740 Y1.4776  
G01 X-0.5740 Y1.1974  
G01 X-0.5750 Y1.1924  
G01 X-0.5770 Y1.1877  
G01 X-0.5798 Y1.1834  
G01 X-0.5834 Y1.1798  
G01 X-0.7334 Y1.0298  
G01 X-0.7377 Y1.0270  
G01 X-0.7424 Y1.0250  
G01 X-0.7474 Y1.0240  
G01 X-0.8307 Y1.0240  
G01 X-0.8367 Y1.0180  
G01 X-0.8633 Y1.0180  
G01 X-0.8693 Y1.0240  
G01 X-0.9813 Y1.0240  
G01 X-0.9848 Y1.0216  
G01 X-0.9907 Y1.0192  
G01 X-0.9968 Y1.0180  
G01 X-1.0032 Y1.0180  
G01 X-1.0093 Y1.0192  
G01 X-1.0152 Y1.0216  
G01 X-1.0204 Y1.0251  
G01 X-1.0249 Y1.0296  
G01 X-1.0284 Y1.0348  
G01 X-1.0308 Y1.0407  
G01 X-1.0320 Y1.0468  
G01 X-1.0320 Y1.0532  
G01 X-1.0308 Y1.0593  
G01 X-1.0284 Y1.0652  
G01 X-1.0249 Y1.0704  
G01 X-1.0204 Y1.0749  
G01 X-1.0152 Y1.0784  
G01 X-1.0093 Y1.0808  
G01 X-1.0032 Y1.0820  
G01 X-0.9968 Y1.0820  
G01 X-0.9907 Y1.0808  
G01 X-0.9848 Y1.0784  
G01 X-0.9813 Y1.0760  
G01 X-0.8693 Y1.0760  
G01 X-0.8633 Y1.0820  
G01 X-0.8367 Y1.0820  
G01 X-0.8307 Y1.0760  
G01 X-0.7608 Y1.0760  
G01 X-0.6260 Y1.2108  
G01 X-0.6260 Y1.4642  
G01 X-0.6916 Y1.5298  
G01 X-0.6952 Y1.5334  
G01 X-0.6980 Y1.5377  
G01 X-0.7000 Y1.5424  
G01 X-0.7010 Y1.5474  
G01 X-0.7010 Y1.6526  
G01 X-0.7000 Y1.6576  
G01 X-0.6980 Y1.6623  
G01 X-0.6952 Y1.6666  
G01 X-0.3260 Y2.0358  
G01 X-0.3260 Y2.1392  
G01 X-0.3608 Y2.1740  
G01 X-0.9142 Y2.1740  
G01 X-1.1048 Y1.9834  
G01 X-1.1084 Y1.9798  
G01 X-1.1127 Y1.9770  
G01 X-1.1174 Y1.9750  
G01 X-1.1224 Y1.9740  
G01 X-2.2740 Y1.9740  
G01 X-2.2740 Y1.8974  
G01 X-2.2742 Y1.8965  
G01 X-2.2742 Y1.8790  
G01 X-2.2751 Y1.8768  
G01 X-2.2768 Y1.8751  
G01 X-2.2790 Y1.8742  
G01 X-2.2965 Y1.8742  
G01 X-2.2974 Y1.8740  
G01 X-2.3026 Y1.8740  
G01 X-2.3035 Y1.8742  
G01 X-2.3210 Y1.8742  
G01 X-2.3232 Y1.8751  
G00 Z0.0500  
G00 X-2.3178 Y2.0570  
G01 Z-0.0040 F10    
G01 X-2.3430 Y2.0822  F20    
G01 X-2.3430 Y2.1178  
G01 X-2.3260 Y2.1348  
G01 X-2.3260 Y2.1652  
G01 X-2.3332 Y2.1724  
G01 X-2.5645 Y2.1724  
G01 X-2.5664 Y2.1698  
G01 X-2.5713 Y2.1649  
G01 X-2.5769 Y2.1608  
G01 X-2.5831 Y2.1576  
G01 X-2.5897 Y2.1555  
G01 X-2.5965 Y2.1544  
G01 X-2.6035 Y2.1544  
G01 X-2.6103 Y2.1555  
G01 X-2.6169 Y2.1576  
G01 X-2.6231 Y2.1608  
G01 X-2.6287 Y2.1649  
G01 X-2.6336 Y2.1698  
G01 X-2.6376 Y2.1754  
G01 X-2.6408 Y2.1815  
G01 X-2.6429 Y2.1881  
G01 X-2.6440 Y2.1950  
G01 X-2.6440 Y2.2019  
G01 X-2.6429 Y2.2087  
G01 X-2.6408 Y2.2153  
G01 X-2.6376 Y2.2215  
G01 X-2.6336 Y2.2271  
G01 X-2.6287 Y2.2320  
G01 X-2.6231 Y2.2361  
G01 X-2.6169 Y2.2392  
G01 X-2.6103 Y2.2413  
G01 X-2.6035 Y2.2424  
G01 X-2.5965 Y2.2424  
G01 X-2.5897 Y2.2413  
G01 X-2.5831 Y2.2392  
G01 X-2.5769 Y2.2361  
G01 X-2.5713 Y2.2320  
G01 X-2.5664 Y2.2271  
G01 X-2.5645 Y2.2244  
G01 X-2.3364 Y2.2244  
G01 X-2.3178 Y2.2430  
G01 X-2.2822 Y2.2430  
G01 X-2.2570 Y2.2178  
G01 X-2.2570 Y2.1822  
G01 X-2.2740 Y2.1652  
G01 X-2.2740 Y2.1348  
G01 X-2.2570 Y2.1178  
G01 X-2.2570 Y2.0822  
G01 X-2.2822 Y2.0570  
G01 X-2.3178 Y2.0570  
G00 Z0.0500  
G00 X-2.1672 Y2.1280  
G01 Z-0.0040 F10    
G01 X-2.1652 Y2.1260  F20    
G01 X-2.1348 Y2.1260  
G01 X-2.1328 Y2.1280  
G01 X-2.1672 Y2.1280  
G00 Z0.0500  
G00 X-2.1672 Y2.1720  
G01 Z-0.0040 F10    
G01 X-2.1328 Y2.1720  F20    
G01 X-2.1348 Y2.1740  
G01 X-2.1652 Y2.1740  
G01 X-2.1672 Y2.1720  
G00 Z0.0500  
G00 X-2.1652 Y2.2260  
G01 Z-0.0040 F10    
G01 X-2.1628 Y2.2260  F20    
G01 X-2.1740 Y2.2372  
G01 X-2.1740 Y2.2348  
G01 X-2.1652 Y2.2260  
G00 Z0.0500  
G00 X-2.0372 Y2.1740  
G01 Z-0.0040 F10    
G01 X-2.0298 Y2.1666  F20    
G01 X-2.0270 Y2.1623  
G01 X-2.0260 Y2.1600  
G01 X-2.0260 Y2.1652  
G01 X-2.0348 Y2.1740  
G01 X-2.0372 Y2.1740  
G00 Z0.0500  
G00 X-2.0260 Y2.1400  
G01 Z-0.0040 F10    
G01 X-2.0270 Y2.1377  F20    
G01 X-2.0298 Y2.1334  
G01 X-2.0334 Y2.1298  
G01 X-2.0377 Y2.1270  
G01 X-2.0400 Y2.1260  
G01 X-2.0348 Y2.1260  
G01 X-2.0260 Y2.1348  
G01 X-2.0260 Y2.1400  
G00 Z0.0500  
G00 X-2.0600 Y2.1260  
G01 Z-0.0040 F10    
G01 X-2.0623 Y2.1270  F20    
G01 X-2.0639 Y2.1280  
G01 X-2.0672 Y2.1280  
G01 X-2.0652 Y2.1260  
G01 X-2.0600 Y2.1260  
G00 Z0.0500  
G00 X-1.9430 Y2.1178  
G01 Z-0.0040 F10    
G01 X-1.9260 Y2.1348  F20    
G01 X-1.9260 Y2.1652  
G01 X-1.9430 Y2.1822  
G01 X-1.9430 Y2.2178  
G01 X-1.9260 Y2.2348  
G01 X-1.9260 Y2.2526  
G01 X-1.9250 Y2.2576  
G01 X-1.9230 Y2.2623  
G01 X-1.9202 Y2.2666  
G01 X-1.8702 Y2.3166  
G01 X-1.8666 Y2.3202  
G01 X-1.8623 Y2.3230  
G01 X-1.8576 Y2.3250  
G01 X-1.8526 Y2.3260  
G01 X-1.3959 Y2.3260  
G01 X-1.3908 Y2.3250  
G01 X-1.3861 Y2.3230  
G01 X-1.3819 Y2.3202  
G01 X-1.3051 Y2.2435  
G01 X-1.3019 Y2.2440  
G01 X-1.2950 Y2.2440  
G01 X-1.2881 Y2.2429  
G01 X-1.2815 Y2.2408  
G01 X-1.2754 Y2.2376  
G01 X-1.2698 Y2.2336  
G01 X-1.2649 Y2.2287  
G01 X-1.2608 Y2.2231  
G01 X-1.2576 Y2.2169  
G01 X-1.2555 Y2.2103  
G01 X-1.2544 Y2.2035  
G01 X-1.2544 Y2.1965  
G01 X-1.2555 Y2.1897  
G01 X-1.2576 Y2.1831  
G01 X-1.2608 Y2.1769  
G01 X-1.2649 Y2.1713  
G01 X-1.2698 Y2.1664  
G01 X-1.2754 Y2.1624  
G01 X-1.2815 Y2.1592  
G01 X-1.2881 Y2.1571  
G01 X-1.2950 Y2.1560  
G01 X-1.3019 Y2.1560  
G01 X-1.3087 Y2.1571  
G01 X-1.3153 Y2.1592  
G01 X-1.3215 Y2.1624  
G01 X-1.3271 Y2.1664  
G01 X-1.3320 Y2.1713  
G01 X-1.3361 Y2.1769  
G01 X-1.3392 Y2.1831  
G01 X-1.3413 Y2.1897  
G01 X-1.3424 Y2.1965  
G01 X-1.3424 Y2.2035  
G01 X-1.3419 Y2.2067  
G01 X-1.4092 Y2.2740  
G01 X-1.8392 Y2.2740  
G01 X-1.8740 Y2.2392  
G01 X-1.8740 Y2.2348  
G01 X-1.8570 Y2.2178  
G01 X-1.8570 Y2.1822  
G01 X-1.8740 Y2.1652  
G01 X-1.8740 Y2.1348  
G01 X-1.8570 Y2.1178  
G01 X-1.8570 Y2.0822  
G01 X-1.8822 Y2.0570  
G01 X-1.9178 Y2.0570  
G01 X-1.9430 Y2.0822  
G01 X-1.9430 Y2.1178  
G00 Z0.0500  
G00 X-1.8430 Y2.1178  
G01 Z-0.0040 F10    
G01 X-1.8178 Y2.1430  F20    
G01 X-1.7822 Y2.1430  
G01 X-1.7570 Y2.1178  
G01 X-1.7570 Y2.0822  
G01 X-1.7822 Y2.0570  
G01 X-1.8178 Y2.0570  
G01 X-1.8430 Y2.0822  
G01 X-1.8430 Y2.1178  
G00 Z0.0500  
G00 X-1.8430 Y2.1822  
G01 Z-0.0040 F10    
G01 X-1.8430 Y2.2178  F20    
G01 X-1.8178 Y2.2430  
G01 X-1.7822 Y2.2430  
G01 X-1.7570 Y2.2178  
G01 X-1.7570 Y2.1822  
G01 X-1.7822 Y2.1570  
G01 X-1.8178 Y2.1570  
G01 X-1.8430 Y2.1822  
G00 Z0.0500  
G00 X-1.7430 Y2.1822  
G01 Z-0.0040 F10    
G01 X-1.7430 Y2.2178  F20    
G01 X-1.7178 Y2.2430  
G01 X-1.6822 Y2.2430  
G01 X-1.6570 Y2.2178  
G01 X-1.6570 Y2.1822  
G01 X-1.6822 Y2.1570  
G01 X-1.7178 Y2.1570  
G01 X-1.7430 Y2.1822  
G00 Z0.0500  
G00 X-1.7430 Y2.1178  
G01 Z-0.0040 F10    
G01 X-1.7178 Y2.1430  F20    
G01 X-1.6822 Y2.1430  
G01 X-1.6570 Y2.1178  
G01 X-1.6570 Y2.0822  
G01 X-1.6822 Y2.0570  
G01 X-1.7178 Y2.0570  
G01 X-1.7430 Y2.0822  
G01 X-1.7430 Y2.1178  
G00 Z0.0500  
G00 X-1.6430 Y2.1178  
G01 Z-0.0040 F10    
G01 X-1.6178 Y2.1430  F20    
G01 X-1.5822 Y2.1430  
G01 X-1.5570 Y2.1178  
G01 X-1.5570 Y2.0822  
G01 X-1.5822 Y2.0570  
G01 X-1.6178 Y2.0570  
G01 X-1.6430 Y2.0822  
G01 X-1.6430 Y2.1178  
G00 Z0.0500  
G00 X-1.6430 Y2.1822  
G01 Z-0.0040 F10    
G01 X-1.6430 Y2.2178  F20    
G01 X-1.6178 Y2.2430  
G01 X-1.5822 Y2.2430  
G01 X-1.5570 Y2.2178  
G01 X-1.5570 Y2.1822  
G01 X-1.5822 Y2.1570  
G01 X-1.6178 Y2.1570  
G01 X-1.6430 Y2.1822  
G00 Z0.0500  
G00 X-1.7776 Y1.8760  
G01 Z-0.0040 F10    
G01 X-1.1724 Y1.8760  F20    
G01 X-1.1674 Y1.8750  
G01 X-1.1627 Y1.8730  
G01 X-1.1584 Y1.8702  
G01 X-1.1548 Y1.8666  
G01 X-1.0667 Y1.7785  
G01 X-1.0633 Y1.7820  
G01 X-1.0367 Y1.7820  
G01 X-1.0366 Y1.7819  
G01 X-0.9268 Y1.8185  
G01 X-0.9133 Y1.8320  
G01 X-0.8867 Y1.8320  
G01 X-0.8680 Y1.8133  
G01 X-0.8680 Y1.7867  
G01 X-0.8867 Y1.7680  
G01 X-0.9133 Y1.7680  
G01 X-0.9134 Y1.7681  
G01 X-1.0232 Y1.7315  
G01 X-1.0367 Y1.7180  
G01 X-1.0633 Y1.7180  
G01 X-1.0698 Y1.7245  
G01 X-1.0724 Y1.7240  
G01 X-1.0776 Y1.7240  
G01 X-1.0826 Y1.7250  
G01 X-1.0873 Y1.7270  
G01 X-1.0916 Y1.7298  
G01 X-1.1858 Y1.8240  
G01 X-1.7490 Y1.8240  
G01 X-1.7490 Y1.6608  
G01 X-1.5333 Y1.4451  
G01 X-1.5332 Y1.4450  
G01 X-1.5315 Y1.4433  
G01 X-1.5298 Y1.4416  
G01 X-1.5297 Y1.4414  
G01 X-1.5296 Y1.4413  
G01 X-1.5283 Y1.4393  
G01 X-1.5270 Y1.4373  
G01 X-1.5269 Y1.4372  
G01 X-1.5268 Y1.4370  
G01 X-1.5259 Y1.4348  
G01 X-1.5250 Y1.4326  
G01 X-1.5250 Y1.4324  
G01 X-1.4835 Y1.3288  
G01 X-1.4680 Y1.3133  
G01 X-1.4680 Y1.2867  
G01 X-1.4681 Y1.2866  
G01 X-1.4514 Y1.2365  
G01 X-1.4111 Y1.1760  
G01 X-1.3187 Y1.1760  
G01 X-1.3152 Y1.1784  
G01 X-1.3093 Y1.1808  
G01 X-1.3032 Y1.1820  
G01 X-1.2968 Y1.1820  
G01 X-1.2907 Y1.1808  
G01 X-1.2848 Y1.1784  
G01 X-1.2796 Y1.1749  
G01 X-1.2751 Y1.1704  
G01 X-1.2716 Y1.1652  
G01 X-1.2692 Y1.1593  
G01 X-1.2680 Y1.1532  
G01 X-1.2680 Y1.1468  
G01 X-1.2692 Y1.1407  
G01 X-1.2716 Y1.1348  
G01 X-1.2751 Y1.1296  
G01 X-1.2796 Y1.1251  
G01 X-1.2848 Y1.1216  
G01 X-1.2907 Y1.1192  
G01 X-1.2968 Y1.1180  
G01 X-1.3032 Y1.1180  
G01 X-1.3093 Y1.1192  
G01 X-1.3152 Y1.1216  
G01 X-1.3187 Y1.1240  
G01 X-1.4225 Y1.1240  
G01 X-1.4250 Y1.1240  
G01 X-1.4276 Y1.1240  
G01 X-1.4301 Y1.1245  
G01 X-1.4326 Y1.1250  
G01 X-1.4349 Y1.1260  
G01 X-1.4373 Y1.1270  
G01 X-1.4395 Y1.1284  
G01 X-1.4416 Y1.1298  
G01 X-1.4434 Y1.1316  
G01 X-1.4452 Y1.1334  
G01 X-1.4466 Y1.1355  
G01 X-1.4480 Y1.1377  
G01 X-1.4957 Y1.2092  
G01 X-1.4963 Y1.2099  
G01 X-1.4971 Y1.2113  
G01 X-1.4981 Y1.2127  
G01 X-1.4984 Y1.2136  
G01 X-1.4989 Y1.2143  
G01 X-1.4994 Y1.2159  
G01 X-1.5000 Y1.2174  
G01 X-1.5002 Y1.2183  
G01 X-1.5185 Y1.2732  
G01 X-1.5320 Y1.2867  
G01 X-1.5320 Y1.3100  
G01 X-1.5722 Y1.4104  
G01 X-1.7952 Y1.6334  
G01 X-1.7980 Y1.6377  
G01 X-1.8000 Y1.6424  
G01 X-1.8010 Y1.6474  
G01 X-1.8010 Y1.8526  
G01 X-1.8000 Y1.8576  
G01 X-1.7980 Y1.8623  
G01 X-1.7952 Y1.8666  
G01 X-1.7916 Y1.8702  
G01 X-1.7873 Y1.8730  
G01 X-1.7826 Y1.8750  
G01 X-1.7776 Y1.8760  
G00 Z0.0500  
G00 X-1.3749 Y1.6982  
G01 Z-0.0040 F10    
G01 X-1.3732 Y1.6999  F20    
G01 X-1.3710 Y1.7008  
G01 X-1.3535 Y1.7008  
G01 X-1.3526 Y1.7010  
G01 X-1.3474 Y1.7010  
G01 X-1.3465 Y1.7008  
G01 X-1.3290 Y1.7008  
G01 X-1.3268 Y1.6999  
G01 X-1.3251 Y1.6982  
G01 X-1.3242 Y1.6960  
G01 X-1.3242 Y1.6785  
G01 X-1.3240 Y1.6776  
G01 X-1.3240 Y1.5661  
G01 X-1.2559 Y1.5320  
G01 X-1.2367 Y1.5320  
G01 X-1.2180 Y1.5133  
G01 X-1.2180 Y1.4867  
G01 X-1.2240 Y1.4807  
G01 X-1.2240 Y1.4516  
G01 X-1.2239 Y1.4507  
G01 X-1.2240 Y1.4491  
G01 X-1.2240 Y1.4474  
G01 X-1.2242 Y1.4465  
G01 X-1.2242 Y1.4456  
G01 X-1.2247 Y1.4440  
G01 X-1.2250 Y1.4424  
G01 X-1.2254 Y1.4416  
G01 X-1.2256 Y1.4407  
G01 X-1.2263 Y1.4392  
G01 X-1.2270 Y1.4377  
G01 X-1.2275 Y1.4369  
G01 X-1.2684 Y1.3551  
G01 X-1.2680 Y1.3532  
G01 X-1.2680 Y1.3468  
G01 X-1.2692 Y1.3407  
G01 X-1.2716 Y1.3348  
G01 X-1.2751 Y1.3296  
G01 X-1.2796 Y1.3251  
G01 X-1.2848 Y1.3216  
G01 X-1.2907 Y1.3192  
G01 X-1.2968 Y1.3180  
G01 X-1.3032 Y1.3180  
G01 X-1.3093 Y1.3192  
G01 X-1.3152 Y1.3216  
G01 X-1.3204 Y1.3251  
G01 X-1.3249 Y1.3296  
G01 X-1.3284 Y1.3348  
G01 X-1.3308 Y1.3407  
G01 X-1.3320 Y1.3468  
G01 X-1.3320 Y1.3532  
G01 X-1.3308 Y1.3593  
G01 X-1.3284 Y1.3652  
G01 X-1.3249 Y1.3704  
G01 X-1.3204 Y1.3749  
G01 X-1.3152 Y1.3784  
G01 X-1.3148 Y1.3785  
G01 X-1.2760 Y1.4561  
G01 X-1.2760 Y1.4807  
G01 X-1.2820 Y1.4867  
G01 X-1.2820 Y1.4869  
G01 X-1.3608 Y1.5263  
G01 X-1.3623 Y1.5270  
G01 X-1.3631 Y1.5275  
G01 X-1.3639 Y1.5279  
G01 X-1.3652 Y1.5289  
G01 X-1.3666 Y1.5298  
G01 X-1.3672 Y1.5305  
G01 X-1.3680 Y1.5310  
G01 X-1.3690 Y1.5323  
G01 X-1.3702 Y1.5334  
G01 X-1.3707 Y1.5342  
G01 X-1.3713 Y1.5349  
G01 X-1.3721 Y1.5363  
G01 X-1.3730 Y1.5377  
G01 X-1.3734 Y1.5385  
G01 X-1.3739 Y1.5393  
G01 X-1.3744 Y1.5409  
G01 X-1.3750 Y1.5424  
G01 X-1.3752 Y1.5433  
G01 X-1.3755 Y1.5442  
G01 X-1.3757 Y1.5458  
G01 X-1.3760 Y1.5474  
G01 X-1.3760 Y1.5484  
G01 X-1.3761 Y1.5493  
G01 X-1.3760 Y1.5509  
G01 X-1.3760 Y1.6776  
G01 X-1.3758 Y1.6785  
G01 X-1.3758 Y1.6960  
G01 X-1.3749 Y1.6982  
G00 Z0.0500  
G00 X-1.0940 Y1.2430  
G01 Z-0.0040 F10    
G01 X-1.0927 Y1.2440  F20    
G01 X-1.0916 Y1.2452  
G01 X-1.0908 Y1.2457  
G01 X-1.0901 Y1.2463  
G01 X-1.0887 Y1.2471  
G01 X-1.0873 Y1.2480  
G01 X-1.0865 Y1.2484  
G01 X-1.0857 Y1.2489  
G01 X-1.0841 Y1.2494  
G01 X-1.0826 Y1.2500  
G01 X-1.0817 Y1.2502  
G01 X-1.0260 Y1.2688  
G01 X-1.0249 Y1.2704  
G01 X-1.0204 Y1.2749  
G01 X-1.0152 Y1.2784  
G01 X-1.0093 Y1.2808  
G01 X-1.0032 Y1.2820  
G01 X-0.9968 Y1.2820  
G01 X-0.9907 Y1.2808  
G01 X-0.9848 Y1.2784  
G01 X-0.9796 Y1.2749  
G01 X-0.9767 Y1.2720  
G01 X-0.9091 Y1.2720  
G01 X-0.8820 Y1.2991  
G01 X-0.8820 Y1.3133  
G01 X-0.8633 Y1.3320  
G01 X-0.8367 Y1.3320  
G01 X-0.8180 Y1.3133  
G01 X-0.8180 Y1.2867  
G01 X-0.8367 Y1.2680  
G01 X-0.8509 Y1.2680  
G01 X-0.8824 Y1.2365  
G01 X-0.8865 Y1.2324  
G01 X-0.8915 Y1.2295  
G01 X-0.8971 Y1.2280  
G01 X-0.9767 Y1.2280  
G01 X-0.9796 Y1.2251  
G01 X-0.9848 Y1.2216  
G01 X-0.9907 Y1.2192  
G01 X-0.9968 Y1.2180  
G01 X-1.0032 Y1.2180  
G01 X-1.0093 Y1.2192  
G01 X-1.0097 Y1.2194  
G01 X-1.0490 Y1.2063  
G01 X-1.0490 Y0.9457  
G01 X-0.7651 Y0.8802  
G01 X-0.7633 Y0.8820  
G01 X-0.7367 Y0.8820  
G01 X-0.7180 Y0.8633  
G01 X-0.7180 Y0.8367  
G01 X-0.7367 Y0.8180  
G01 X-0.7633 Y0.8180  
G01 X-0.7741 Y0.8289  
G01 X-1.0805 Y0.8996  
G01 X-1.0826 Y0.9000  
G01 X-1.0830 Y0.9002  
G01 X-1.0833 Y0.9002  
G01 X-1.0853 Y0.9011  
G01 X-1.0873 Y0.9020  
G01 X-1.0876 Y0.9022  
G01 X-1.0880 Y0.9023  
G01 X-1.0898 Y0.9036  
G01 X-1.0916 Y0.9048  
G01 X-1.0919 Y0.9051  
G01 X-1.0922 Y0.9053  
G01 X-1.0937 Y0.9069  
G01 X-1.0952 Y0.9084  
G01 X-1.0954 Y0.9088  
G01 X-1.0957 Y0.9090  
G01 X-1.0968 Y0.9109  
G01 X-1.0980 Y0.9127  
G01 X-1.0982 Y0.9131  
G01 X-1.0984 Y0.9134  
G01 X-1.0992 Y0.9154  
G01 X-1.1000 Y0.9174  
G01 X-1.1001 Y0.9178  
G01 X-1.1002 Y0.9182  
G01 X-1.1006 Y0.9203  
G01 X-1.1010 Y0.9224  
G01 X-1.1010 Y0.9228  
G01 X-1.1011 Y0.9232  
G01 X-1.1010 Y0.9254  
G01 X-1.1010 Y1.2234  
G01 X-1.1011 Y1.2243  
G01 X-1.1010 Y1.2259  
G01 X-1.1010 Y1.2276  
G01 X-1.1008 Y1.2285  
G01 X-1.1008 Y1.2294  
G01 X-1.1003 Y1.2310  
G01 X-1.1000 Y1.2326  
G01 X-1.0996 Y1.2334  
G01 X-1.0994 Y1.2343  
G01 X-1.0987 Y1.2358  
G01 X-1.0980 Y1.2373  
G01 X-1.0975 Y1.2381  
G01 X-1.0971 Y1.2389  
G01 X-1.0961 Y1.2402  
G01 X-1.0952 Y1.2416  
G01 X-1.0945 Y1.2422  
G01 X-1.0940 Y1.2430  
G00 Z0.0500  
G00 X-1.1367 Y0.6820  
G01 Z-0.0040 F10    
G01 X-1.1180 Y0.6633  F20    
G01 X-1.1180 Y0.6367  
G01 X-1.1315 Y0.6232  
G01 X-1.1681 Y0.5134  
G01 X-1.1680 Y0.5133  
G01 X-1.1680 Y0.4867  
G01 X-1.1867 Y0.4680  
G01 X-1.2133 Y0.4680  
G01 X-1.2320 Y0.4867  
G01 X-1.2320 Y0.5133  
G01 X-1.2185 Y0.5268  
G01 X-1.1819 Y0.6366  
G01 X-1.1820 Y0.6367  
G01 X-1.1820 Y0.6633  
G01 X-1.1633 Y0.6820  
G01 X-1.1367 Y0.6820  
G00 Z0.0500  
G00 X-0.4875 Y1.0845  
G01 Z-0.0040 F10    
G01 X-0.4875 Y1.1155  F20    
G01 X-0.4760 Y1.1270  
G01 X-0.4760 Y1.2807  
G01 X-0.4820 Y1.2867  
G01 X-0.4820 Y1.3133  
G01 X-0.4633 Y1.3320  
G01 X-0.4367 Y1.3320  
G01 X-0.4180 Y1.3133  
G01 X-0.4180 Y1.2867  
G01 X-0.4240 Y1.2807  
G01 X-0.4240 Y1.1270  
G01 X-0.4125 Y1.1155  
G01 X-0.4125 Y1.0845  
G01 X-0.4345 Y1.0625  
G01 X-0.4655 Y1.0625  
G01 X-0.4875 Y1.0845  
G00 Z0.0500  
G00 X-0.3861 Y1.0891  
G01 Z-0.0040 F10    
G01 X-0.3875 Y1.0963  F20    
G01 X-0.3875 Y1.1037  
G01 X-0.3861 Y1.1109  
G01 X-0.3832 Y1.1178  
G01 X-0.3791 Y1.1239  
G01 X-0.3760 Y1.1270  
G01 X-0.3760 Y1.3417  
G01 X-0.4889 Y1.5009  
G01 X-0.5263 Y1.5009  
G01 X-0.5350 Y1.5023  
G01 X-0.5433 Y1.5050  
G01 X-0.5512 Y1.5090  
G01 X-0.5583 Y1.5142  
G01 X-0.5646 Y1.5204  
G01 X-0.5697 Y1.5275  
G01 X-0.5737 Y1.5354  
G01 X-0.5765 Y1.5438  
G01 X-0.5779 Y1.5525  
G01 X-0.5779 Y1.5613  
G01 X-0.5765 Y1.5700  
G01 X-0.5737 Y1.5784  
G01 X-0.5697 Y1.5862  
G01 X-0.5646 Y1.5934  
G01 X-0.5583 Y1.5996  
G01 X-0.5512 Y1.6048  
G01 X-0.5433 Y1.6088  
G01 X-0.5350 Y1.6115  
G01 X-0.5263 Y1.6129  
G01 X-0.4174 Y1.6129  
G01 X-0.4087 Y1.6115  
G01 X-0.4004 Y1.6088  
G01 X-0.3925 Y1.6048  
G01 X-0.3854 Y1.5996  
G01 X-0.3791 Y1.5934  
G01 X-0.3740 Y1.5862  
G01 X-0.3700 Y1.5784  
G01 X-0.3672 Y1.5700  
G01 X-0.3659 Y1.5613  
G01 X-0.3659 Y1.5525  
G01 X-0.3672 Y1.5438  
G01 X-0.3700 Y1.5354  
G01 X-0.3740 Y1.5275  
G01 X-0.3791 Y1.5204  
G01 X-0.3854 Y1.5142  
G01 X-0.3925 Y1.5090  
G01 X-0.4004 Y1.5050  
G01 X-0.4087 Y1.5023  
G01 X-0.4174 Y1.5009  
G01 X-0.4251 Y1.5009  
G01 X-0.3301 Y1.3668  
G01 X-0.3298 Y1.3666  
G01 X-0.3286 Y1.3647  
G01 X-0.3273 Y1.3629  
G01 X-0.3272 Y1.3626  
G01 X-0.3270 Y1.3623  
G01 X-0.3261 Y1.3603  
G01 X-0.3252 Y1.3583  
G01 X-0.3251 Y1.3579  
G01 X-0.3250 Y1.3576  
G01 X-0.3246 Y1.3554  
G01 X-0.3241 Y1.3533  
G01 X-0.3241 Y1.3529  
G01 X-0.3240 Y1.3526  
G01 X-0.3240 Y1.3504  
G01 X-0.3239 Y1.3482  
G01 X-0.3240 Y1.3478  
G01 X-0.3240 Y1.1270  
G01 X-0.3209 Y1.1239  
G01 X-0.3168 Y1.1178  
G01 X-0.3139 Y1.1109  
G01 X-0.3125 Y1.1037  
G01 X-0.3125 Y1.0963  
G01 X-0.3139 Y1.0891  
G01 X-0.3168 Y1.0822  
G01 X-0.3209 Y1.0761  
G01 X-0.3261 Y1.0709  
G01 X-0.3322 Y1.0668  
G01 X-0.3391 Y1.0639  
G01 X-0.3463 Y1.0625  
G01 X-0.3537 Y1.0625  
G01 X-0.3609 Y1.0639  
G01 X-0.3678 Y1.0668  
G01 X-0.3739 Y1.0709  
G01 X-0.3791 Y1.0761  
G01 X-0.3832 Y1.0822  
G01 X-0.3861 Y1.0891  
G00 Z0.0500  
G00 X-0.3036 Y1.5508  
G01 Z-0.0040 F10    
G01 X-0.3098 Y1.5570  F20    
G01 X-0.3150 Y1.5642  
G01 X-0.3190 Y1.5720  
G01 X-0.3217 Y1.5804  
G01 X-0.3231 Y1.5891  
G01 X-0.3231 Y1.6979  
G01 X-0.3217 Y1.7066  
G01 X-0.3190 Y1.7150  
G01 X-0.3150 Y1.7229  
G01 X-0.3098 Y1.7300  
G01 X-0.3036 Y1.7362  
G01 X-0.2965 Y1.7414  
G01 X-0.2886 Y1.7454  
G01 X-0.2802 Y1.7481  
G01 X-0.2715 Y1.7495  
G01 X-0.2627 Y1.7495  
G01 X-0.2540 Y1.7481  
G01 X-0.2456 Y1.7454  
G01 X-0.2378 Y1.7414  
G01 X-0.2306 Y1.7362  
G01 X-0.2244 Y1.7300  
G01 X-0.2192 Y1.7229  
G01 X-0.2152 Y1.7150  
G01 X-0.2125 Y1.7066  
G01 X-0.2111 Y1.6979  
G01 X-0.2111 Y1.5891  
G01 X-0.2125 Y1.5804  
G01 X-0.2152 Y1.5720  
G01 X-0.2192 Y1.5642  
G01 X-0.2244 Y1.5570  
G01 X-0.2306 Y1.5508  
G01 X-0.2378 Y1.5456  
G01 X-0.2456 Y1.5416  
G01 X-0.2540 Y1.5389  
G01 X-0.2627 Y1.5375  
G01 X-0.2715 Y1.5375  
G01 X-0.2802 Y1.5389  
G01 X-0.2886 Y1.5416  
G01 X-0.2965 Y1.5456  
G01 X-0.3036 Y1.5508  
G00 Z0.0500  
G00 X-2.9744 Y1.5570  
G01 Z-0.0040 F10    
G01 X-2.9806 Y1.5508  F20    
G01 X-2.9878 Y1.5456  
G01 X-2.9956 Y1.5416  
G01 X-3.0040 Y1.5389  
G01 X-3.0127 Y1.5375  
G01 X-3.0215 Y1.5375  
G01 X-3.0302 Y1.5389  
G01 X-3.0386 Y1.5416  
G01 X-3.0465 Y1.5456  
G01 X-3.0536 Y1.5508  
G01 X-3.0598 Y1.5570  
G01 X-3.0650 Y1.5642  
G01 X-3.0690 Y1.5720  
G01 X-3.0717 Y1.5804  
G01 X-3.0731 Y1.5891  
G01 X-3.0731 Y1.6979  
G01 X-3.0717 Y1.7066  
G01 X-3.0690 Y1.7150  
G01 X-3.0650 Y1.7229  
G01 X-3.0598 Y1.7300  
G01 X-3.0536 Y1.7362  
G01 X-3.0465 Y1.7414  
G01 X-3.0386 Y1.7454  
G01 X-3.0302 Y1.7481  
G01 X-3.0215 Y1.7495  
G01 X-3.0127 Y1.7495  
G01 X-3.0040 Y1.7481  
G01 X-2.9956 Y1.7454  
G01 X-2.9878 Y1.7414  
G01 X-2.9806 Y1.7362  
G01 X-2.9744 Y1.7300  
G01 X-2.9692 Y1.7229  
G01 X-2.9652 Y1.7150  
G01 X-2.9625 Y1.7066  
G01 X-2.9611 Y1.6979  
G01 X-2.9611 Y1.5891  
G01 X-2.9625 Y1.5804  
G01 X-2.9652 Y1.5720  
G01 X-2.9692 Y1.5642  
G01 X-2.9744 Y1.5570  
G00 Z0.0500  
G00 X-3.0867 Y0.7320  
G01 Z-0.0040 F10    
G01 X-3.0680 Y0.7133  F20    
G01 X-3.0680 Y0.6867  
G01 X-3.0740 Y0.6807  
G01 X-3.0740 Y0.6016  
G01 X-3.0739 Y0.6007  
G01 X-3.0740 Y0.5991  
G01 X-3.0740 Y0.5974  
G01 X-3.0742 Y0.5965  
G01 X-3.0742 Y0.5956  
G01 X-3.0747 Y0.5940  
G01 X-3.0750 Y0.5924  
G01 X-3.0754 Y0.5916  
G01 X-3.0756 Y0.5907  
G01 X-3.0763 Y0.5892  
G01 X-3.0770 Y0.5877  
G01 X-3.0775 Y0.5869  
G01 X-3.1180 Y0.5059  
G01 X-3.1180 Y0.4867  
G01 X-3.1367 Y0.4680  
G01 X-3.1633 Y0.4680  
G01 X-3.1820 Y0.4867  
G01 X-3.1820 Y0.5133  
G01 X-3.1633 Y0.5320  
G01 X-3.1631 Y0.5320  
G01 X-3.1260 Y0.6061  
G01 X-3.1260 Y0.6807  
G01 X-3.1320 Y0.6867  
G01 X-3.1320 Y0.7133  
G01 X-3.1133 Y0.7320  
G01 X-3.0867 Y0.7320  
G00 Z0.0500  
G00 X-2.9820 Y0.5133  
G01 Z-0.0040 F10    
G01 X-2.9633 Y0.5320  F20    
G01 X-2.9367 Y0.5320  
G01 X-2.9180 Y0.5133  
G01 X-2.9180 Y0.4867  
G01 X-2.9367 Y0.4680  
G01 X-2.9493 Y0.4680  
G01 X-3.1240 Y0.3370  
G01 X-3.1240 Y0.2318  
G01 X-3.1233 Y0.2313  
G01 X-3.1187 Y0.2267  
G01 X-3.1149 Y0.2215  
G01 X-3.1120 Y0.2157  
G01 X-3.1100 Y0.2096  
G01 X-3.1090 Y0.2032  
G01 X-3.1090 Y0.1968  
G01 X-3.1100 Y0.1904  
G01 X-3.1120 Y0.1843  
G01 X-3.1149 Y0.1785  
G01 X-3.1187 Y0.1733  
G01 X-3.1233 Y0.1687  
G01 X-3.1285 Y0.1649  
G01 X-3.1343 Y0.1620  
G01 X-3.1404 Y0.1600  
G01 X-3.1468 Y0.1590  
G01 X-3.1532 Y0.1590  
G01 X-3.1596 Y0.1600  
G01 X-3.1657 Y0.1620  
G01 X-3.1715 Y0.1649  
G01 X-3.1767 Y0.1687  
G01 X-3.1813 Y0.1733  
G01 X-3.1851 Y0.1785  
G01 X-3.1880 Y0.1843  
G01 X-3.1900 Y0.1904  
G01 X-3.1910 Y0.1968  
G01 X-3.1910 Y0.2032  
G01 X-3.1900 Y0.2096  
G01 X-3.1880 Y0.2157  
G01 X-3.1851 Y0.2215  
G01 X-3.1813 Y0.2267  
G01 X-3.1767 Y0.2313  
G01 X-3.1760 Y0.2318  
G01 X-3.1760 Y0.3493  
G01 X-3.1761 Y0.3511  
G01 X-3.1760 Y0.3518  
G01 X-3.1760 Y0.3526  
G01 X-3.1756 Y0.3544  
G01 X-3.1754 Y0.3562  
G01 X-3.1751 Y0.3569  
G01 X-3.1750 Y0.3576  
G01 X-3.1743 Y0.3593  
G01 X-3.1737 Y0.3610  
G01 X-3.1733 Y0.3617  
G01 X-3.1730 Y0.3623  
G01 X-3.1720 Y0.3639  
G01 X-3.1711 Y0.3655  
G01 X-3.1706 Y0.3660  
G01 X-3.1702 Y0.3666  
G01 X-3.1689 Y0.3679  
G01 X-3.1676 Y0.3693  
G01 X-3.1671 Y0.3697  
G01 X-3.1666 Y0.3702  
G01 X-3.1650 Y0.3712  
G01 X-2.9820 Y0.5085  
G01 X-2.9820 Y0.5133  
G00 Z0.0500  
G00 X-3.4680 Y0.6867  
G01 Z-0.0040 F10    
G01 X-3.4867 Y0.6680  F20    
G01 X-3.4981 Y0.6680  
G01 X-3.7490 Y0.4627  
G01 X-3.7490 Y0.2974  
G01 X-3.7500 Y0.2924  
G01 X-3.7520 Y0.2877  
G01 X-3.7548 Y0.2834  
G01 X-3.7584 Y0.2798  
G01 X-3.7624 Y0.2772  
G01 X-3.7628 Y0.2764  
G01 X-3.7666 Y0.2711  
G01 X-3.7711 Y0.2666  
G01 X-3.7764 Y0.2628  
G01 X-3.7821 Y0.2599  
G01 X-3.7882 Y0.2579  
G01 X-3.7946 Y0.2569  
G01 X-3.8011 Y0.2569  
G01 X-3.8075 Y0.2579  
G01 X-3.8136 Y0.2599  
G01 X-3.8193 Y0.2628  
G01 X-3.8246 Y0.2666  
G01 X-3.8291 Y0.2711  
G01 X-3.8329 Y0.2764  
G01 X-3.8358 Y0.2821  
G01 X-3.8378 Y0.2882  
G01 X-3.8389 Y0.2946  
G01 X-3.8389 Y0.3011  
G01 X-3.8378 Y0.3075  
G01 X-3.8358 Y0.3136  
G01 X-3.8329 Y0.3193  
G01 X-3.8291 Y0.3246  
G01 X-3.8246 Y0.3291  
G01 X-3.8193 Y0.3329  
G01 X-3.8136 Y0.3358  
G01 X-3.8075 Y0.3378  
G01 X-3.8011 Y0.3389  
G01 X-3.8010 Y0.4737  
G01 X-3.8011 Y0.4750  
G01 X-3.8010 Y0.4763  
G01 X-3.8010 Y0.4776  
G01 X-3.8007 Y0.4788  
G01 X-3.8006 Y0.4801  
G01 X-3.8002 Y0.4813  
G01 X-3.8000 Y0.4826  
G01 X-3.7995 Y0.4838  
G01 X-3.7991 Y0.4850  
G01 X-3.7985 Y0.4861  
G01 X-3.7980 Y0.4873  
G01 X-3.7973 Y0.4884  
G01 X-3.7967 Y0.4895  
G01 X-3.7959 Y0.4905  
G01 X-3.7952 Y0.4916  
G01 X-3.7943 Y0.4925  
G01 X-3.7934 Y0.4935  
G01 X-3.7925 Y0.4943  
G01 X-3.7916 Y0.4952  
G01 X-3.7905 Y0.4959  
G01 X-3.5320 Y0.7074  
G01 X-3.5320 Y0.7133  
G01 X-3.5133 Y0.7320  
G01 X-3.4867 Y0.7320  
G01 X-3.4680 Y0.7133  
G01 X-3.4680 Y0.6867  
G00 Z0.0500  
G00 X-3.4680 Y0.8367  
G01 Z-0.0040 F10    
G01 X-3.4867 Y0.8180  F20    
G01 X-3.5028 Y0.8180  
G01 X-3.8490 Y0.6103  
G01 X-3.8490 Y0.2437  
G01 X-3.8205 Y0.2342  
G01 X-3.8193 Y0.2351  
G01 X-3.8136 Y0.2380  
G01 X-3.8075 Y0.2400  
G01 X-3.8011 Y0.2410  
G01 X-3.7946 Y0.2410  
G01 X-3.7882 Y0.2400  
G01 X-3.7821 Y0.2380  
G01 X-3.7764 Y0.2351  
G01 X-3.7711 Y0.2313  
G01 X-3.7666 Y0.2267  
G01 X-3.7628 Y0.2215  
G01 X-3.7599 Y0.2157  
G01 X-3.7579 Y0.2096  
G01 X-3.7569 Y0.2032  
G01 X-3.7569 Y0.1968  
G01 X-3.7579 Y0.1904  
G01 X-3.7599 Y0.1843  
G01 X-3.7628 Y0.1785  
G01 X-3.7666 Y0.1733  
G01 X-3.7711 Y0.1687  
G01 X-3.7764 Y0.1649  
G01 X-3.7821 Y0.1620  
G01 X-3.7882 Y0.1600  
G01 X-3.7946 Y0.1590  
G01 X-3.8011 Y0.1590  
G01 X-3.8075 Y0.1600  
G01 X-3.8136 Y0.1620  
G01 X-3.8193 Y0.1649  
G01 X-3.8246 Y0.1687  
G01 X-3.8291 Y0.1733  
G01 X-3.8329 Y0.1785  
G01 X-3.8358 Y0.1843  
G01 X-3.8359 Y0.1846  
G01 X-3.8817 Y0.1998  
G01 X-3.8826 Y0.2000  
G01 X-3.8841 Y0.2006  
G01 X-3.8857 Y0.2011  
G01 X-3.8865 Y0.2016  
G01 X-3.8873 Y0.2020  
G01 X-3.8887 Y0.2029  
G01 X-3.8901 Y0.2037  
G01 X-3.8908 Y0.2043  
G01 X-3.8916 Y0.2048  
G01 X-3.8927 Y0.2060  
G01 X-3.8940 Y0.2070  
G01 X-3.8945 Y0.2078  
G01 X-3.8952 Y0.2084  
G01 X-3.8961 Y0.2098  
G01 X-3.8971 Y0.2111  
G01 X-3.8975 Y0.2119  
G01 X-3.8980 Y0.2127  
G01 X-3.8987 Y0.2142  
G01 X-3.8994 Y0.2157  
G01 X-3.8996 Y0.2166  
G01 X-3.9000 Y0.2174  
G01 X-3.9003 Y0.2190  
G01 X-3.9008 Y0.2206  
G01 X-3.9008 Y0.2215  
G01 X-3.9010 Y0.2224  
G01 X-3.9010 Y0.2241  
G01 X-3.9011 Y0.2257  
G01 X-3.9010 Y0.2266  
G01 X-3.9010 Y0.6231  
G01 X-3.9011 Y0.6237  
G01 X-3.9010 Y0.6256  
G01 X-3.9010 Y0.6276  
G01 X-3.9009 Y0.6282  
G01 X-3.9008 Y0.6288  
G01 X-3.9004 Y0.6307  
G01 X-3.9000 Y0.6326  
G01 X-3.8998 Y0.6332  
G01 X-3.8996 Y0.6338  
G01 X-3.8988 Y0.6355  
G01 X-3.8980 Y0.6373  
G01 X-3.8977 Y0.6378  
G01 X-3.8974 Y0.6384  
G01 X-3.8963 Y0.6400  
G01 X-3.8952 Y0.6416  
G01 X-3.8947 Y0.6420  
G01 X-3.8944 Y0.6425  
G01 X-3.8929 Y0.6438  
G01 X-3.8916 Y0.6452  
G01 X-3.8910 Y0.6455  
G01 X-3.8906 Y0.6460  
G01 X-3.8889 Y0.6470  
G01 X-3.8873 Y0.6480  
G01 X-3.8867 Y0.6483  
G01 X-3.5320 Y0.8611  
G01 X-3.5320 Y0.8633  
G01 X-3.5133 Y0.8820  
G01 X-3.4867 Y0.8820  
G01 X-3.4680 Y0.8633  
G01 X-3.4680 Y0.8367  
G00 Z0.0500  
G00 X-0.1697 Y0.1723  
G01 Z-0.0040 F10    
G01 X-0.1745 Y0.1676  F20    
G01 X-0.1799 Y0.1637  
G01 X-0.1858 Y0.1606  
G01 X-0.1922 Y0.1585  
G01 X-0.1988 Y0.1575  
G01 X-0.2055 Y0.1575  
G01 X-0.2121 Y0.1585  
G01 X-0.2185 Y0.1606  
G01 X-0.2244 Y0.1637  
G01 X-0.2298 Y0.1676  
G01 X-0.2346 Y0.1723  
G01 X-0.2385 Y0.1777  
G01 X-0.2415 Y0.1837  
G01 X-0.2436 Y0.1900  
G01 X-0.2446 Y0.1967  
G01 X-0.2446 Y0.2033  
G01 X-0.2436 Y0.2100  
G01 X-0.2415 Y0.2163  
G01 X-0.2385 Y0.2223  
G01 X-0.2346 Y0.2277  
G01 X-0.2298 Y0.2324  
G01 X-0.2275 Y0.2341  
G01 X-0.2275 Y0.2830  
G01 X-0.3093 Y0.3239  
G01 X-0.7343 Y0.4183  
G01 X-0.7361 Y0.4165  
G01 X-0.7639 Y0.4165  
G01 X-0.7835 Y0.4361  
G01 X-0.7835 Y0.4639  
G01 X-0.7639 Y0.4835  
G01 X-0.7361 Y0.4835  
G01 X-0.7253 Y0.4727  
G01 X-0.2960 Y0.3773  
G01 X-0.2953 Y0.3772  
G01 X-0.2934 Y0.3767  
G01 X-0.2914 Y0.3763  
G01 X-0.2908 Y0.3760  
G01 X-0.2901 Y0.3758  
G01 X-0.2883 Y0.3749  
G01 X-0.2864 Y0.3741  
G01 X-0.2859 Y0.3737  
G01 X-0.1886 Y0.3250  
G01 X-0.1870 Y0.3244  
G01 X-0.1862 Y0.3238  
G01 X-0.1853 Y0.3234  
G01 X-0.1839 Y0.3223  
G01 X-0.1825 Y0.3214  
G01 X-0.1818 Y0.3207  
G01 X-0.1810 Y0.3201  
G01 X-0.1799 Y0.3188  
G01 X-0.1786 Y0.3175  
G01 X-0.1781 Y0.3167  
G01 X-0.1775 Y0.3160  
G01 X-0.1766 Y0.3145  
G01 X-0.1756 Y0.3130  
G01 X-0.1753 Y0.3121  
G01 X-0.1748 Y0.3113  
G01 X-0.1742 Y0.3096  
G01 X-0.1736 Y0.3080  
G01 X-0.1734 Y0.3071  
G01 X-0.1731 Y0.3061  
G01 X-0.1728 Y0.3044  
G01 X-0.1725 Y0.3027  
G01 X-0.1725 Y0.3017  
G01 X-0.1724 Y0.3008  
G01 X-0.1725 Y0.2990  
G01 X-0.1725 Y0.2305  
G01 X-0.1697 Y0.2277  
G01 X-0.1658 Y0.2223  
G01 X-0.1628 Y0.2163  
G01 X-0.1607 Y0.2100  
G01 X-0.1596 Y0.2033  
G01 X-0.1596 Y0.1967  
G01 X-0.1607 Y0.1900  
G01 X-0.1628 Y0.1837  
