(/Applications/pcbgcode.repo/pcb-gcode.ulp)
(Copyright 2005 - 2012 by John Johnson)
(See readme.txt for licensing terms.)
(This file generated from the board:)
(.../ParametricEQ/eagle/parametric_eq.brd)
(Current profile is .../pcbgcode.repo/profiles/mach.pp  )
(This file generated 12/15/15 5:48 PM)
(Settings from pcb-machine.h)
(spindle on time = 0.0000)
(spindle speed = 20000.0000)
(tool change at 0.0000  0.0000  3.0000  )
(feed rate xy = F0     )
(feed rate z  = F20    )
(Z Axis Settings)
(  High     Up        Down     Drill)
(1.0000  	0.0500  	-0.0040 	-0.0730 )
(Settings from pcb-defaults.h)
(isolate min = 0.0010)
(isolate max = 0.0150)
(isolate step = 0.0015)
(Generated bottom outlines, bottom drill, )
(Unit of measure: inch)
( Tool|       Size       |  Min Sub |  Max Sub |   Count )
( T01 | 0.800mm 0.0315in | 0.0000in | 0.0000in |       0 )
( T02 | 0.813mm 0.0320in | 0.0000in | 0.0000in |       0 )
( T03 | 0.914mm 0.0360in | 0.0000in | 0.0000in |       0 )
( T04 | 1.000mm 0.0394in | 0.0000in | 0.0000in |       0 )
( T05 | 1.016mm 0.0400in | 0.0000in | 0.0000in |       0 )
( T06 | 1.300mm 0.0512in | 0.0000in | 0.0000in |       0 )
(Inch Mode)
G20
(Absolute Coordinates)
G90
S20000
G00 Z1.0000  
G00 X0.0000  Y0.0000  
M03
G04 P0.000000
M05
G00 Z3.0000  
M06 T01  ; 0.0315  
G01 Z0.0000  F20    
M06 
G00 Z0.0500  
M03
G04 P0.000000
G82 X-1.1016 Y2.2000  Z-0.0730 F20    R0.0500  P0.010000
G82 X-1.2984 Y2.2000  
G82 X-2.6000 Y2.1984  
G82 X-2.6000 Y2.0016  
M05
G00 Z3.0000  
G00 X0.0000  Y0.0000  
M06 T02  ; 0.0320  
G01 Z0.0000  F20    
M06 
G00 Z0.0500  
M03
G04 P0.000000
G82 X-0.3500 Y1.1000  Z-0.0730 F20    R0.0500  P0.010000
G82 X-0.4500 Y1.1000  
G82 X-0.4500 Y1.3000  
G82 X-0.8500 Y1.3000  
G82 X-0.9000 Y1.4000  
G82 X-1.0000 Y1.3500  
G82 X-1.0000 Y1.2500  
G82 X-1.0000 Y1.1500  
G82 X-1.0000 Y1.0500  
G82 X-0.8500 Y1.0500  
G82 X-0.8500 Y1.1500  
G82 X-0.7500 Y0.8500  
G82 X-0.9500 Y0.6500  
G82 X-1.1500 Y0.6500  
G82 X-1.1500 Y0.5000  
G82 X-1.5500 Y0.5000  
G82 X-1.5500 Y0.7500  
G82 X-1.6500 Y1.0000  
G82 X-1.4500 Y1.0000  
G82 X-1.3000 Y1.0500  
G82 X-1.3000 Y1.1500  
G82 X-1.3000 Y1.2500  
G82 X-1.3000 Y1.3500  
G82 X-1.2500 Y1.5000  
G82 X-1.1500 Y1.5000  
G82 X-1.0500 Y1.7500  
G82 X-0.9000 Y1.8000  
G82 X-1.2500 Y1.7500  
G82 X-1.5000 Y1.7000  
G82 X-1.7000 Y1.7000  
G82 X-1.9000 Y1.7000  
G82 X-2.1000 Y1.6000  
G82 X-2.1000 Y1.4000  
G82 X-1.9000 Y1.3000  
G82 X-1.7000 Y1.3000  
G82 X-1.5000 Y1.3000  
G82 X-1.8500 Y1.0500  
G82 X-2.0500 Y1.0500  
G82 X-1.9500 Y0.7500  
G82 X-2.1500 Y0.7500  
G82 X-2.1500 Y0.5500  
G82 X-2.5500 Y0.5500  
G82 X-2.5500 Y0.7500  
G82 X-2.5000 Y0.9500  
G82 X-2.4000 Y0.9500  
G82 X-2.4000 Y1.1000  
G82 X-2.4000 Y1.2000  
G82 X-2.4000 Y1.3000  
G82 X-2.4000 Y1.4000  
G82 X-2.5500 Y1.5500  
G82 X-2.6500 Y1.5500  
G82 X-2.7000 Y1.4000  
G82 X-2.7000 Y1.3000  
G82 X-2.7000 Y1.2000  
G82 X-2.7000 Y1.1000  
G82 X-2.8000 Y0.9000  
G82 X-2.8000 Y0.7000  
G82 X-2.9500 Y0.5000  
G82 X-3.1500 Y0.5000  
G82 X-3.1000 Y0.7000  
G82 X-3.1000 Y0.8500  
G82 X-3.0500 Y1.0000  
G82 X-3.0500 Y1.2000  
G82 X-2.9000 Y1.3250  
G82 X-2.8500 Y1.7000  
G82 X-2.8500 Y2.0000  
G82 X-2.7500 Y2.0000  
G82 X-2.7500 Y2.2750  
G82 X-2.8500 Y2.2750  
G82 X-2.4500 Y1.7000  
G82 X-3.3000 Y1.3250  
G82 X-3.5000 Y0.8500  
G82 X-3.5000 Y0.7000  
G82 X-0.7500 Y0.4500  
M05
G00 Z3.0000  
G00 X0.0000  Y0.0000  
M06 T03  ; 0.0360  
G01 Z0.0000  F20    
M06 
G00 Z0.0500  
M03
G04 P0.000000
G82 X-1.8000 Y0.4500  Z-0.0730 F20    R0.0500  P0.010000
G82 X-2.1000 Y0.4500  
M05
G00 Z3.0000  
G00 X0.0000  Y0.0000  
M06 T04  ; 0.0394  
G01 Z0.0000  F20    
M06 
G00 Z0.0500  
M03
G04 P0.000000
G82 X-0.2021 Y0.2000  Z-0.0730 F20    R0.0500  P0.010000
G82 X-0.3000 Y0.2000  
G82 X-0.3979 Y0.2000  
G82 X-0.8521 Y0.2000  
G82 X-0.9500 Y0.2000  
G82 X-1.0479 Y0.2000  
G82 X-1.4021 Y0.2000  
G82 X-1.5000 Y0.2000  
G82 X-1.5979 Y0.2000  
G82 X-1.5979 Y0.2979  
G82 X-1.5000 Y0.2979  
G82 X-1.4021 Y0.2979  
G82 X-1.9521 Y0.2000  
G82 X-2.0500 Y0.2000  
G82 X-2.1479 Y0.2000  
G82 X-2.5021 Y0.2000  
G82 X-2.6000 Y0.2000  
G82 X-2.6979 Y0.2000  
G82 X-2.6979 Y0.2979  
G82 X-2.6000 Y0.2979  
G82 X-2.5021 Y0.2979  
G82 X-3.0521 Y0.2000  
G82 X-3.1500 Y0.2000  
G82 X-3.2479 Y0.2000  
G82 X-3.6021 Y0.2000  
G82 X-3.6021 Y0.2979  
G82 X-3.7000 Y0.2979  
G82 X-3.7979 Y0.2979  
G82 X-3.7979 Y0.2000  
G82 X-3.7000 Y0.2000  
G82 X-2.3000 Y1.1000  
G82 X-2.3000 Y1.9000  
G82 X-1.3500 Y2.1000  
G82 X-1.3500 Y1.6250  
M05
G00 Z3.0000  
G00 X0.0000  Y0.0000  
M06 T05  ; 0.0400  
G01 Z0.0000  F20    
M06 
G00 Z0.0500  
M03
G04 P0.000000
G82 X-1.6000 Y2.1000  Z-0.0730 F20    R0.0500  P0.010000
G82 X-1.7000 Y2.1000  
G82 X-1.7000 Y2.2000  
G82 X-1.6000 Y2.2000  
G82 X-1.8000 Y2.2000  
G82 X-1.9000 Y2.2000  
G82 X-1.9000 Y2.1000  
G82 X-1.8000 Y2.1000  
G82 X-2.0000 Y2.1000  
G82 X-2.0000 Y2.2000  
G82 X-2.1000 Y2.2000  
G82 X-2.1000 Y2.1000  
G82 X-2.2000 Y2.1000  
G82 X-2.3000 Y2.1000  
G82 X-2.3000 Y2.2000  
G82 X-2.2000 Y2.2000  
M05
G00 Z3.0000  
G00 X0.0000  Y0.0000  
M06 T06  ; 0.0512  
G01 Z0.0000  F20    
M06 
G00 Z0.0500  
M03
G04 P0.000000
G82 X-0.2670 Y1.6100  Z-0.0730 F20    R0.0500  P0.010000
G82 X-0.2671 Y1.6435  
G82 X-0.2670 Y1.6770  
G82 X-0.4390 Y1.5570  
G82 X-0.4719 Y1.5569  
G82 X-0.5050 Y1.5570  
G82 X-0.5050 Y2.0770  
G82 X-0.4719 Y2.0766  
G82 X-0.4380 Y2.0770  
G82 X-3.0170 Y1.6770  
G82 X-3.0171 Y1.6435  
G82 X-3.0170 Y1.6100  
G82 X-3.1890 Y1.5570  
G82 X-3.2219 Y1.5569  
G82 X-3.2550 Y1.5570  
G82 X-3.2550 Y2.0770  
G82 X-3.2219 Y2.0766  
G82 X-3.1880 Y2.0770  
T01 
G00 Z1.0000  
M05
M02
